; generated by Slic3r 1.2.9 on 2021-03-08 at 16:09:01

; external perimeters extrusion width = 0.40mm
; perimeters extrusion width = 0.67mm
; infill extrusion width = 0.67mm
; solid infill extrusion width = 0.67mm
; top infill extrusion width = 0.67mm
; support material extrusion width = 0.40mm

M107
M190 S65 ; set bed temperature
M104 S205 ; set temperature
G28 ; home all axes
;G29
G1 Z5 F5000 ; lift nozzle

M109 S205 ; wait for temperature to be reached
G21 ; set units to millimeters
G90 ; use absolute coordinates
M82 ; use absolute distances for extrusion
G92 E0
G1 Z0.150 F24000.000
G1 E-6.00000 F7200.00000
G92 E0
G1 X43.304 Y60.946 F24000.000
G1 E6.00000 F7200.00000
G1 X43.889 Y60.545 E6.07733 F1800.000
G1 X44.793 Y59.994 E6.19286
G1 X46.249 Y59.331 E6.36742
G1 X63.096 Y54.015 E8.29506
G1 X64.081 Y53.777 E8.40558
G1 X65.956 Y53.663 E8.61059
G1 X142.253 Y59.914 E16.96364
G1 X143.423 Y60.117 E17.09329 F1800.000
G1 X143.648 Y60.177 E17.11862
G1 X145.738 Y61.152 E17.37030
G1 X147.665 Y62.502 E17.62708
G1 X148.205 Y62.924 E17.70180
G1 X156.138 Y69.808 E18.84795
G1 X156.556 Y70.204 E18.91074
G1 X157.896 Y71.588 E19.12090
G1 X158.598 Y72.380 E19.23640
G1 X159.088 Y73.075 E19.32925
G1 X159.460 Y73.720 E19.41047
G1 X159.957 Y74.841 E19.54425
G1 X160.167 Y75.507 E19.62043
G1 X160.411 Y76.707 E19.75411
G1 X160.477 Y77.486 E19.83938
G1 X160.490 Y78.041 E19.89988
G1 X160.484 Y121.989 E24.69537
G1 X160.404 Y122.786 E24.78272
G1 X160.231 Y123.863 E24.90174
G1 X159.614 Y125.775 E25.12097
G1 X159.357 Y126.289 E25.18367
G1 X158.296 Y127.820 E25.38692
G1 X156.586 Y129.668 E25.66165
G1 X156.096 Y130.145 E25.73628
G1 X148.235 Y137.050 E26.87794
G1 X147.297 Y137.737 E27.00484
G1 X145.570 Y138.784 E27.22516
G1 X144.892 Y139.170 E27.31029
G1 X142.212 Y139.987 E27.61605
G1 X65.641 Y146.353 E35.99994
G1 X63.078 Y146.062 E36.28136
G1 X46.242 Y140.691 E38.20970
G1 X45.343 Y140.329 E38.31541
G1 X44.871 Y140.080 E38.37369
G1 X43.995 Y139.574 E38.48404
G1 X43.288 Y139.119 E38.57582
G1 X42.665 Y138.635 E38.66190
G1 X42.384 Y138.385 E38.70298
G1 X41.685 Y137.663 E38.81260
G1 X41.361 Y137.265 E38.86857
G1 X40.798 Y136.439 E38.97767
G1 X40.550 Y136.001 E39.03259
G1 X40.102 Y135.015 E39.15077
G1 X39.823 Y134.149 E39.25004
G1 X39.648 Y133.359 E39.33834
G1 X39.602 Y133.072 E39.36999
G1 X39.524 Y132.246 E39.46058
G1 X39.510 Y131.686 E39.52168
G1 X39.519 Y68.255 E46.44297
G1 X39.579 Y67.625 E46.51200
G1 X39.726 Y66.606 E46.62437
G1 X40.361 Y64.583 E46.85573
G1 X40.678 Y63.949 E46.93309
G1 X41.969 Y62.181 E47.17198
G1 X42.683 Y61.483 E47.28090
G1 X43.257 Y60.983 E47.36400
G1 E41.36400 F7200.00000
G92 E0
G1 X46.912 Y65.687 F24000.000
G1 E6.00000 F7200.00000
G1 X47.824 Y65.245 E6.11060 F1800.000
G1 X47.990 Y65.245 E6.12871
G1 X49.598 Y64.822 E6.31017
G1 X49.781 Y64.759 E6.33121
G1 X50.552 Y64.802 E6.41554
G1 X50.714 Y64.901 E6.43628
G1 X51.243 Y64.750 E6.49621
G1 X51.535 Y64.168 E6.56733
G1 X51.780 Y64.086 E6.59558
G1 X52.407 Y64.400 E6.67203
G1 X52.898 Y64.237 E6.72852
G1 X53.136 Y63.762 E6.78642
G1 X53.177 Y63.711 E6.79368
G1 X53.406 Y63.543 E6.82454
G1 X55.429 Y63.011 E7.05279
G1 X55.877 Y63.158 E7.10427
G1 X56.251 Y63.046 E7.14682
G1 X56.398 Y62.863 E7.17250
G1 X56.626 Y62.696 E7.20336
G1 X58.649 Y62.164 E7.43161
G1 X59.098 Y62.310 E7.48309
G1 X59.471 Y62.199 E7.52564
G1 X59.619 Y62.015 E7.55132
G1 X59.847 Y61.848 E7.58218
G1 X61.870 Y61.316 E7.81043
G1 X62.335 Y61.468 E7.86379
G1 X62.763 Y61.289 E7.91442
G1 X62.807 Y61.201 E7.92517
G1 X63.053 Y61.120 E7.95341
G1 X63.679 Y61.434 E8.02987
G1 X64.171 Y61.270 E8.08635
G1 X64.881 Y59.853 E8.25930
G1 X65.126 Y59.772 E8.28755
G1 X65.923 Y60.171 E8.38477
G1 X66.156 Y60.193 E8.41035 F1800.000
G1 X66.592 Y60.069 E8.45981
G1 X66.722 Y60.087 E8.47415
G1 X68.144 Y60.962 E8.65626
G1 X68.214 Y61.056 E8.66905
G1 X68.320 Y61.428 E8.71126
G1 X68.496 Y61.634 E8.74087
G1 X68.899 Y61.824 E8.78949
G1 X69.962 Y63.321 E8.98978
G1 X69.991 Y63.401 E8.99906
G1 X70.013 Y63.699 E9.03168
G1 X70.205 Y63.977 E9.06853
G1 X70.538 Y64.133 E9.10864
G1 X71.600 Y65.630 E9.30893
G1 X71.629 Y65.710 E9.31820
G1 X71.652 Y66.008 E9.35082
G1 X71.844 Y66.286 E9.38768
G1 X72.177 Y66.442 E9.42778
G1 X73.239 Y67.939 E9.62807
G1 X73.268 Y68.019 E9.63735
G1 X73.291 Y68.317 E9.66997
G1 X73.483 Y68.595 E9.70682
G1 X73.815 Y68.751 E9.74693
G1 X74.878 Y70.248 E9.94722
G1 X74.906 Y70.328 E9.95649
G1 X74.929 Y70.626 E9.98911
G1 X75.121 Y70.904 E10.02597
G1 X75.454 Y71.060 E10.06607
G1 X76.516 Y72.557 E10.26636
G1 X76.545 Y72.637 E10.27564
G1 X76.568 Y72.935 E10.30826
G1 X76.760 Y73.213 E10.34511
G1 X77.093 Y73.369 E10.38522
G1 X78.155 Y74.866 E10.58551
G1 X78.184 Y74.946 E10.59478
G1 X78.225 Y75.482 E10.65346
G1 X78.579 Y75.814 E10.70643
G1 X79.934 Y75.831 E10.85429
G1 X80.309 Y76.045 E10.90145
G1 X80.637 Y76.047 E10.93725
G1 X80.802 Y75.955 E10.95779
G1 X80.894 Y75.935 E10.96805
G1 X82.648 Y76.091 E11.16023
G1 X82.946 Y76.285 E11.19900
G1 X83.293 Y76.296 E11.23689
G1 X83.478 Y76.193 E11.26004
G1 X83.570 Y76.173 E11.27030
G1 X85.325 Y76.329 E11.46247
G1 X85.623 Y76.523 E11.50124
G1 X85.970 Y76.534 E11.53914
G1 X86.155 Y76.431 E11.56228
G1 X86.247 Y76.411 E11.57254
G1 X88.001 Y76.567 E11.76471
G1 X88.299 Y76.761 E11.80349
G1 X88.647 Y76.772 E11.84138
G1 X88.832 Y76.669 E11.86452
G1 X88.924 Y76.649 E11.87478
G1 X90.678 Y76.805 E12.06696
G1 X90.889 Y76.942 E12.09445
G1 X91.222 Y76.961 E12.13075
G1 X91.453 Y76.845 E12.15896
G1 X92.171 Y76.972 E12.23858
G1 X92.312 Y77.122 E12.26103
G1 X92.666 Y77.212 E12.30090
G1 X92.746 Y77.185 E12.31005
G1 X93.302 Y77.464 E12.37791
G1 X93.550 Y77.482 E12.40504
G1 X94.084 Y77.304 E12.46648
G1 X94.873 Y77.700 E12.56272
G1 X95.173 Y77.697 E12.59551
G1 X95.383 Y77.589 E12.62129
G1 X95.480 Y77.572 E12.63206
G1 X97.193 Y77.827 E12.82104
G1 X97.436 Y78.000 E12.85358
G1 X97.798 Y78.020 E12.89311
G1 X97.995 Y77.910 E12.91783
G1 X98.087 Y77.890 E12.92809
G1 X99.842 Y78.046 E13.12026
G1 X100.107 Y78.218 E13.15472
G1 X100.382 Y78.256 E13.18506
G1 X100.867 Y78.106 E13.24047
G1 X100.994 Y78.119 E13.25440
G1 X102.429 Y78.913 E13.43333
G1 X102.938 Y78.756 E13.49146
G1 X103.002 Y78.627 E13.50713
G1 X103.248 Y78.546 E13.53537
G1 X103.874 Y78.860 E13.61183
G1 X104.365 Y78.696 E13.66832
G1 X104.557 Y78.315 E13.71486
G1 X104.622 Y78.247 E13.72512
G1 X104.892 Y78.096 E13.75890
G1 X104.984 Y78.077 E13.76916
G1 X106.738 Y78.233 E13.96133
G1 X107.036 Y78.426 E14.00011
G1 X107.383 Y78.438 E14.03800
G1 X107.569 Y78.334 E14.06114
G1 X107.661 Y78.315 E14.07140
G1 X109.415 Y78.471 E14.26358
G1 X109.713 Y78.664 E14.30235
G1 X110.060 Y78.675 E14.34024
G1 X110.245 Y78.572 E14.36339
G1 X110.337 Y78.553 E14.37365
G1 X112.091 Y78.708 E14.56582
G1 X112.390 Y78.902 E14.60459
G1 X112.737 Y78.913 E14.64249
G1 X112.922 Y78.810 E14.66563
G1 X113.014 Y78.790 E14.67589
G1 X114.768 Y78.946 E14.86806
G1 X115.066 Y79.140 E14.90684
G1 X115.413 Y79.151 E14.94473
G1 X115.599 Y79.048 E14.96787
G1 X115.691 Y79.028 E14.97813
G1 X117.445 Y79.184 E15.17031
G1 X117.743 Y79.378 E15.20908
G1 X118.090 Y79.389 E15.24697
G1 X118.275 Y79.286 E15.27012
G1 X118.367 Y79.266 E15.28038
G1 X120.122 Y79.422 E15.47255
G1 X120.252 Y79.507 E15.48948
G1 X120.286 Y79.569 E15.49724
G1 X120.706 Y79.732 E15.54635
G1 X120.851 Y79.684 E15.56302
G1 X121.477 Y79.998 E15.63948
G1 X121.969 Y79.834 E15.69597
G1 X122.091 Y79.591 E15.72567
G1 X122.336 Y79.509 E15.75391
G1 X122.963 Y79.823 E15.83037
G1 X123.454 Y79.660 E15.88685
G1 X124.118 Y78.336 E16.04849
G1 X124.265 Y78.172 E16.07255
G1 X126.691 Y76.626 E16.38644
G1 X126.901 Y76.643 E16.40944
G1 X127.114 Y76.836 E16.44078
G1 X127.723 Y76.721 E16.50835
G1 X128.054 Y76.060 E16.58904
G1 X128.300 Y75.978 E16.61729
G1 X128.926 Y76.292 E16.69374
G1 X129.418 Y76.129 E16.75023
G1 X130.308 Y74.352 E16.96707
G1 X130.554 Y74.271 E16.99532
G1 X131.180 Y74.585 E17.07178
G1 X131.671 Y74.422 E17.12826
G1 X132.335 Y73.097 E17.28990
G1 X132.483 Y72.934 E17.31396
G1 X134.909 Y71.387 E17.62785
G1 X135.119 Y71.405 E17.65085
G1 X135.332 Y71.597 E17.68219
G1 X135.940 Y71.482 E17.74976
G1 X136.444 Y70.478 E17.87237
G1 X136.559 Y70.341 E17.89188
G1 X139.017 Y68.768 E18.21033
G1 X139.227 Y68.785 E18.23333
G1 X139.441 Y68.978 E18.26467
G1 X140.049 Y68.863 E18.33224
G1 X140.580 Y67.804 E18.46149
G1 X140.725 Y67.756 E18.47818
G1 X140.957 Y67.293 E18.53467
G1 X140.909 Y67.148 E18.55136
G1 X141.451 Y66.066 E18.68345
G1 X141.564 Y65.978 E18.69902
G1 X142.034 Y65.879 E18.75139
G1 X142.172 Y65.913 E18.76696
G1 X143.482 Y66.994 E18.95220
G1 X143.647 Y67.267 E18.98703
G1 X143.996 Y67.427 E19.02886
G1 X144.108 Y67.408 E19.04136
G1 X144.251 Y67.453 E19.05772
G1 X145.484 Y68.667 E19.24651
G1 X145.625 Y68.939 E19.27983
G1 X145.837 Y69.106 E19.30930
G1 X146.128 Y69.177 E19.34203
G1 X147.438 Y70.257 E19.52727
G1 X147.493 Y70.348 E19.53884
G1 X147.518 Y70.467 E19.55213
G1 X147.768 Y70.726 E19.59141
G1 X148.106 Y70.809 E19.62939
G1 X149.416 Y71.889 E19.81463
G1 X149.471 Y71.980 E19.82620
G1 X149.543 Y72.323 E19.86449
G1 X149.508 Y72.602 E19.89515
G1 X149.982 Y73.040 E19.96559
G1 X150.204 Y72.993 E19.99041
G1 X150.343 Y73.027 E20.00598
G1 X153.516 Y75.629 E20.45379
G1 X154.147 Y76.352 E20.55845
G1 X154.446 Y77.179 E20.65439
G1 X154.443 Y77.449 E20.68389
G1 X154.408 Y77.581 E20.69880
G1 X154.413 Y77.764 E20.71880
G1 X154.514 Y78.067 E20.75364
G1 X154.428 Y78.239 E20.77452
G1 X154.410 Y78.486 E20.80164
G1 X154.514 Y78.798 E20.83749
G1 X154.428 Y78.969 E20.85837
G1 X154.410 Y79.217 E20.88549
G1 X154.514 Y79.529 E20.92134
G1 X154.428 Y79.700 E20.94222
G1 X154.410 Y79.948 E20.96934
G1 X154.514 Y80.260 E21.00519
G1 X154.428 Y80.431 E21.02607
G1 X154.410 Y80.679 E21.05319
G1 X154.514 Y80.991 E21.08904
G1 X154.428 Y81.162 E21.10992
G1 X154.410 Y81.410 E21.13704
G1 X154.514 Y81.721 E21.17289
G1 X154.428 Y81.892 E21.19376
G1 X154.410 Y82.140 E21.22089
G1 X154.514 Y82.452 E21.25674
G1 X154.428 Y82.623 E21.27761
G1 X154.410 Y82.871 E21.30474
G1 X154.514 Y83.183 E21.34059
G1 X154.428 Y83.354 E21.36146
G1 X154.410 Y83.602 E21.38859
G1 X154.514 Y83.914 E21.42444
G1 X154.428 Y84.085 E21.44531
G1 X154.410 Y84.333 E21.47244
G1 X154.514 Y84.644 E21.50829
G1 X154.428 Y84.815 E21.52916
G1 X154.410 Y85.063 E21.55629
G1 X154.514 Y85.375 E21.59213
G1 X154.428 Y85.546 E21.61301
G1 X154.410 Y85.794 E21.64014
G1 X154.514 Y86.106 E21.67598
G1 X154.428 Y86.277 E21.69686
G1 X154.410 Y86.525 E21.72399
G1 X154.514 Y86.837 E21.75983
G1 X154.428 Y87.008 E21.78071
G1 X154.410 Y87.256 E21.80783
G1 X154.514 Y87.567 E21.84368
G1 X154.428 Y87.738 E21.86456
G1 X154.410 Y87.986 E21.89168
G1 X154.514 Y88.298 E21.92753
G1 X154.428 Y88.469 E21.94841
G1 X154.410 Y88.717 E21.97553
G1 X154.514 Y89.029 E22.01138
G1 X154.428 Y89.200 E22.03226
G1 X154.410 Y89.448 E22.05938
G1 X154.514 Y89.760 E22.09523
G1 X154.428 Y89.931 E22.11611
G1 X154.410 Y90.179 E22.14323
G1 X154.514 Y90.490 E22.17908
G1 X154.428 Y90.661 E22.19996
G1 X154.410 Y90.909 E22.22708
G1 X154.514 Y91.221 E22.26293
G1 X154.428 Y91.392 E22.28380
G1 X154.410 Y91.640 E22.31093
G1 X154.514 Y91.952 E22.34678
G1 X154.428 Y92.123 E22.36765
G1 X154.410 Y92.371 E22.39478
G1 X154.514 Y92.683 E22.43063
G1 X154.428 Y92.854 E22.45150
G1 X154.410 Y93.102 E22.47863
G1 X154.514 Y93.413 E22.51448
G1 X154.428 Y93.585 E22.53535
G1 X154.410 Y93.832 E22.56248
G1 X154.514 Y94.144 E22.59833
G1 X154.428 Y94.315 E22.61920
G1 X154.410 Y94.563 E22.64633
G1 X154.514 Y94.875 E22.68217
G1 X154.428 Y95.046 E22.70305
G1 X154.410 Y95.294 E22.73018
G1 X154.514 Y95.606 E22.76602
G1 X154.428 Y95.777 E22.78690
G1 X154.410 Y96.025 E22.81403
G1 X154.514 Y96.337 E22.84987
G1 X154.428 Y96.508 E22.87075
G1 X154.410 Y96.756 E22.89787
G1 X154.514 Y97.067 E22.93372
G1 X154.428 Y97.238 E22.95460
G1 X154.410 Y97.486 E22.98172
G1 X154.514 Y97.798 E23.01757
G1 X154.428 Y97.969 E23.03845
G1 X154.410 Y98.217 E23.06557
G1 X154.514 Y98.529 E23.10142
G1 X154.428 Y98.700 E23.12230
G1 X154.410 Y98.948 E23.14942
G1 X154.514 Y99.260 E23.18527
G1 X154.428 Y99.431 E23.20615
G1 X154.410 Y99.679 E23.23327
G1 X154.514 Y99.990 E23.26912
G1 X154.428 Y100.161 E23.29000
G1 X154.410 Y100.409 E23.31712
G1 X154.514 Y100.721 E23.35297
G1 X154.428 Y100.892 E23.37384
G1 X154.410 Y101.140 E23.40097
G1 X154.514 Y101.452 E23.43682
G1 X154.428 Y101.623 E23.45769
G1 X154.410 Y101.871 E23.48482
G1 X154.514 Y102.183 E23.52067
G1 X154.428 Y102.354 E23.54154
G1 X154.410 Y102.602 E23.56867
G1 X154.514 Y102.913 E23.60452
G1 X154.428 Y103.084 E23.62539
G1 X154.410 Y103.332 E23.65252
G1 X154.514 Y103.644 E23.68837
G1 X154.428 Y103.815 E23.70924
G1 X154.410 Y104.063 E23.73637
G1 X154.514 Y104.375 E23.77221
G1 X154.428 Y104.546 E23.79309
G1 X154.410 Y104.794 E23.82022
G1 X154.514 Y105.106 E23.85606
G1 X154.428 Y105.277 E23.87694
G1 X154.410 Y105.525 E23.90407
G1 X154.514 Y105.836 E23.93991
G1 X154.428 Y106.007 E23.96079
G1 X154.410 Y106.255 E23.98792
G1 X154.514 Y106.567 E24.02376
G1 X154.428 Y106.738 E24.04464
G1 X154.410 Y106.986 E24.07176
G1 X154.514 Y107.298 E24.10761
G1 X154.428 Y107.469 E24.12849
G1 X154.410 Y107.717 E24.15561
G1 X154.514 Y108.029 E24.19146
G1 X154.428 Y108.200 E24.21234
G1 X154.410 Y108.448 E24.23946
G1 X154.514 Y108.759 E24.27531
G1 X154.428 Y108.931 E24.29619
G1 X154.410 Y109.178 E24.32331
G1 X154.514 Y109.490 E24.35916
G1 X154.428 Y109.661 E24.38004
G1 X154.410 Y109.909 E24.40716
G1 X154.514 Y110.221 E24.44301
G1 X154.428 Y110.392 E24.46388
G1 X154.410 Y110.640 E24.49101
G1 X154.514 Y110.952 E24.52686
G1 X154.428 Y111.123 E24.54773
G1 X154.410 Y111.371 E24.57486
G1 X154.514 Y111.683 E24.61071
G1 X154.428 Y111.854 E24.63158
G1 X154.410 Y112.102 E24.65871
G1 X154.514 Y112.413 E24.69456
G1 X154.428 Y112.584 E24.71543
G1 X154.410 Y112.832 E24.74256
G1 X154.514 Y113.144 E24.77841
G1 X154.428 Y113.315 E24.79928
G1 X154.410 Y113.563 E24.82641
G1 X154.514 Y113.875 E24.86225
G1 X154.428 Y114.046 E24.88313
G1 X154.410 Y114.294 E24.91026
G1 X154.514 Y114.606 E24.94610
G1 X154.428 Y114.777 E24.96698
G1 X154.410 Y115.025 E24.99411
G1 X154.514 Y115.336 E25.02995
G1 X154.428 Y115.507 E25.05083
G1 X154.410 Y115.755 E25.07796
G1 X154.514 Y116.067 E25.11380
G1 X154.428 Y116.238 E25.13468
G1 X154.410 Y116.486 E25.16180
G1 X154.514 Y116.798 E25.19765
G1 X154.428 Y116.969 E25.21853
G1 X154.410 Y117.217 E25.24565
G1 X154.514 Y117.529 E25.28150
G1 X154.428 Y117.700 E25.30238
G1 X154.410 Y117.948 E25.32950
G1 X154.514 Y118.259 E25.36535
G1 X154.428 Y118.430 E25.38623
G1 X154.410 Y118.678 E25.41335
G1 X154.514 Y118.990 E25.44920
G1 X154.428 Y119.161 E25.47008
G1 X154.410 Y119.409 E25.49720
G1 X154.514 Y119.721 E25.53305
G1 X154.428 Y119.892 E25.55392
G1 X154.410 Y120.140 E25.58105
G1 X154.514 Y120.452 E25.61690
G1 X154.428 Y120.623 E25.63777
G1 X154.410 Y120.871 E25.66490
G1 X154.514 Y121.182 E25.70075
G1 X154.428 Y121.353 E25.72162
G1 X154.410 Y121.601 E25.74875
G1 X154.514 Y121.913 E25.78460
G1 X154.253 Y122.434 E25.84818
G1 X154.235 Y122.682 E25.87531
G1 X154.339 Y122.994 E25.91115
G1 X153.971 Y123.728 E26.00080
G1 X153.659 Y123.832 E26.03665
G1 X153.471 Y123.995 E26.06377
G1 X153.197 Y124.540 E26.13037
G1 X152.886 Y124.644 E26.16622
G1 X152.698 Y124.807 E26.19335
G1 X152.573 Y125.056 E26.22372
G1 X152.261 Y125.159 E26.25957
G1 X152.073 Y125.322 E26.28670
G1 X151.948 Y125.571 E26.31708
G1 X151.637 Y125.674 E26.35292
G1 X151.449 Y125.837 E26.38005
G1 X151.324 Y126.086 E26.41043
G1 X151.012 Y126.189 E26.44628
G1 X150.824 Y126.352 E26.47340
G1 X150.673 Y126.627 E26.50763
G1 X150.516 Y126.760 E26.53004
G1 X150.334 Y126.830 E26.55127
G1 X150.141 Y126.994 E26.57903
G1 X149.821 Y127.632 E26.65683
G1 X149.576 Y127.714 E26.68507
G1 X148.949 Y127.400 E26.76153
G1 X148.458 Y127.563 E26.81802
G1 X147.438 Y129.598 E27.06646
G1 X147.192 Y129.680 E27.09470
G1 X146.566 Y129.366 E27.17116
G1 X146.074 Y129.529 E27.22765
G1 X145.054 Y131.565 E27.47609
G1 X144.808 Y131.646 E27.50434
G1 X144.182 Y131.332 E27.58080
G1 X143.691 Y131.496 E27.63728
G1 X142.605 Y133.662 E27.90169
G1 X142.471 Y133.753 E27.91937
G1 X141.922 Y133.803 E27.97953
G1 X141.774 Y133.738 E27.99722
G1 X140.599 Y132.182 E28.20997
G1 X140.388 Y132.057 E28.23672
G1 X140.068 Y132.009 E28.27208
