; generated by SuperSlicer 2.2.53 on 2021-03-14 at 14:05:21 UTC

; 

; external perimeters extrusion width = 0.45mm
; perimeters extrusion width = 0.45mm
; infill extrusion width = 0.45mm
; solid infill extrusion width = 0.45mm
; top infill extrusion width = 0.40mm
; first layer extrusion width = 0.42mm

; object:{"name":"FanAndProbeMount","id":"FanAndProbeMount.stl id:0 copy 0","object_center":[90.000000,105.000000,0.000000],"boundingbox_center":[90.000000,105.000000,13.000000],"boundingbox_size":[74.000000,65.989403,26.000000]}

M73 P0 R56
M73 Q0 S62
M107
M190 S60 ; set bed temperature and wait for it to be reached
M104 S190 ; set temperature
G28 ; home all axes
G1 Z5 F5000 ; lift nozzle
M109 S190 ; set temperature and wait for it to be reached
G21 ; set units to millimeters
G90 ; use absolute coordinates
M82 ; use absolute distances for extrusion
G92 E0
; Filament gcode
G1 Z-0.100000 F18000.000
G1 E-4.00000 F3600.00000
M73 Q0 S62
M73 P0 R56
G1 X62.963 Y67.591 F18000.000
G1 E0.00000 F3600.00000
G1 F0.000
G1 X63.715 Y66.996 E0.03659
G1 X64.560 Y66.553 E0.07296
G1 X65.471 Y66.272 E0.10933
G1 X66.418 Y66.164 E0.14571
G1 X127.761 Y66.162 E2.48562
G1 X128.611 Y66.234 E2.51815
G1 X129.432 Y66.442 E2.55047
G1 X130.213 Y66.784 E2.58300
G1 X130.927 Y67.250 E2.61553
G1 X131.555 Y67.827 E2.64806
G1 X132.080 Y68.500 E2.68060
G1 X132.487 Y69.249 E2.71313
G1 X132.763 Y70.050 E2.74545
G1 X132.924 Y71.261 E2.79205
G1 X132.922 Y81.699 E3.19020
G1 X132.751 Y82.863 E3.23510
G1 X132.324 Y83.954 E3.27979
G1 X131.836 Y84.710 E3.31410
G1 X88.975 Y139.816 E5.97710
G1 X88.467 Y140.378 E6.00600
G1 X87.840 Y140.889 E6.03683
G1 X87.142 Y141.295 E6.06765
G1 X86.389 Y141.588 E6.09847
G1 X85.605 Y141.759 E6.12908
G1 X67.566 Y143.816 E6.82165
G1 X64.353 Y143.719 E6.94425
G1 X60.914 Y143.020 E7.07811
G1 X57.875 Y141.816 E7.20282
G1 X55.066 Y140.111 E7.32816
G1 X52.568 Y137.941 E7.45437
G1 X50.749 Y135.756 E7.56282
G1 X50.324 Y135.136 E7.59151
G1 X48.914 Y132.648 E7.70060
G1 X47.896 Y129.951 E7.81055
G1 X47.700 Y129.242 E7.83859
G1 X47.179 Y126.396 E7.94897
G1 X47.105 Y123.509 E8.05913
G1 X47.160 Y122.731 E8.08888
G1 X47.637 Y119.764 E8.20352
G1 X61.561 Y69.909 E10.17802
G1 X62.107 Y68.656 E10.23014
G1 X62.925 Y67.638 E10.27998
G1 X63.184 Y67.846 F18000.000
G1 F0.000
G1 X63.897 Y67.277 E10.31478
G1 X64.689 Y66.861 E10.34892
G1 X65.540 Y66.599 E10.38286
G1 X66.429 Y66.498 E10.41701
G1 X127.761 Y66.497 E12.75651
G1 X128.561 Y66.564 E12.78714
G1 X129.339 Y66.763 E12.81778
G1 X130.068 Y67.086 E12.84820
G1 X130.739 Y67.527 E12.87884
G1 X131.328 Y68.074 E12.90947
G1 X131.818 Y68.710 E12.94011
G1 X132.196 Y69.418 E12.97074
G1 X132.451 Y70.180 E13.00137
G1 X132.590 Y71.277 E13.04356
G1 X132.588 Y81.688 E13.44069
G1 X132.426 Y82.787 E13.48308
G1 X132.014 Y83.825 E13.52567
G1 X131.572 Y84.505 E13.55659
G1 X88.711 Y139.611 E16.21958
G1 X88.226 Y140.146 E16.24712
G1 X87.640 Y140.621 E16.27589
G1 X86.988 Y140.999 E16.30467
G1 X86.284 Y141.271 E16.33344
G1 X85.547 Y141.430 E16.36222
G1 X67.537 Y143.483 E17.05365
G1 X64.372 Y143.386 E17.17443
G1 X61.007 Y142.699 E17.30543
G1 X58.020 Y141.516 E17.42798
G1 X55.260 Y139.839 E17.55116
G1 X52.803 Y137.703 E17.67537
G1 X50.833 Y135.310 E17.79358
G1 X49.403 Y132.865 E17.90165
G1 X49.087 Y132.204 E17.92960
G1 X48.119 Y129.552 E18.03726
G1 X47.561 Y126.719 E18.14740
G1 X47.489 Y126.017 E18.17432
G1 X47.448 Y123.179 E18.28260
G1 X47.842 Y120.412 E18.38922
G1 X61.888 Y69.979 E20.38621
G1 X62.399 Y68.819 E20.43456
G1 X63.146 Y67.893 E20.47995
G1 X63.405 Y68.102 F18000.000
G1 F0.000
G1 X64.090 Y67.550 E20.51353
G1 X64.828 Y67.165 E20.54528
G1 X65.619 Y66.924 E20.57683
G1 X66.446 Y66.831 E20.60857
G1 X127.760 Y66.831 E22.94740
G1 X128.506 Y66.894 E22.97596
G1 X129.237 Y67.081 E23.00471
G1 X129.925 Y67.388 E23.03347
G1 X130.553 Y67.806 E23.06223
G1 X131.102 Y68.322 E23.09099
G1 X131.558 Y68.923 E23.11974
G1 X131.906 Y69.591 E23.14850
G1 X132.137 Y70.304 E23.17706
G1 X132.256 Y71.285 E23.21477
G1 X132.254 Y81.683 E23.61139
G1 X132.099 Y82.717 E23.65129
G1 X131.709 Y83.688 E23.69119
G1 X131.308 Y84.300 E23.71908
G1 X88.448 Y139.406 E26.38207
G1 X87.990 Y139.909 E26.40804
G1 X87.444 Y140.350 E26.43480
G1 X86.836 Y140.701 E26.46157
G1 X86.181 Y140.953 E26.48833
G1 X85.490 Y141.100 E26.51529
G1 X67.508 Y143.150 E27.20566
G1 X64.391 Y143.052 E27.32461
G1 X61.095 Y142.376 E27.45296
G1 X58.165 Y141.215 E27.57317
G1 X55.455 Y139.568 E27.69417
G1 X53.034 Y137.461 E27.81656
G1 X51.102 Y135.112 E27.93258
G1 X49.692 Y132.698 E28.03921
G1 X49.397 Y132.079 E28.06537
G1 X48.438 Y129.453 E28.17201
G1 X47.823 Y126.003 E28.30571
G1 X47.782 Y123.202 E28.41254
G1 X48.173 Y120.456 E28.51837
G1 X62.210 Y70.071 E30.51350
G1 X62.689 Y68.986 E30.55875
G1 X63.367 Y68.149 E30.59983
G1 X63.625 Y68.359 F18000.000
G1 F0.000
G1 X63.675 Y68.297 E30.60284
G1 X64.278 Y67.826 E30.63204
G1 X64.957 Y67.473 E30.66124
G1 X65.695 Y67.250 E30.69063
G1 X66.456 Y67.166 E30.71983
G1 X127.760 Y67.165 E33.05830
G1 X128.463 Y67.225 E33.08520
G1 X129.140 Y67.402 E33.11191
G1 X129.779 Y67.689 E33.13862
G1 X130.364 Y68.083 E33.16552
G1 X130.875 Y68.569 E33.19242
G1 X131.293 Y69.130 E33.21913
G1 X131.612 Y69.754 E33.24584
G1 X131.823 Y70.427 E33.27274
G1 X131.922 Y71.297 E33.30615
G1 X131.920 Y81.667 E33.70171
G1 X131.774 Y82.637 E33.73914
G1 X131.403 Y83.551 E33.77676
G1 X131.044 Y84.094 E33.80159
G1 X87.753 Y139.673 E36.48890
G1 X87.246 Y140.080 E36.51369
G1 X86.683 Y140.404 E36.53848
G1 X86.071 Y140.637 E36.56346
G1 X85.435 Y140.770 E36.58825
G1 X67.479 Y142.817 E37.27762
G1 X64.410 Y142.718 E37.39473
G1 X61.187 Y142.055 E37.52024
G1 X58.311 Y140.914 E37.63830
G1 X55.653 Y139.299 E37.75693
G1 X53.273 Y137.227 E37.87729
G1 X51.374 Y134.918 E37.99132
G1 X49.982 Y132.532 E38.09670
G1 X48.759 Y129.359 E38.22640
G1 X48.157 Y125.992 E38.35688
G1 X48.115 Y123.220 E38.46264
G1 X48.504 Y120.500 E38.56745
G1 X62.530 Y70.167 E40.56053
G1 X62.977 Y69.156 E40.60273
G1 X63.587 Y68.405 E40.63963
; printing object FanAndProbeMount.stl id:0 copy 0
G92 E0
G1 E-4.00000 F3600.00000
G1 X66.531 Y113.263 F18000.000
G1 E0.00000 F3600.00000
G1 F0.000
G1 X64.359 Y113.477 E0.08323
G1 X62.271 Y114.111 E0.16645
G1 X60.347 Y115.139 E0.24968
G1 X58.661 Y116.523 E0.33290
G1 X57.277 Y118.210 E0.41613
G1 X56.248 Y120.134 E0.49935
G1 X55.615 Y122.222 E0.58258
G1 X55.401 Y124.393 E0.66581
G1 X55.615 Y126.564 E0.74903
G1 X56.248 Y128.652 E0.83226
G1 X57.277 Y130.577 E0.91548
G1 X58.661 Y132.263 E0.99871
G1 X60.347 Y133.647 E1.08193
G1 X62.271 Y134.676 E1.16516
G1 X64.359 Y135.309 E1.24839
G1 X66.531 Y135.523 E1.33161
G1 X68.702 Y135.309 E1.41484
G1 X70.790 Y134.676 E1.49806
G1 X72.714 Y133.647 E1.58129
G1 X74.401 Y132.263 E1.66451
G1 X75.785 Y130.577 E1.74774
G1 X76.813 Y128.652 E1.83097
G1 X77.447 Y126.564 E1.91419
G1 X77.660 Y124.393 E1.99742
G1 X77.447 Y122.222 E2.08064
G1 X76.813 Y120.134 E2.16387
G1 X75.785 Y118.210 E2.24710
G1 X74.401 Y116.523 E2.33032
G1 X72.714 Y115.139 E2.41355
G1 X70.790 Y114.111 E2.49677
G1 X68.702 Y113.477 E2.58000
G1 X66.590 Y113.269 E2.66094
G1 X66.555 Y113.623 F18000.000
G1 F0.000
G1 X64.429 Y113.828 E2.74242
G1 X62.408 Y114.441 E2.82298
G1 X60.546 Y115.436 E2.90353
G1 X58.913 Y116.776 E2.98408
G1 X57.574 Y118.408 E3.06464
G1 X56.578 Y120.271 E3.14519
G1 X55.965 Y122.292 E3.22575
G1 X55.758 Y124.393 E3.30630
G1 X55.965 Y126.495 E3.38685
G1 X56.578 Y128.516 E3.46741
G1 X57.574 Y130.378 E3.54796
G1 X58.913 Y132.010 E3.62851
G1 X60.546 Y133.350 E3.70907
G1 X62.408 Y134.346 E3.78962
G1 X64.429 Y134.959 E3.87017
G1 X66.531 Y135.166 E3.95073
G1 X68.632 Y134.959 E4.03128
G1 X70.653 Y134.346 E4.11184
G1 X72.515 Y133.350 E4.19239
G1 X74.148 Y132.010 E4.27294
G1 X75.488 Y130.378 E4.35350
G1 X76.483 Y128.516 E4.43405
G1 X77.096 Y126.495 E4.51460
G1 X77.303 Y124.393 E4.59516
G1 X77.096 Y122.292 E4.67571
G1 X76.483 Y120.271 E4.75626
G1 X75.488 Y118.408 E4.83682
G1 X74.148 Y116.776 E4.91737
G1 X72.515 Y115.436 E4.99793
G1 X70.653 Y114.441 E5.07848
G1 X68.632 Y113.828 E5.15903
G1 X66.615 Y113.629 E5.23634
G1 X66.580 Y113.983 F18000.000
G1 F0.000
G1 X64.499 Y114.178 E5.31610
G1 X62.545 Y114.771 E5.39398
G1 X60.744 Y115.733 E5.47186
G1 X59.166 Y117.029 E5.54974
G1 X57.871 Y118.607 E5.62762
G1 X56.908 Y120.407 E5.70550
G1 X56.316 Y122.361 E5.78339
G1 X56.116 Y124.393 E5.86127
G1 X56.316 Y126.425 E5.93915
G1 X56.908 Y128.379 E6.01703
G1 X57.871 Y130.179 E6.09491
G1 X59.166 Y131.758 E6.17279
G1 X60.744 Y133.053 E6.25067
G1 X62.545 Y134.015 E6.32856
G1 X64.499 Y134.608 E6.40644
G1 X66.531 Y134.808 E6.48432
G1 X68.562 Y134.608 E6.56220
G1 X70.516 Y134.015 E6.64008
G1 X72.317 Y133.053 E6.71796
G1 X73.895 Y131.758 E6.79585
G1 X75.190 Y130.179 E6.87373
G1 X76.153 Y128.379 E6.95161
G1 X76.746 Y126.425 E7.02949
G1 X76.946 Y124.393 E7.10737
G1 X76.746 Y122.361 E7.18525
G1 X76.153 Y120.407 E7.26313
G1 X75.190 Y118.607 E7.34102
G1 X73.895 Y117.029 E7.41890
G1 X72.317 Y115.733 E7.49678
G1 X70.516 Y114.771 E7.57466
G1 X68.562 Y114.178 E7.65254
G1 X66.640 Y113.989 E7.72623
G1 X66.370 Y113.643 F18000.000
G92 E0
G1 E-4.00000 F3600.00000
G1 X83.977 Y80.615 F18000.000
G1 E0.00000 F3600.00000
G1 F0.000
G1 X83.977 Y135.717 E2.10188
G1 X73.674 Y135.717 E2.49486
G1 X71.413 Y136.830 E2.59102
G1 X69.272 Y137.470 E2.67623
G1 X67.056 Y137.744 E2.76144
G1 X64.824 Y137.645 E2.84664
G1 X62.641 Y137.175 E2.93183
G1 X60.547 Y136.339 E3.01782
G1 X58.657 Y135.188 E3.10225
G1 X56.968 Y133.725 E3.18746
G1 X55.548 Y132.002 E3.27265
G1 X54.425 Y130.047 E3.35864
G1 X53.658 Y127.971 E3.44307
G1 X53.241 Y125.776 E3.52828
G1 X53.197 Y123.543 E3.61349
G1 X53.525 Y121.334 E3.69868
G1 X54.224 Y119.191 E3.78466
G1 X55.252 Y117.231 E3.86909
G1 X56.603 Y115.452 E3.95430
G1 X58.231 Y113.923 E4.03951
G1 X60.091 Y112.686 E4.12470
G1 X62.151 Y111.771 E4.21068
G1 X64.295 Y111.221 E4.29511
G1 X67.452 Y110.954 E4.41596
G1 X67.452 Y72.253 E5.89222
G1 X126.834 Y72.253 E8.15735
G1 X126.834 Y80.615 E8.47631
G1 X84.037 Y80.615 E10.10881
G1 X84.332 Y80.970 F18000.000
G1 F0.000
G1 X84.332 Y136.072 E12.21069
G1 X73.757 Y136.072 E12.61408
G1 X71.543 Y137.163 E12.70822
G1 X69.346 Y137.819 E12.79570
G1 X67.070 Y138.101 E12.88318
G1 X64.778 Y137.999 E12.97066
G1 X62.537 Y137.517 E13.05814
G1 X60.388 Y136.658 E13.14640
G1 X58.447 Y135.476 E13.23310
G1 X56.713 Y133.974 E13.32059
G1 X55.254 Y132.205 E13.40806
G1 X54.102 Y130.198 E13.49632
G1 X53.314 Y128.067 E13.58302
G1 X52.886 Y125.813 E13.67051
G1 X52.841 Y123.520 E13.75799
G1 X53.177 Y121.252 E13.84546
G1 X53.895 Y119.052 E13.93373
G1 X54.951 Y117.039 E14.02042
G1 X56.338 Y115.213 E14.10791
G1 X58.010 Y113.643 E14.19539
G1 X59.919 Y112.374 E14.28286
G1 X62.034 Y111.434 E14.37113
G1 X64.235 Y110.869 E14.45782
G1 X67.096 Y110.627 E14.56735
G1 X67.096 Y71.898 E16.04470
G1 X127.189 Y71.898 E18.33696
G1 X127.189 Y80.970 E18.68305
G1 X84.392 Y80.970 E20.31555
G1 X84.688 Y81.326 F18000.000
G1 F0.000
G1 X84.688 Y136.428 E22.41743
G1 X73.840 Y136.428 E22.83123
G1 X71.673 Y137.495 E22.92334
G1 X69.419 Y138.168 E23.01310
G1 X67.084 Y138.457 E23.10286
G1 X64.733 Y138.353 E23.19262
G1 X62.432 Y137.858 E23.28237
G1 X60.228 Y136.977 E23.37291
G1 X58.236 Y135.764 E23.46188
G1 X56.458 Y134.224 E23.55164
G1 X54.961 Y132.408 E23.64140
G1 X53.779 Y130.350 E23.73194
G1 X52.970 Y128.162 E23.82091
G1 X52.531 Y125.850 E23.91067
G1 X52.484 Y123.498 E24.00042
G1 X52.830 Y121.170 E24.09018
G1 X53.567 Y118.914 E24.18072
G1 X54.649 Y116.848 E24.26969
G1 X56.072 Y114.974 E24.35945
G1 X57.788 Y113.363 E24.44921
G1 X59.748 Y112.061 E24.53896
G1 X61.916 Y111.096 E24.62950
G1 X64.176 Y110.517 E24.71847
G1 X66.741 Y110.300 E24.81666
G1 X66.741 Y71.542 E26.29511
G1 X127.545 Y71.542 E28.61450
G1 X127.545 Y81.326 E28.98772
G1 X84.748 Y81.326 E30.62022
G1 X84.288 Y81.326 F18000.000
G92 E0
G1 E-4.00000 F3600.00000
G1 X71.237 Y114.047 F18000.000
G1 E0.00000 F3600.00000
G1 F0.000
G1 X71.017 Y113.930 E0.00930
G1 X67.719 Y110.631 E0.18361
G1 X67.719 Y111.134 E0.20240
G1 X70.254 Y113.669 E0.33636
G1 X69.532 Y113.450 E0.36455
G1 X67.315 Y111.233 E0.48169
G1 X66.851 Y111.273 E0.49908
G1 X68.810 Y113.231 E0.60258
G1 X68.240 Y113.164 E0.62405
G1 X66.388 Y111.312 E0.72190
G1 X65.924 Y111.351 E0.73929
G1 X67.682 Y113.109 E0.83218
G1 X67.124 Y113.054 E0.85312
G1 X65.460 Y111.390 E0.94103
G1 X64.996 Y111.429 E0.95842
G1 X66.566 Y112.999 E1.04136
G1 X66.102 Y113.038 E1.05876
G1 X64.533 Y111.468 E1.14168
G1 X64.339 Y111.485 E1.14892
G1 X64.106 Y111.545 E1.15793
G1 X65.644 Y113.083 E1.23921
G1 X65.186 Y113.128 E1.25640
G1 X63.706 Y111.647 E1.33463
G1 X63.305 Y111.750 E1.35007
G1 X64.728 Y113.173 E1.42526
G1 X64.276 Y113.224 E1.44225
G1 X62.905 Y111.853 E1.51470
G1 X62.505 Y111.955 E1.53014
G1 X63.890 Y113.341 E1.60335
G1 X63.505 Y113.458 E1.61842
G1 X62.122 Y112.075 E1.69147
G1 X61.774 Y112.230 E1.70570
G1 X63.119 Y113.575 E1.77675
G1 X62.733 Y113.692 E1.79182
G1 X61.426 Y112.385 E1.86088
G1 X61.078 Y112.540 E1.87511
G1 X62.347 Y113.809 E1.94218
G1 X61.992 Y113.957 E1.95654
G1 X60.730 Y112.695 E2.02326
G1 X60.381 Y112.849 E2.03749
G1 X61.665 Y114.133 E2.10529
G1 X61.337 Y114.308 E2.11918
G1 X60.058 Y113.029 E2.18675
G1 X59.756 Y113.230 E2.20031
G1 X61.009 Y114.483 E2.26653
G1 X60.681 Y114.658 E2.28041
G1 X59.454 Y113.430 E2.34528
G1 X59.152 Y113.631 E2.35883
G1 X60.354 Y114.833 E2.42235
G1 X60.053 Y115.036 E2.43589
G1 X58.849 Y113.832 E2.49948
G1 X58.547 Y114.033 E2.51303
G1 X59.777 Y115.262 E2.57800
G1 X59.501 Y115.489 E2.59135
G1 X58.267 Y114.255 E2.65654
G1 X58.007 Y114.499 E2.66984
G1 X59.224 Y115.716 E2.73414
G1 X58.948 Y115.942 E2.74749
G1 X57.748 Y114.742 E2.81090
G1 X57.489 Y114.986 E2.82420
G1 X58.672 Y116.169 E2.88672
G1 X58.409 Y116.409 E2.90002
G1 X57.229 Y115.229 E2.96237
G1 X56.970 Y115.473 E2.97566
G1 X58.183 Y116.685 E3.03973
G1 X57.956 Y116.962 E3.05309
G1 X56.725 Y115.731 E3.11810
G1 X56.508 Y116.017 E3.13151
G1 X57.729 Y117.238 E3.19602
G1 X57.502 Y117.514 E3.20937
G1 X56.291 Y116.303 E3.27337
G1 X56.074 Y116.589 E3.28678
G1 X57.276 Y117.790 E3.35027
G1 X57.050 Y118.068 E3.36363
G1 X55.857 Y116.875 E3.42667
G1 X55.640 Y117.160 E3.44008
G1 X56.875 Y118.395 E3.50533
G1 X56.700 Y118.723 E3.51921
G1 X55.434 Y117.457 E3.58609
G1 X55.261 Y117.787 E3.60001
G1 X56.525 Y119.051 E3.66677
G1 X56.349 Y119.379 E3.68066
G1 X55.088 Y118.117 E3.74730
G1 X54.915 Y118.447 E3.76122
G1 X56.174 Y119.706 E3.82774
G1 X55.999 Y120.035 E3.84163
G1 X54.742 Y118.777 E3.90806
G1 X54.569 Y119.107 E3.92198
G1 X55.882 Y120.420 E3.99136
G1 X55.765 Y120.806 E4.00643
G1 X54.418 Y119.458 E4.07765
G1 X54.294 Y119.838 E4.09255
G1 X55.648 Y121.192 E4.16412
G1 X55.531 Y121.578 E4.17918
G1 X54.170 Y120.217 E4.25111
G1 X54.046 Y120.596 E4.26601
G1 X55.414 Y121.964 E4.33830
G1 X55.331 Y122.383 E4.35428
G1 X53.922 Y120.975 E4.42869
G1 X53.799 Y121.354 E4.44359
G1 X55.286 Y122.841 E4.52217
G1 X55.241 Y123.299 E4.53936
G1 X53.727 Y121.786 E4.61932
G1 X53.662 Y122.224 E4.63586
G1 X55.196 Y123.757 E4.71688
G1 X55.150 Y124.215 E4.73407
G1 X53.597 Y122.661 E4.81614
G1 X53.532 Y123.099 E4.83268
G1 X55.166 Y124.734 E4.91902
G1 X55.221 Y125.291 E4.93997
G1 X53.464 Y123.560 E5.03214
G1 X53.474 Y124.047 E5.05032
G1 X55.276 Y125.849 E5.14558
G1 X55.331 Y126.407 E5.16652
G1 X53.484 Y124.560 E5.26413
G1 X53.494 Y125.073 E5.28331
G1 X55.489 Y127.068 E5.38869
G1 X55.708 Y127.789 E5.41688
G1 X53.504 Y125.586 E5.53329
G1 X53.588 Y126.173 E5.55543
G1 X55.927 Y128.511 E5.67899
G1 X56.000 Y128.755 E5.68850
G1 X56.383 Y129.471 E5.71883
G1 X53.706 Y126.793 E5.86029
G1 X53.823 Y127.414 E5.88389
G1 X56.961 Y130.551 E6.04965
G1 X55.366 Y131.471 F18000.000
G1 F0.000
G1 X58.947 Y135.052 E6.23885
G1 X59.160 Y135.182 E6.24815
G1 X60.233 Y135.835 F18000.000
G1 F0.000
G1 X55.121 Y130.724 E6.51824
G1 X55.006 Y130.504 E6.52751
G1 X54.570 Y129.669 F18000.000
G1 F0.000
G1 X61.222 Y136.321 E6.87898
G1 X62.060 Y136.656 E6.91268
G1 X54.275 Y128.871 E7.32401
G1 X53.980 Y128.073 E7.35580
G1 X62.855 Y136.949 E7.82476
G1 X63.496 Y137.087 E7.84924
G1 X60.373 Y133.963 E8.01427
G92 E0
G1 E-4.00000 F3600.00000
G1 X64.345 Y137.433 F18000.000
G1 E0.00000 F3600.00000
G1 F0.000
G1 X61.453 Y134.541 E0.15281
