; generated by Slic3r 1.2.9 on 2021-03-08 at 00:07:23

; external perimeters extrusion width = 0.40mm
; perimeters extrusion width = 0.67mm
; infill extrusion width = 0.67mm
; solid infill extrusion width = 0.67mm
; top infill extrusion width = 0.67mm

M107
M190 S55 ; set bed temperature
M104 S205 ; set temperature
G28 ; home all axes
G29
G1 Z5 F5000 ; lift nozzle

M109 S205 ; wait for temperature to be reached
G21 ; set units to millimeters
G90 ; use absolute coordinates
M82 ; use absolute distances for extrusion
G92 E0
G1 Z0.350 F24000.000
G1 E-4.50000 F2400.00000
G92 E0
G1 X84.915 Y85.753 F24000.000
G1 E4.50000 F2400.00000
G1 X86.668 Y84.274 E4.70854 F1800.000
G1 X88.820 Y83.481 E4.91708
G1 X90.000 Y83.375 E5.02479
G1 X110.000 Y83.375 E6.84339
G1 X112.259 Y83.772 E7.05193
G1 X114.247 Y84.915 E7.26047 F1800.000
G1 X115.726 Y86.668 E7.46901
G1 X116.519 Y88.820 E7.67755
G1 X116.625 Y90.000 E7.78526
G1 X116.625 Y110.000 E9.60386
G1 X116.228 Y112.259 E9.81240
G1 X115.085 Y114.247 E10.02094
G1 X113.332 Y115.726 E10.22948
G1 X111.180 Y116.519 E10.43803
G1 X110.000 Y116.625 E10.54573
G1 X90.000 Y116.625 E12.36433
G1 X87.741 Y116.228 E12.57287
G1 X85.753 Y115.085 E12.78141
G1 X84.274 Y113.332 E12.98995
G1 X83.481 Y111.180 E13.19850
G1 X83.375 Y110.000 E13.30620
G1 X83.375 Y90.000 E15.12480
G1 X83.772 Y87.741 E15.33334
G1 X84.886 Y85.805 E15.53642
G1 E11.03642 F2400.00000
G92 E0
G1 X89.688 Y89.871 F24000.000
G1 E4.50000 F2400.00000
G1 X89.871 Y89.688 E4.52354 F1800.000
G1 X110.129 Y89.688 E6.36566
G1 X110.312 Y89.871 E6.38920
G1 X110.312 Y110.129 E8.23133 F1800.000
G1 X110.129 Y110.312 E8.25486
G1 X89.871 Y110.312 E10.09699
G1 X89.688 Y110.129 E10.12053
G1 X89.688 Y89.931 E11.95720
G1 X90.350 Y90.350 F24000.000
G1 X109.650 Y90.350 E13.71214 F1800.000
G1 X109.650 Y109.650 E15.46708
G1 X90.350 Y109.650 E17.22202 F1800.000
G1 X90.350 Y90.410 E18.97151
G1 X90.696 Y90.550 F24000.000
G1 X90.975 Y90.975 F24000.000
G1 X109.025 Y90.975 E20.61281 F1800.000
G1 X109.025 Y109.025 E22.25410
G1 X90.975 Y109.025 E23.89540 F1800.000
G1 X90.975 Y91.035 E25.53125
G1 X105.901 Y91.600 F24000.000
G1 X108.400 Y91.600 E25.75850 F1800.000
G1 X108.400 Y108.400 E27.28616
G1 X91.600 Y108.400 E28.81381 F1800.000
G1 X91.600 Y91.600 E30.34147
G1 X105.841 Y91.600 E31.63642
G1 X108.022 Y92.283 F24000.000
G1 X107.717 Y91.978 E31.67635 F1800.000
G1 X106.817 Y91.978 E31.75957
G1 X108.022 Y93.183 E31.91719
G1 X108.022 Y94.082 E32.00040
G1 X105.918 Y91.978 E32.27571
G1 X105.019 Y91.978 E32.35893
G1 X108.022 Y94.981 E32.75192
G1 X108.022 Y95.881 E32.83514
G1 X104.119 Y91.978 E33.34583
G1 X103.220 Y91.978 E33.42905
G1 X108.022 Y96.780 E34.05742
G1 X108.022 Y97.679 E34.14064
G1 X102.321 Y91.978 E34.88670
G1 X101.421 Y91.978 E34.96992
G1 X108.022 Y98.579 E35.83367
G1 X108.022 Y99.478 E35.91689
G1 X100.522 Y91.978 E36.89832
G1 X99.623 Y91.978 E36.98154
G1 X108.022 Y100.377 E38.08067
G1 X108.022 Y101.277 E38.16389
G1 X98.723 Y91.978 E39.38071
G1 X97.824 Y91.978 E39.46392
G1 X108.022 Y102.176 E40.79843
G1 X108.022 Y103.075 E40.88165
G1 X96.925 Y91.978 E42.33384
G1 X96.025 Y91.978 E42.41706
G1 X108.022 Y103.975 E43.98694
G1 X108.022 Y104.874 E44.07016
G1 X95.126 Y91.978 E45.75774
G1 X94.227 Y91.978 E45.84095
G1 X108.022 Y105.773 E47.64621
G1 X108.022 Y106.673 E47.72943
G1 X93.327 Y91.978 E49.65238
G1 X92.428 Y91.978 E49.73560
G1 X108.022 Y107.572 E51.77624
G1 X107.572 Y108.022 E51.83508
G1 X91.978 Y92.428 E53.87572
G1 X91.978 Y93.327 E53.95894
G1 X106.673 Y108.022 E55.88188
G1 X105.773 Y108.022 E55.96510
G1 X91.978 Y94.227 E57.77036
G1 X91.978 Y95.126 E57.85358
G1 X104.874 Y108.022 E59.54115
G1 X103.975 Y108.022 E59.62437
G1 X91.978 Y96.025 E61.19425
G1 X91.978 Y96.925 E61.27747
G1 X103.075 Y108.022 E62.72966
G1 X102.176 Y108.022 E62.81288
G1 X91.978 Y97.824 E64.14738
G1 X91.978 Y98.723 E64.23060
G1 X101.277 Y108.022 E65.44741
G1 X100.377 Y108.022 E65.53063
G1 X91.978 Y99.623 E66.62976
G1 X91.978 Y100.522 E66.71297
G1 X99.478 Y108.022 E67.69441
G1 X98.579 Y108.022 E67.77763
G1 X91.978 Y101.421 E68.64138
G1 X91.978 Y102.321 E68.72460
G1 X97.679 Y108.022 E69.47066
G1 X96.780 Y108.022 E69.55387
G1 X91.978 Y103.220 E70.18224
G1 X91.978 Y104.119 E70.26546
G1 X95.881 Y108.022 E70.77614
G1 X94.981 Y108.022 E70.85936
G1 X91.978 Y105.019 E71.25236
G1 X91.978 Y105.918 E71.33557
G1 X94.082 Y108.022 E71.61088
G1 X93.183 Y108.022 E71.69410
G1 X91.978 Y106.817 E71.85171
G1 X91.978 Y107.717 E71.93493
G1 X92.283 Y108.022 E71.97486
M104 S195 ; set temperature
G1 Z0.550 F24000.000
G1 E67.47486 F2400.00000
G92 E0
G1 X108.679 Y99.559 F24000.000
G1 E4.50000 F2400.00000
G1 X108.679 Y108.679 E4.97646 F6000.000
G1 X91.321 Y108.679 E5.88333 F6000.000
G1 X91.321 Y91.321 E6.79019
G1 X108.679 Y91.321 E7.69706
G1 X108.679 Y99.499 E8.12433
G1 X109.307 Y99.499 F24000.000
G1 X109.307 Y109.307 E8.63675 F6000.000
G1 X90.693 Y109.307 E9.60927 F6000.000
G1 X90.693 Y90.693 E10.58179
G1 X109.307 Y90.693 E11.55430
G1 X109.307 Y99.439 E12.01126
G1 X109.800 Y99.439 F24000.000
G1 X109.800 Y109.800 E12.31889 F3000.000
G1 X90.200 Y109.800 E12.90084 F3000.000
G1 X90.200 Y90.200 E13.48279
G1 X109.800 Y90.200 E14.06474
G1 X109.800 Y99.379 E14.33728
G1 X109.454 Y99.639 F24000.000
G1 E9.83728 F2400.00000
G92 E0
G1 X107.992 Y108.298 F24000.000
G1 E4.50000 F2400.00000
G1 X108.298 Y107.992 E4.52307 F900.000
G1 X108.298 Y107.087 E4.57122
G1 X107.087 Y108.298 E4.66240
G1 X106.182 Y108.298 E4.71055
G1 X108.298 Y106.182 E4.86982
G1 X108.298 Y105.277 E4.91798
G1 X105.277 Y108.298 E5.14535
G1 X104.372 Y108.298 E5.19351
G1 X108.298 Y104.372 E5.48898
G1 X108.298 Y103.467 E5.53714
G1 X103.467 Y108.298 E5.90071
G1 X102.562 Y108.298 E5.94887
G1 X108.298 Y102.562 E6.38054
G1 X108.298 Y101.657 E6.42870
G1 X101.657 Y108.298 E6.92848
G1 X100.752 Y108.298 E6.97663
G1 X108.298 Y100.752 E7.54451
G1 X108.298 Y99.847 E7.59266
G1 X99.847 Y108.298 E8.22864
G1 X98.942 Y108.298 E8.27680
G1 X108.298 Y98.942 E8.98088
G1 X108.298 Y98.037 E9.02904
G1 X98.037 Y108.298 E9.80122
G1 X97.132 Y108.298 E9.84937
G1 X108.298 Y97.132 E10.68966
G1 X108.298 Y96.227 E10.73781
G1 X96.227 Y108.298 E11.64620
G1 X95.322 Y108.298 E11.69435
G1 X108.298 Y95.322 E12.67084
G1 X108.298 Y94.417 E12.71899
G1 X94.417 Y108.298 E13.76358
G1 X93.512 Y108.298 E13.81174
G1 X108.298 Y93.512 E14.92442
G1 X108.298 Y92.607 E14.97258
G1 X92.607 Y108.298 E16.15337
G1 X91.722 Y108.278 E16.20047
G1 X108.278 Y91.722 E17.44635
G1 X107.393 Y91.702 E17.49345
G1 X91.702 Y107.393 E18.67424
G1 X91.702 Y106.488 E18.72240
G1 X106.488 Y91.702 E19.83508
G1 X105.583 Y91.702 E19.88324
G1 X91.702 Y105.583 E20.92782
G1 X91.702 Y104.678 E20.97598
G1 X104.678 Y91.702 E21.95246
G1 X103.773 Y91.702 E22.00062
G1 X91.702 Y103.773 E22.90900
G1 X91.702 Y102.868 E22.95716
G1 X102.868 Y91.702 E23.79744
G1 X101.963 Y91.702 E23.84559
G1 X91.702 Y101.963 E24.61777
G1 X91.702 Y101.058 E24.66593
G1 X101.058 Y91.702 E25.37001
G1 X100.153 Y91.702 E25.41816
G1 X91.702 Y100.153 E26.05414
G1 X91.702 Y99.248 E26.10230
G1 X99.248 Y91.702 E26.67017
G1 X98.343 Y91.702 E26.71833
G1 X91.702 Y98.343 E27.21810
G1 X91.702 Y97.438 E27.26626
G1 X97.438 Y91.702 E27.69793
G1 X96.533 Y91.702 E27.74609
G1 X91.702 Y96.533 E28.10966
G1 X91.702 Y95.628 E28.15782
G1 X95.628 Y91.702 E28.45329
G1 X94.723 Y91.702 E28.50144
G1 X91.702 Y94.723 E28.72881
G1 X91.702 Y93.818 E28.77697
G1 X93.818 Y91.702 E28.93624
G1 X92.913 Y91.702 E28.98439
G1 X91.702 Y92.913 E29.07556
G1 X91.702 Y92.008 E29.12372
G1 X92.008 Y91.702 E29.14679
G1 E24.64679 F2400.00000
G92 E0
M104 S0 ; turn off temperature
G28 X0  ; home X axis
M84     ; disable motors

; filament used = 113.0mm (0.3cm3)

; avoid_crossing_perimeters = 0
; bed_shape = 0x0,200x0,200x200,0x200
; bed_temperature = 55
; before_layer_gcode = 
; bridge_acceleration = 0
; bridge_fan_speed = 100
; brim_width = 1
; complete_objects = 0
; cooling = 1
; default_acceleration = 0
; disable_fan_first_layers = 3
; duplicate_distance = 6
; end_gcode = M104 S0 ; turn off temperature\nG28 X0  ; home X axis\nM84     ; disable motors\n
; extruder_clearance_height = 20
; extruder_clearance_radius = 20
; extruder_offset = 0x0
; extrusion_axis = E
; extrusion_multiplier = 1
; fan_always_on = 0
; fan_below_layer_time = 60
; filament_colour = #004080
; filament_diameter = 1.75
; first_layer_acceleration = 0
; first_layer_bed_temperature = 55
; first_layer_extrusion_width = 200%
; first_layer_speed = 30
; first_layer_temperature = 205
; gcode_arcs = 0
; gcode_comments = 0
; gcode_flavor = reprap
; infill_acceleration = 0
; infill_first = 0
; layer_gcode = 
; max_fan_speed = 100
; max_print_speed = 80
; max_volumetric_speed = 0
; min_fan_speed = 35
; min_print_speed = 10
; min_skirt_length = 0
; notes = 
; nozzle_diameter = 0.4
; only_retract_when_crossing_perimeters = 1
; ooze_prevention = 0
; output_filename_format = [input_filename_base].gcode
; perimeter_acceleration = 0
; post_process = 
; pressure_advance = 0
; resolution = 0
; retract_before_travel = 2
; retract_layer_change = 0
; retract_length = 4.5
; retract_length_toolchange = 10
; retract_lift = 0
; retract_restart_extra = 0
; retract_restart_extra_toolchange = 0
; retract_speed = 40
; skirt_distance = 6
; skirt_height = 1
; skirts = 1
; slowdown_below_layer_time = 5
; spiral_vase = 0
; standby_temperature_delta = -5
; start_gcode = G28 ; home all axes\nG29\nG1 Z5 F5000 ; lift nozzle\n
; temperature = 195
; threads = 2
; toolchange_gcode = 
; travel_speed = 400
; use_firmware_retraction = 0
; use_relative_e_distances = 0
; use_volumetric_e = 0
; vibration_limit = 0
; wipe = 0
; z_offset = 0
; dont_support_bridges = 1
; extrusion_width = 0
; first_layer_height = 0.35
; infill_only_where_needed = 0
; interface_shells = 0
; layer_height = 0.2
; raft_layers = 0
; seam_position = random
; support_material = 0
; support_material_angle = 0
; support_material_contact_distance = 0.2
; support_material_enforce_layers = 0
; support_material_extruder = 1
; support_material_extrusion_width = 0
; support_material_interface_extruder = 1
; support_material_interface_layers = 3
; support_material_interface_spacing = 0
; support_material_interface_speed = 100%
; support_material_pattern = pillars
; support_material_spacing = 2.5
; support_material_speed = 60
; support_material_threshold = 0
; xy_size_compensation = 0
; bottom_solid_layers = 3
; bridge_flow_ratio = 1
; bridge_speed = 60
; external_fill_pattern = rectilinear
; external_perimeter_extrusion_width = 0
; external_perimeter_speed = 50%
; external_perimeters_first = 0
; extra_perimeters = 1
; fill_angle = 45
; fill_density = 25%
; fill_pattern = archimedeanchords
; gap_fill_speed = 20
; infill_every_layers = 1
; infill_extruder = 1
; infill_extrusion_width = 0
; infill_overlap = 15%
; infill_speed = 100
; overhangs = 1
; perimeter_extruder = 1
; perimeter_extrusion_width = 0
; perimeter_speed = 100
; perimeters = 3
; small_perimeter_speed = 15
; solid_infill_below_area = 70
; solid_infill_every_layers = 0
; solid_infill_extruder = 1
; solid_infill_extrusion_width = 0
; solid_infill_speed = 20
; thin_walls = 1
; top_infill_extrusion_width = 0
; top_solid_infill_speed = 15
; top_solid_layers = 3
