; generated by SuperSlicer 2.2.53 on 2021-03-09 at 22:32:13 UTC

; 

; external perimeters extrusion width = 0.45mm
; perimeters extrusion width = 0.45mm
; infill extrusion width = 0.45mm
; solid infill extrusion width = 0.45mm
; top infill extrusion width = 0.40mm
; support material extrusion width = 0.35mm
; first layer extrusion width = 0.42mm

; object:{"name":"LM8LUU","id":"LM8LUU.stl id:0 copy 0","object_center":[90.000000,105.000000,0.000000],"boundingbox_center":[90.000000,105.000000,22.500000],"boundingbox_size":[15.000000,15.000000,45.000000]}

M73 P0 R40
M73 Q0 S43
M107
M190 S65 ; set bed temperature and wait for it to be reached
M104 S190 ; set temperature
G28 ; home all axes
G1 Z5 F5000 ; lift nozzle
M109 S190 ; set temperature and wait for it to be reached
G21 ; set units to millimeters
G90 ; use absolute coordinates
M82 ; use absolute distances for extrusion
G92 E0
; Filament gcode
G1 Z0.300000 F7800.000
G1 E-4.00000 F3600.00000
M73 Q0 S43
M73 P0 R40
G1 X80.963 Y94.775 F7800.000
G1 E0.00000 F3600.00000
G1 F1800.000
G1 X81.998 Y93.943 E0.05304
G1 X83.680 Y92.891 E0.13222
G1 X84.550 Y92.480 E0.17064
G1 X87.062 Y91.653 E0.27620
G1 X90.007 Y91.333 E0.39447
G1 X93.013 Y91.669 E0.51518
G1 X95.798 Y92.625 E0.63272
G1 X98.391 Y94.214 E0.75416
G1 X100.225 Y95.963 E0.85530
G1 X101.057 Y96.998 E0.90834
G1 X102.109 Y98.680 E0.98752
G1 X102.520 Y99.550 E1.02593
G1 X103.347 Y102.062 E1.13150
G1 X103.667 Y105.001 E1.24953
G1 X103.331 Y108.013 E1.37048
G1 X102.375 Y110.798 E1.48802
G1 X100.790 Y113.387 E1.60921
G1 X99.037 Y115.225 E1.71060
G1 X98.002 Y116.057 E1.76364
G1 X96.320 Y117.109 E1.84282
G1 X95.450 Y117.520 E1.88123
G1 X92.938 Y118.347 E1.98679
G1 X89.999 Y118.667 E2.10482
G1 X86.987 Y118.331 E2.22578
G1 X84.202 Y117.375 E2.34332
G1 X81.609 Y115.786 E2.46475
G1 X79.775 Y114.037 E2.56589
G1 X78.943 Y113.002 E2.61894
G1 X77.891 Y111.320 E2.69812
G1 X77.480 Y110.450 E2.73653
G1 X76.653 Y107.938 E2.84209
G1 X76.333 Y104.999 E2.96012
G1 X76.669 Y101.987 E3.08108
G1 X77.625 Y99.202 E3.19862
G1 X79.214 Y96.609 E3.32005
G1 X80.922 Y94.819 E3.41880
G1 X79.964 Y93.863 F7800.000
G1 F1800.000
G1 X80.299 Y93.527 E3.44255
G1 X80.944 Y93.012 E3.48384
G1 X83.095 Y91.656 E3.61101
G1 X83.839 Y91.297 E3.65231
G1 X86.238 Y90.454 E3.77947
G1 X87.043 Y90.270 E3.82077
G1 X89.569 Y89.982 E3.94793
G1 X90.394 Y89.981 E3.98923
G1 X92.921 Y90.263 E4.11639
G1 X93.727 Y90.445 E4.15769
G1 X96.128 Y91.282 E4.28485
G1 X96.872 Y91.639 E4.32615
G1 X99.026 Y92.990 E4.45331
G1 X99.673 Y93.504 E4.49461
G1 X101.473 Y95.299 E4.62178
G1 X101.988 Y95.944 E4.66307
G1 X103.344 Y98.095 E4.79024
G1 X103.703 Y98.839 E4.83153
G1 X104.546 Y101.238 E4.95870
G1 X104.730 Y102.043 E4.99999
G1 X105.018 Y104.569 E5.12716
G1 X105.019 Y105.394 E5.16845
G1 X104.738 Y107.921 E5.29562
G1 X104.555 Y108.727 E5.33692
G1 X103.718 Y111.128 E5.46408
G1 X103.361 Y111.872 E5.50538
G1 X102.010 Y114.026 E5.63254
G1 X101.496 Y114.673 E5.67384
G1 X99.701 Y116.473 E5.80100
G1 X99.056 Y116.988 E5.84230
G1 X96.905 Y118.344 E5.96946
G1 X96.161 Y118.703 E6.01076
G1 X93.762 Y119.546 E6.13792
G1 X92.957 Y119.730 E6.17922
G1 X90.431 Y120.018 E6.30639
G1 X89.606 Y120.019 E6.34768
G1 X87.079 Y119.738 E6.47485
G1 X86.273 Y119.555 E6.51614
G1 X83.872 Y118.718 E6.64331
G1 X83.128 Y118.361 E6.68460
G1 X80.974 Y117.010 E6.81177
G1 X80.327 Y116.496 E6.85306
G1 X78.527 Y114.701 E6.98023
G1 X78.012 Y114.056 E7.02153
G1 X76.656 Y111.905 E7.14869
G1 X76.297 Y111.161 E7.18999
G1 X75.454 Y108.762 E7.31715
G1 X75.270 Y107.957 E7.35845
G1 X74.982 Y105.431 E7.48561
G1 X74.981 Y104.606 E7.52691
G1 X75.263 Y102.079 E7.65407
G1 X75.445 Y101.273 E7.69537
G1 X76.282 Y98.872 E7.82253
G1 X76.639 Y98.128 E7.86383
G1 X77.990 Y95.974 E7.99100
G1 X78.504 Y95.327 E8.03229
G1 X79.921 Y93.906 E8.13271
G1 X80.158 Y94.142 F7800.000
G1 F1800.000
G1 X80.523 Y93.777 E8.15852
G1 X81.138 Y93.284 E8.19794
G1 X83.258 Y91.949 E8.32323
G1 X83.967 Y91.606 E8.36264
G1 X86.331 Y90.776 E8.48793
G1 X87.099 Y90.600 E8.52735
G1 X89.588 Y90.316 E8.65264
G1 X90.376 Y90.315 E8.69206
G1 X92.866 Y90.593 E8.81735
G1 X93.634 Y90.767 E8.85676
G1 X96.000 Y91.591 E8.98205
G1 X96.710 Y91.933 E9.02147
G1 X98.833 Y93.263 E9.14676
G1 X99.450 Y93.753 E9.18618
G1 X101.223 Y95.523 E9.31147
G1 X101.716 Y96.138 E9.35089
G1 X103.051 Y98.258 E9.47617
G1 X103.394 Y98.967 E9.51559
G1 X104.224 Y101.331 E9.64088
G1 X104.400 Y102.099 E9.68030
G1 X104.684 Y104.588 E9.80559
G1 X104.685 Y105.376 E9.84501
G1 X104.407 Y107.866 E9.97029
G1 X104.233 Y108.634 E10.00971
G1 X103.409 Y111.000 E10.13500
G1 X103.067 Y111.710 E10.17442
G1 X101.737 Y113.833 E10.29971
G1 X101.247 Y114.450 E10.33913
G1 X99.477 Y116.223 E10.46441
G1 X98.862 Y116.716 E10.50383
G1 X96.742 Y118.051 E10.62912
G1 X96.033 Y118.394 E10.66854
G1 X93.669 Y119.224 E10.79383
G1 X92.901 Y119.400 E10.83325
G1 X90.412 Y119.684 E10.95853
G1 X89.624 Y119.685 E10.99795
G1 X87.134 Y119.407 E11.12324
G1 X86.366 Y119.233 E11.16266
G1 X84.000 Y118.409 E11.28795
G1 X83.290 Y118.067 E11.32737
G1 X81.167 Y116.737 E11.45265
G1 X80.550 Y116.247 E11.49207
G1 X78.777 Y114.477 E11.61736
G1 X78.284 Y113.862 E11.65678
G1 X76.949 Y111.742 E11.78207
G1 X76.606 Y111.033 E11.82149
G1 X75.776 Y108.669 E11.94677
G1 X75.600 Y107.901 E11.98619
G1 X75.316 Y105.412 E12.11148
G1 X75.315 Y104.624 E12.15090
G1 X75.593 Y102.134 E12.27619
G1 X75.767 Y101.366 E12.31561
G1 X76.591 Y99.000 E12.44089
G1 X76.933 Y98.290 E12.48031
G1 X78.263 Y96.167 E12.60560
G1 X78.753 Y95.550 E12.64502
G1 X80.116 Y94.184 E12.74149
G1 X80.352 Y94.420 F7800.000
G1 F1800.000
G1 X80.746 Y94.026 E12.76937
G1 X81.332 Y93.557 E12.80691
G1 X83.420 Y92.242 E12.93032
G1 X84.096 Y91.915 E12.96786
G1 X86.424 Y91.097 E13.09127
G1 X87.155 Y90.929 E13.12882
G1 X89.607 Y90.650 E13.25223
G1 X90.358 Y90.649 E13.28977
G1 X92.810 Y90.923 E13.41318
G1 X93.542 Y91.089 E13.45072
G1 X95.872 Y91.901 E13.57413
G1 X96.549 Y92.226 E13.61167
G1 X98.640 Y93.536 E13.73509
G1 X99.227 Y94.003 E13.77263
G1 X100.974 Y95.746 E13.89604
G1 X101.443 Y96.332 E13.93358
G1 X102.758 Y98.420 E14.05699
G1 X103.085 Y99.096 E14.09453
G1 X103.903 Y101.424 E14.21794
G1 X104.071 Y102.155 E14.25549
G1 X104.350 Y104.607 E14.37890
G1 X104.351 Y105.358 E14.41644
G1 X104.077 Y107.810 E14.53985
G1 X103.911 Y108.542 E14.57739
G1 X103.099 Y110.872 E14.70080
G1 X102.774 Y111.549 E14.73834
G1 X101.464 Y113.640 E14.86175
G1 X100.997 Y114.227 E14.89930
G1 X99.254 Y115.974 E15.02271
G1 X98.668 Y116.443 E15.06025
G1 X96.580 Y117.758 E15.18366
G1 X95.904 Y118.085 E15.22120
G1 X93.576 Y118.903 E15.34461
G1 X92.845 Y119.071 E15.38215
G1 X90.393 Y119.350 E15.50556
G1 X89.642 Y119.351 E15.54311
G1 X87.190 Y119.077 E15.66652
G1 X86.458 Y118.911 E15.70406
G1 X84.128 Y118.099 E15.82747
G1 X83.451 Y117.774 E15.86501
G1 X81.360 Y116.464 E15.98842
G1 X80.773 Y115.997 E16.02596
G1 X79.026 Y114.254 E16.14937
G1 X78.557 Y113.668 E16.18692
G1 X77.242 Y111.580 E16.31033
G1 X76.915 Y110.904 E16.34787
G1 X76.097 Y108.576 E16.47128
G1 X75.929 Y107.845 E16.50882
G1 X75.650 Y105.393 E16.63223
G1 X75.649 Y104.642 E16.66977
G1 X75.923 Y102.190 E16.79318
G1 X76.089 Y101.458 E16.83073
G1 X76.901 Y99.128 E16.95414
G1 X77.226 Y98.451 E16.99168
G1 X78.536 Y96.360 E17.11509
G1 X79.003 Y95.773 E17.15263
G1 X80.310 Y94.463 E17.24517
G1 X80.546 Y94.699 F7800.000
G1 F1800.000
G1 X80.969 Y94.275 E17.27510
G1 X81.526 Y93.830 E17.31077
G1 X83.582 Y92.534 E17.43230
G1 X84.224 Y92.224 E17.46797
G1 X86.517 Y91.419 E17.58950
G1 X87.212 Y91.259 E17.62516
G1 X89.626 Y90.984 E17.74670
G1 X90.339 Y90.983 E17.78236
G1 X92.754 Y91.253 E17.90390
G1 X93.450 Y91.410 E17.93956
G1 X95.744 Y92.210 E18.06109
G1 X96.387 Y92.519 E18.09676
G1 X98.446 Y93.809 E18.21829
G1 X99.005 Y94.253 E18.25396
G1 X100.725 Y95.969 E18.37549
G1 X101.170 Y96.526 E18.41116
G1 X102.466 Y98.582 E18.53269
G1 X102.776 Y99.224 E18.56835
G1 X103.581 Y101.517 E18.68989
G1 X103.741 Y102.212 E18.72555
G1 X104.016 Y104.626 E18.84709
G1 X104.017 Y105.339 E18.88275
G1 X103.747 Y107.754 E19.00428
G1 X103.590 Y108.450 E19.03995
G1 X102.790 Y110.744 E19.16148
G1 X102.481 Y111.387 E19.19715
G1 X101.191 Y113.446 E19.31868
G1 X100.747 Y114.005 E19.35435
G1 X99.031 Y115.725 E19.47588
G1 X98.474 Y116.170 E19.51155
G1 X96.418 Y117.466 E19.63308
G1 X95.776 Y117.776 E19.66874
G1 X93.483 Y118.581 E19.79028
G1 X92.788 Y118.741 E19.82594
G1 X90.374 Y119.016 E19.94748
G1 X89.661 Y119.017 E19.98314
G1 X87.246 Y118.747 E20.10467
G1 X86.550 Y118.590 E20.14034
G1 X84.256 Y117.790 E20.26187
G1 X83.613 Y117.481 E20.29754
G1 X81.554 Y116.191 E20.41907
G1 X80.995 Y115.747 E20.45473
G1 X79.275 Y114.031 E20.57627
G1 X78.830 Y113.474 E20.61193
G1 X77.534 Y111.418 E20.73347
G1 X77.224 Y110.776 E20.76913
G1 X76.419 Y108.483 E20.89066
G1 X76.259 Y107.788 E20.92633
G1 X75.984 Y105.374 E21.04786
G1 X75.983 Y104.661 E21.08353
G1 X76.253 Y102.246 E21.20506
G1 X76.410 Y101.550 E21.24073
G1 X77.210 Y99.256 E21.36226
G1 X77.519 Y98.613 E21.39793
G1 X78.809 Y96.554 E21.51946
G1 X79.253 Y95.995 E21.55512
G1 X80.504 Y94.741 E21.64372
G1 X80.741 Y94.977 F7800.000
G1 F1800.000
G1 X81.193 Y94.524 E21.67572
G1 X81.720 Y94.103 E21.70951
G1 X83.744 Y92.827 E21.82916
G1 X84.353 Y92.533 E21.86295
G1 X86.610 Y91.740 E21.98261
G1 X87.268 Y91.589 E22.01639
G1 X89.645 Y91.318 E22.13605
G1 X90.321 Y91.318 E22.16984
G1 X92.699 Y91.583 E22.28949
G1 X93.358 Y91.732 E22.32328
G1 X95.617 Y92.520 E22.44294
G1 X96.226 Y92.812 E22.47673
G1 X98.253 Y94.082 E22.59638
G1 X98.782 Y94.503 E22.63017
G1 X100.476 Y96.193 E22.74983
G1 X100.897 Y96.720 E22.78361
G1 X102.173 Y98.744 E22.90327
G1 X102.467 Y99.353 E22.93706
G1 X103.260 Y101.610 E23.05671
G1 X103.411 Y102.268 E23.09050
G1 X103.682 Y104.645 E23.21016
G1 X103.682 Y105.321 E23.24395
G1 X103.417 Y107.699 E23.36360
G1 X103.268 Y108.358 E23.39739
G1 X102.480 Y110.617 E23.51705
G1 X102.188 Y111.226 E23.55084
G1 X100.918 Y113.253 E23.67049
G1 X100.497 Y113.782 E23.70428
G1 X98.807 Y115.476 E23.82394
G1 X98.280 Y115.897 E23.85772
G1 X96.256 Y117.173 E23.97738
G1 X95.647 Y117.467 E24.01117
G1 X93.390 Y118.260 E24.13082
G1 X92.732 Y118.411 E24.16461
G1 X90.355 Y118.682 E24.28427
G1 X89.679 Y118.682 E24.31806
G1 X87.301 Y118.417 E24.43771
G1 X86.642 Y118.268 E24.47150
G1 X84.383 Y117.480 E24.59116
G1 X83.774 Y117.188 E24.62494
G1 X81.747 Y115.918 E24.74460
G1 X81.218 Y115.497 E24.77839
G1 X79.524 Y113.807 E24.89804
G1 X79.103 Y113.280 E24.93183
G1 X77.827 Y111.256 E25.05149
G1 X77.533 Y110.647 E25.08528
G1 X76.740 Y108.390 E25.20493
G1 X76.589 Y107.732 E25.23872
G1 X76.318 Y105.355 E25.35838
G1 X76.318 Y104.679 E25.39216
G1 X76.583 Y102.301 E25.51182
G1 X76.732 Y101.642 E25.54561
G1 X77.520 Y99.383 E25.66526
G1 X77.812 Y98.774 E25.69905
G1 X79.082 Y96.747 E25.81871
G1 X79.503 Y96.218 E25.85250
G1 X80.698 Y95.020 E25.93715
G1 X80.935 Y95.256 F7800.000
G1 F1800.000
G1 X81.416 Y94.774 E25.97121
G1 X81.914 Y94.375 E26.00313
G1 X83.907 Y93.120 E26.12090
G1 X84.481 Y92.842 E26.15282
G1 X86.703 Y92.062 E26.27059
G1 X87.325 Y91.919 E26.30251
G1 X89.665 Y91.653 E26.42028
G1 X90.303 Y91.652 E26.45220
G1 X92.643 Y91.913 E26.56997
G1 X93.265 Y92.054 E26.60188
G1 X95.489 Y92.829 E26.71966
G1 X96.064 Y93.105 E26.75157
G1 X98.060 Y94.355 E26.86935
G1 X98.559 Y94.753 E26.90126
G1 X100.226 Y96.416 E27.01904
G1 X100.625 Y96.914 E27.05095
G1 X101.880 Y98.907 E27.16873
G1 X102.158 Y99.481 E27.20064
G1 X102.938 Y101.703 E27.31842
G1 X103.081 Y102.325 E27.35033
G1 X103.347 Y104.665 E27.46811
G1 X103.348 Y105.303 E27.50002
G1 X103.087 Y107.643 E27.61780
G1 X102.946 Y108.265 E27.64971
G1 X102.171 Y110.489 E27.76749
G1 X101.895 Y111.064 E27.79940
G1 X100.645 Y113.060 E27.91718
G1 X100.247 Y113.559 E27.94909
G1 X98.584 Y115.226 E28.06687
G1 X98.086 Y115.625 E28.09878
G1 X96.093 Y116.880 E28.21656
G1 X95.519 Y117.158 E28.24847
G1 X93.297 Y117.938 E28.36625
G1 X92.675 Y118.081 E28.39816
G1 X90.335 Y118.347 E28.51594
G1 X89.697 Y118.348 E28.54785
G1 X87.357 Y118.087 E28.66563
G1 X86.735 Y117.946 E28.69754
G1 X84.511 Y117.171 E28.81532
G1 X83.936 Y116.895 E28.84723
G1 X81.940 Y115.645 E28.96501
G1 X81.441 Y115.247 E28.99692
G1 X79.774 Y113.584 E29.11470
G1 X79.375 Y113.086 E29.14661
G1 X78.120 Y111.093 E29.26439
G1 X77.842 Y110.519 E29.29630
G1 X77.062 Y108.297 E29.41408
G1 X76.919 Y107.675 E29.44599
G1 X76.653 Y105.335 E29.56377
G1 X76.652 Y104.697 E29.59568
G1 X76.913 Y102.357 E29.71346
G1 X77.054 Y101.735 E29.74537
G1 X77.829 Y99.511 E29.86315
G1 X78.105 Y98.936 E29.89506
G1 X79.355 Y96.940 E30.01284
G1 X79.753 Y96.441 E30.04475
G1 X80.892 Y95.298 E30.12547
G1 X81.129 Y95.534 F7800.000
G1 F1800.000
G1 X81.639 Y95.023 E30.16159
G1 X82.108 Y94.648 E30.19163
G1 X84.069 Y93.413 E30.30753
G1 X84.610 Y93.151 E30.33756
G1 X86.796 Y92.383 E30.45346
G1 X87.381 Y92.249 E30.48350
G1 X89.684 Y91.987 E30.59940
G1 X90.284 Y91.986 E30.62943
G1 X92.587 Y92.243 E30.74533
G1 X93.173 Y92.376 E30.77537
G1 X95.361 Y93.138 E30.89127
G1 X95.903 Y93.398 E30.92130
G1 X97.866 Y94.629 E31.03721
G1 X98.336 Y95.003 E31.06724
G1 X99.977 Y96.639 E31.18314
G1 X100.352 Y97.108 E31.21318
G1 X101.587 Y99.069 E31.32908
G1 X101.849 Y99.610 E31.35911
G1 X102.617 Y101.796 E31.47501
G1 X102.751 Y102.381 E31.50505
G1 X103.013 Y104.684 E31.62095
G1 X103.014 Y105.284 E31.65098
G1 X102.757 Y107.587 E31.76688
G1 X102.624 Y108.173 E31.79692
G1 X101.862 Y110.361 E31.91282
G1 X101.602 Y110.903 E31.94285
G1 X100.371 Y112.866 E32.05876
G1 X99.997 Y113.336 E32.08879
G1 X98.361 Y114.977 E32.20469
G1 X97.892 Y115.352 E32.23473
G1 X95.931 Y116.587 E32.35063
G1 X95.390 Y116.849 E32.38066
G1 X93.204 Y117.617 E32.49656
G1 X92.619 Y117.751 E32.52660
G1 X90.316 Y118.013 E32.64250
G1 X89.716 Y118.014 E32.67253
G1 X87.413 Y117.757 E32.78843
G1 X86.827 Y117.624 E32.81847
G1 X84.639 Y116.862 E32.93437
G1 X84.097 Y116.602 E32.96440
G1 X82.134 Y115.371 E33.08031
G1 X81.664 Y114.997 E33.11034
G1 X80.023 Y113.361 E33.22624
G1 X79.648 Y112.892 E33.25627
G1 X78.413 Y110.931 E33.37218
G1 X78.151 Y110.390 E33.40221
G1 X77.383 Y108.204 E33.51811
G1 X77.249 Y107.619 E33.54815
G1 X76.987 Y105.316 E33.66405
G1 X76.986 Y104.716 E33.69408
G1 X77.243 Y102.413 E33.80998
G1 X77.376 Y101.827 E33.84002
G1 X78.138 Y99.639 E33.95592
G1 X78.398 Y99.097 E33.98595
G1 X79.629 Y97.134 E34.10185
G1 X80.003 Y96.664 E34.13189
G1 X81.087 Y95.577 E34.20867
G1 X81.323 Y95.813 F7800.000
G1 F1800.000
G1 X81.862 Y95.272 E34.24685
G1 X82.302 Y94.921 E34.27501
G1 X84.231 Y93.705 E34.38903
G1 X84.738 Y93.460 E34.41719
G1 X86.889 Y92.705 E34.53121
G1 X87.438 Y92.579 E34.55937
G1 X89.703 Y92.321 E34.67340
G1 X90.266 Y92.320 E34.70155
G1 X92.532 Y92.573 E34.81558
G1 X93.081 Y92.697 E34.84373
G1 X95.234 Y93.448 E34.95776
G1 X95.741 Y93.691 E34.98592
G1 X97.673 Y94.902 E35.09994
G1 X98.114 Y95.252 E35.12810
G1 X99.728 Y96.862 E35.24212
G1 X100.079 Y97.302 E35.27028
G1 X101.295 Y99.231 E35.38430
G1 X101.540 Y99.738 E35.41246
G1 X102.295 Y101.889 E35.52648
G1 X102.421 Y102.438 E35.55464
G1 X102.679 Y104.703 E35.66867
G1 X102.680 Y105.266 E35.69682
G1 X102.427 Y107.532 E35.81085
G1 X102.303 Y108.081 E35.83900
G1 X101.552 Y110.234 E35.95303
G1 X101.309 Y110.741 E35.98119
G1 X100.098 Y112.673 E36.09521
G1 X99.748 Y113.114 E36.12337
G1 X98.138 Y114.728 E36.23739
G1 X97.698 Y115.079 E36.26555
G1 X95.769 Y116.295 E36.37957
G1 X95.262 Y116.540 E36.40773
G1 X93.111 Y117.295 E36.52175
G1 X92.562 Y117.421 E36.54991
G1 X90.297 Y117.679 E36.66394
G1 X89.734 Y117.680 E36.69209
G1 X87.468 Y117.427 E36.80612
G1 X86.919 Y117.303 E36.83427
G1 X84.766 Y116.552 E36.94830
G1 X84.259 Y116.309 E36.97646
G1 X82.327 Y115.098 E37.09048
G1 X81.886 Y114.748 E37.11864
G1 X80.272 Y113.138 E37.23266
G1 X79.921 Y112.698 E37.26082
G1 X78.705 Y110.769 E37.37484
G1 X78.460 Y110.262 E37.40300
G1 X77.705 Y108.111 E37.51702
G1 X77.579 Y107.562 E37.54518
G1 X77.321 Y105.297 E37.65921
G1 X77.320 Y104.734 E37.68736
G1 X77.573 Y102.468 E37.80139
G1 X77.697 Y101.919 E37.82954
G1 X78.448 Y99.766 E37.94357
G1 X78.691 Y99.259 E37.97173
G1 X79.902 Y97.327 E38.08575
G1 X80.252 Y96.886 E38.11391
G1 X81.281 Y95.855 E38.18674
G1 X81.517 Y96.091 F7800.000
G1 F1800.000
