; generated by SuperSlicer 2.2.53 on 2021-03-27 at 16:39:29 UTC

; 

; external perimeters extrusion width = 0.42mm
; perimeters extrusion width = 0.45mm
; infill extrusion width = 0.45mm
; solid infill extrusion width = 0.45mm
; top infill extrusion width = 0.42mm

; object:{"name":"Sphere10mmRad","id":"Sphere10mmRad.stl id:0 copy 0","object_center":[90.000000,105.000000,0.000000],"boundingbox_center":[90.000000,105.000000,10.000000],"boundingbox_size":[20.000000,20.000000,20.000000]}

M73 P0 R9
M73 Q0 S9
M107
M190 S65 ; set bed temperature and wait for it to be reached
M104 S205 ; set temperature
G28 ; home all axes
G1 Z5 F5000 ; lift nozzle
M109 S205 ; set temperature and wait for it to be reached
G21 ; set units to millimeters
G90 ; use absolute coordinates
M82 ; use absolute distances for extrusion
G92 E0
; Filament gcode
G1 Z0.500000 F18000.000
G1 E-4.00000 F3600.00000
M73 Q0 S9
M73 P0 R9
G1 X83.755 Y98.502 F18000.000
G1 E0.00000 F3600.00000
G1 F1800.000
G1 X85.069 Y97.455 E0.04170
G1 X86.430 Y96.724 E0.08002
G1 X88.008 Y96.208 E0.12124
G1 X89.742 Y96.006 E0.16457
G1 X91.385 Y96.137 E0.20546
G1 X93.099 Y96.582 E0.24942
G1 X94.626 Y97.313 E0.29142
G1 X95.477 Y97.890 E0.31694
G1 X96.161 Y98.483 E0.33942
G1 X97.234 Y99.695 E0.37960
G1 X97.784 Y100.533 E0.40446
G1 X98.184 Y101.331 E0.42661
G1 X98.741 Y102.991 E0.47008
G1 X98.921 Y104.017 E0.49593
G1 X98.972 Y105.070 E0.52208
G1 X98.913 Y106.049 E0.54643
G1 X98.735 Y107.049 E0.57164
G1 X98.168 Y108.712 E0.61525
G1 X97.233 Y110.311 E0.66121
G1 X96.125 Y111.555 E0.70255
G1 X95.477 Y112.108 E0.72371
G1 X94.621 Y112.692 E0.74940
G1 X93.070 Y113.431 E0.79206
G1 X91.352 Y113.870 E0.83605
G1 X89.673 Y113.985 E0.87783
G1 X88.789 Y113.928 E0.89981
G1 X87.839 Y113.752 E0.92379
G1 X86.156 Y113.155 E0.96812
G1 X84.585 Y112.209 E1.01362
G1 X83.337 Y111.073 E1.05551
G1 X82.295 Y109.661 E1.09904
G1 X81.517 Y107.996 E1.14468
G1 X81.114 Y106.356 E1.18658
G1 X81.015 Y104.673 E1.22842
G1 X81.068 Y103.822 E1.24958
G1 X81.230 Y102.917 E1.27241
G1 X81.754 Y101.377 E1.31277
G1 X82.688 Y99.763 E1.35906
G1 X83.716 Y98.548 E1.39856
G1 X83.993 Y98.782 F18000.000
G1 F1800.000
G1 X85.277 Y97.755 E1.43937
G1 X86.570 Y97.060 E1.47579
G1 X88.076 Y96.566 E1.51514
G1 X89.745 Y96.370 E1.55684
G1 X91.317 Y96.495 E1.59596
G1 X92.962 Y96.919 E1.63814
G1 X94.426 Y97.618 E1.67841
G1 X95.251 Y98.176 E1.70311
G1 X95.908 Y98.745 E1.72469
G1 X96.937 Y99.906 E1.76319
G1 X97.469 Y100.716 E1.78724
G1 X97.850 Y101.476 E1.80834
G1 X98.385 Y103.069 E1.85004
G1 X98.559 Y104.055 E1.87489
G1 X98.608 Y105.075 E1.90025
G1 X98.551 Y106.012 E1.92353
G1 X98.377 Y106.981 E1.94796
G1 X97.830 Y108.577 E1.98984
G1 X96.929 Y110.110 E2.03396
G1 X95.865 Y111.301 E2.07360
G1 X94.418 Y112.389 E2.11853
G1 X92.934 Y113.093 E2.15929
G1 X91.286 Y113.512 E2.20149
G1 X89.673 Y113.621 E2.24162
G1 X88.824 Y113.565 E2.26273
G1 X87.916 Y113.397 E2.28565
G1 X86.300 Y112.820 E2.32824
G1 X84.798 Y111.914 E2.37177
G1 X83.598 Y110.818 E2.41210
G1 X82.604 Y109.468 E2.45373
G1 X81.857 Y107.864 E2.49763
G1 X81.473 Y106.293 E2.53776
G1 X81.379 Y104.675 E2.57800
G1 X81.586 Y102.992 E2.62007
G1 X82.089 Y101.521 E2.65866
G1 X82.989 Y99.968 E2.70320
G1 X83.954 Y98.828 E2.74028
G1 X84.231 Y99.063 F18000.000
G1 F1800.000
G1 X85.479 Y98.058 E2.78004
G1 X86.710 Y97.396 E2.81472
G1 X88.151 Y96.922 E2.85238
G1 X89.742 Y96.734 E2.89214
G1 X91.249 Y96.853 E2.92965
G1 X92.826 Y97.257 E2.97005
G1 X94.229 Y97.924 E3.00859
G1 X95.025 Y98.462 E3.03245
G1 X95.651 Y99.003 E3.05298
G1 X96.633 Y100.106 E3.08964
G1 X97.145 Y100.882 E3.11271
G1 X97.511 Y101.610 E3.13293
G1 X98.027 Y103.134 E3.17287
G1 X98.196 Y104.087 E3.19687
G1 X98.244 Y105.068 E3.22126
G1 X98.190 Y105.968 E3.24364
G1 X98.022 Y106.899 E3.26711
G1 X97.497 Y108.429 E3.30726
G1 X96.632 Y109.898 E3.34955
G1 X95.614 Y111.037 E3.38748
G1 X94.226 Y112.080 E3.43055
G1 X92.799 Y112.755 E3.46973
G1 X91.220 Y113.154 E3.51015
G1 X89.672 Y113.257 E3.54865
G1 X88.866 Y113.203 E3.56872
G1 X87.988 Y113.039 E3.59088
G1 X86.444 Y112.486 E3.63158
G1 X85.006 Y111.615 E3.67330
G1 X83.859 Y110.565 E3.71191
G1 X82.909 Y109.268 E3.75178
G1 X82.194 Y107.726 E3.79397
G1 X81.832 Y106.231 E3.83216
G1 X81.743 Y104.676 E3.87081
G1 X81.942 Y103.068 E3.91102
G1 X82.423 Y101.665 E3.94784
G1 X83.289 Y100.173 E3.99064
G1 X84.192 Y99.109 E4.02529
G1 X84.469 Y99.343 F18000.000
G1 F1800.000
G1 X84.526 Y99.276 E4.02748
G1 X85.681 Y98.361 E4.06404
G1 X86.851 Y97.732 E4.09700
G1 X88.227 Y97.279 E4.13296
G1 X89.747 Y97.098 E4.17095
G1 X91.182 Y97.211 E4.20669
G1 X92.691 Y97.595 E4.24533
G1 X94.032 Y98.230 E4.28214
G1 X94.795 Y98.744 E4.30499
G1 X95.395 Y99.261 E4.32464
G1 X96.337 Y100.318 E4.35978
G1 X97.178 Y101.757 E4.40113
G1 X97.671 Y103.214 E4.43930
G1 X97.835 Y104.132 E4.46245
G1 X97.880 Y105.074 E4.48585
G1 X97.827 Y105.931 E4.50716
G1 X97.664 Y106.830 E4.52984
G1 X97.159 Y108.293 E4.56825
G1 X96.329 Y109.696 E4.60872
G1 X95.354 Y110.782 E4.64493
G1 X94.024 Y111.777 E4.68615
G1 X92.659 Y112.419 E4.72358
G1 X91.148 Y112.797 E4.76223
G1 X89.672 Y112.893 E4.79895
G1 X88.066 Y112.684 E4.83914
G1 X86.583 Y112.149 E4.87825
G1 X85.210 Y111.312 E4.91817
G1 X84.116 Y110.306 E4.95505
G1 X83.215 Y109.070 E4.99302
G1 X82.532 Y107.589 E5.03348
G1 X82.190 Y106.163 E5.06990
G1 X82.107 Y104.671 E5.10697
G1 X82.300 Y103.138 E5.14533
G1 X82.760 Y101.803 E5.18037
G1 X83.590 Y100.379 E5.22128
G1 X84.430 Y99.389 E5.25349
G1 X85.580 Y100.528 F18000.000
G1 F1800.000
G1 X85.795 Y100.311 E5.26304
G1 X86.108 Y100.049 E5.27579
G1 X86.762 Y99.598 E5.30061
G1 X87.137 Y99.390 E5.31399
G1 X87.866 Y99.075 E5.33883
G1 X88.253 Y98.949 E5.35155
G1 X88.977 Y98.786 E5.37473
G1 X89.426 Y98.732 E5.38887
G1 X89.910 Y98.725 E5.40398
G1 X90.828 Y98.799 E5.43276
G1 X91.558 Y98.941 E5.45601
G1 X91.953 Y99.057 E5.46887
G1 X92.685 Y99.349 E5.49350
G1 X93.065 Y99.546 E5.50689
G1 X93.735 Y99.981 E5.53182
G1 X94.070 Y100.249 E5.54524
G1 X94.642 Y100.806 E5.57019
G1 X94.919 Y101.134 E5.58361
G1 X95.371 Y101.792 E5.60856
G1 X95.579 Y102.168 E5.62197
G1 X95.894 Y102.902 E5.64692
G1 X96.024 Y103.311 E5.66034
G1 X96.192 Y104.101 E5.68559
G1 X96.240 Y104.546 E5.69958
G1 X96.244 Y105.393 E5.72604
G1 X96.200 Y105.838 E5.74001
G1 X96.040 Y106.631 E5.76528
G1 X95.914 Y107.042 E5.77873
G1 X95.605 Y107.779 E5.80369
G1 X95.401 Y108.157 E5.81711
G1 X94.955 Y108.819 E5.84206
G1 X94.682 Y109.150 E5.85547
G1 X94.115 Y109.712 E5.88042
G1 X93.782 Y109.983 E5.89384
G1 X93.117 Y110.425 E5.91879
G1 X92.737 Y110.626 E5.93221
G1 X92.007 Y110.925 E5.95686
G1 X91.614 Y111.044 E5.96969
G1 X90.914 Y111.187 E5.99203
G1 X90.573 Y111.229 E6.00277
G1 X89.739 Y111.266 E6.02887
G1 X89.437 Y111.258 E6.03830
G1 X88.821 Y111.180 E6.05770
G1 X88.193 Y111.032 E6.07786
G1 X87.800 Y110.900 E6.09083
G1 X87.096 Y110.586 E6.11491
G1 X86.768 Y110.404 E6.12662
G1 X86.201 Y110.023 E6.14797
G1 X85.896 Y109.776 E6.16024
G1 X85.327 Y109.224 E6.18502
G1 X85.042 Y108.885 E6.19885
G1 X84.685 Y108.359 E6.21872
G1 X84.503 Y108.037 E6.23026
G1 X84.109 Y107.175 E6.25988
G1 X83.957 Y106.710 E6.27519
G1 X83.804 Y105.973 E6.29869
G1 X83.758 Y105.541 E6.31227
G1 X83.733 Y104.709 E6.33827
G1 X83.748 Y104.338 E6.34990
G1 X83.788 Y103.997 E6.36063
G1 X83.904 Y103.413 E6.37923
G1 X84.023 Y103.017 E6.39212
G1 X84.255 Y102.444 E6.41145
G1 X84.421 Y102.117 E6.42293
G1 X84.828 Y101.457 E6.44714
G1 X85.158 Y100.992 E6.46496
G1 X85.538 Y100.570 E6.48271
G1 X85.797 Y100.827 F18000.000
G1 F1800.000
G1 X86.042 Y100.579 E6.49360
G1 X86.329 Y100.339 E6.50529
G1 X86.954 Y99.908 E6.52902
G1 X87.298 Y99.717 E6.54129
G1 X87.995 Y99.416 E6.56503
G1 X88.350 Y99.300 E6.57670
G1 X89.038 Y99.145 E6.59875
G1 X89.450 Y99.096 E6.61171
G1 X89.897 Y99.090 E6.62567
G1 X90.775 Y99.160 E6.65319
G1 X91.472 Y99.295 E6.67538
G1 X91.834 Y99.402 E6.68717
G1 X92.533 Y99.681 E6.71070
G1 X92.882 Y99.861 E6.72298
G1 X93.521 Y100.277 E6.74680
G1 X93.829 Y100.522 E6.75910
G1 X94.375 Y101.054 E6.78293
G1 X94.629 Y101.355 E6.79523
G1 X95.061 Y101.984 E6.81906
G1 X95.251 Y102.328 E6.83136
G1 X95.552 Y103.029 E6.85519
G1 X95.671 Y103.404 E6.86749
G1 X95.832 Y104.159 E6.89159
G1 X95.876 Y104.567 E6.90442
G1 X95.880 Y105.376 E6.92971
G1 X95.840 Y105.784 E6.94252
G1 X95.687 Y106.541 E6.96665
G1 X95.571 Y106.918 E6.97897
G1 X95.276 Y107.622 E7.00282
G1 X95.089 Y107.968 E7.01512
G1 X94.663 Y108.601 E7.03895
G1 X94.413 Y108.904 E7.05125
G1 X93.871 Y109.441 E7.07508
G1 X93.566 Y109.690 E7.08738
G1 X92.930 Y110.111 E7.11121
G1 X92.583 Y110.295 E7.12351
G1 X91.885 Y110.581 E7.14706
G1 X91.525 Y110.691 E7.15883
G1 X90.855 Y110.827 E7.18018
G1 X90.543 Y110.866 E7.19003
G1 X89.735 Y110.901 E7.21529
G1 X89.459 Y110.894 E7.22393
G1 X88.892 Y110.822 E7.24179
G1 X88.293 Y110.682 E7.26101
G1 X87.932 Y110.560 E7.27290
G1 X87.259 Y110.260 E7.29595
G1 X86.958 Y110.093 E7.30669
G1 X86.417 Y109.730 E7.32704
G1 X86.138 Y109.503 E7.33829
G1 X85.594 Y108.975 E7.36198
G1 X85.333 Y108.665 E7.37466
G1 X84.994 Y108.167 E7.39347
G1 X84.828 Y107.872 E7.40404
G1 X84.494 Y107.140 E7.42920
G1 X84.331 Y106.679 E7.44446
G1 X84.161 Y105.892 E7.46962
G1 X84.122 Y105.513 E7.48155
G1 X84.098 Y104.709 E7.50666
G1 X84.111 Y104.366 E7.51739
G1 X84.148 Y104.054 E7.52723
G1 X84.258 Y103.501 E7.54485
G1 X84.367 Y103.138 E7.55667
G1 X84.587 Y102.595 E7.57498
G1 X84.739 Y102.295 E7.58550
G1 X85.216 Y101.533 E7.61359
G1 X85.444 Y101.217 E7.62579
G1 X85.755 Y100.869 E7.64034
G1 X86.014 Y101.125 F18000.000
G1 F1800.000
G1 X86.289 Y100.847 E7.65258
G1 X86.550 Y100.629 E7.66321
G1 X87.146 Y100.217 E7.68584
G1 X87.458 Y100.045 E7.69700
G1 X88.124 Y99.757 E7.71965
G1 X88.447 Y99.652 E7.73026
G1 X89.100 Y99.504 E7.75120
G1 X89.475 Y99.460 E7.76298
G1 X89.884 Y99.454 E7.77577
G1 X90.722 Y99.521 E7.80203
G1 X91.386 Y99.649 E7.82317
G1 X91.715 Y99.746 E7.83389
G1 X92.382 Y100.012 E7.85632
G1 X92.699 Y100.177 E7.86748
G1 X93.308 Y100.572 E7.89019
G1 X93.588 Y100.796 E7.90137
G1 X94.108 Y101.303 E7.92408
G1 X94.339 Y101.576 E7.93526
G1 X94.751 Y102.175 E7.95797
G1 X94.924 Y102.488 E7.96916
G1 X95.211 Y103.156 E7.99187
G1 X95.319 Y103.497 E8.00305
G1 X95.453 Y104.129 E8.02324
G1 X95.505 Y104.530 E8.03588
G1 X95.515 Y105.284 E8.05942
G1 X95.484 Y105.674 E8.07165
G1 X95.329 Y106.465 E8.09683
G1 X95.226 Y106.798 E8.10774
G1 X94.947 Y107.465 E8.13032
G1 X94.777 Y107.780 E8.14150
G1 X94.371 Y108.382 E8.16421
G1 X94.143 Y108.658 E8.17539
G1 X93.627 Y109.170 E8.19810
G1 X93.350 Y109.396 E8.20929
G1 X92.744 Y109.798 E8.23200
G1 X92.428 Y109.965 E8.24318
G1 X91.763 Y110.238 E8.26564
G1 X91.435 Y110.337 E8.27634
G1 X90.797 Y110.468 E8.29671
G1 X90.512 Y110.503 E8.30566
G1 X89.732 Y110.537 E8.33008
G1 X89.480 Y110.531 E8.33794
G1 X88.963 Y110.465 E8.35424
G1 X88.393 Y110.331 E8.37254
G1 X88.065 Y110.221 E8.38334
G1 X87.421 Y109.933 E8.40537
G1 X87.148 Y109.782 E8.41513
G1 X86.634 Y109.437 E8.43448
G1 X86.380 Y109.231 E8.44471
G1 X85.923 Y108.787 E8.46461
G1 X85.656 Y108.481 E8.47730
G1 X85.292 Y107.955 E8.49729
G1 X85.150 Y107.700 E8.50642
G1 X84.829 Y106.998 E8.53052
G1 X84.681 Y106.578 E8.54446
G1 X84.521 Y105.838 E8.56809
G1 X84.486 Y105.493 E8.57894
G1 X84.462 Y104.709 E8.60344
G1 X84.475 Y104.395 E8.61328
G1 X84.508 Y104.111 E8.62222
G1 X84.612 Y103.588 E8.63886
G1 X84.711 Y103.259 E8.64960
G1 X84.918 Y102.746 E8.66689
G1 X85.057 Y102.473 E8.67646
G1 X85.515 Y101.741 E8.70345
G1 X85.731 Y101.441 E8.71499
G1 X85.971 Y101.168 E8.72636
G1 X86.230 Y101.424 F18000.000
G1 F1800.000
G1 X86.485 Y101.167 E8.73767
G1 X86.737 Y100.948 E8.74810
G1 X87.284 Y100.565 E8.76896
G1 X87.578 Y100.395 E8.77958
G1 X88.197 Y100.122 E8.80073
G1 X88.502 Y100.017 E8.81081
G1 X89.174 Y99.862 E8.83237
G1 X89.503 Y99.824 E8.84271
G1 X89.871 Y99.818 E8.85421
G1 X90.621 Y99.877 E8.87771
G1 X91.239 Y99.992 E8.89736
G1 X91.552 Y100.078 E8.90751
G1 X92.169 Y100.320 E8.92820
G1 X92.473 Y100.470 E8.93882
G1 X93.040 Y100.833 E8.95984
G1 X93.429 Y101.147 E8.97548
G1 X93.795 Y101.506 E8.99148
G1 X94.018 Y101.762 E9.00210
G1 X94.403 Y102.313 E9.02312
G1 X94.573 Y102.608 E9.03373
G1 X94.843 Y103.224 E9.05476
G1 X94.952 Y103.546 E9.06538
G1 X95.097 Y104.207 E9.08652
G1 X95.142 Y104.558 E9.09760
G1 X95.150 Y105.274 E9.11997
G1 X95.123 Y105.627 E9.13104
G1 X94.992 Y106.298 E9.15240
G1 X94.898 Y106.625 E9.16301
G1 X94.643 Y107.247 E9.18405
G1 X94.487 Y107.549 E9.19466
G1 X94.115 Y108.110 E9.21568
G1 X93.904 Y108.376 E9.22630
G1 X93.429 Y108.853 E9.24733
G1 X93.170 Y109.072 E9.25794
G1 X92.612 Y109.448 E9.27897
G1 X92.315 Y109.613 E9.28958
G1 X91.697 Y109.871 E9.31049
G1 X91.388 Y109.971 E9.32064
G1 X90.726 Y110.110 E9.34177
G1 X90.478 Y110.140 E9.34958
G1 X89.502 Y110.167 E9.38010
G1 X89.034 Y110.107 E9.39485
G1 X88.413 Y109.954 E9.41482
G1 X88.098 Y109.839 E9.42533
G1 X87.574 Y109.602 E9.44328
G1 X87.335 Y109.469 E9.45183
G1 X86.850 Y109.144 E9.47007
G1 X86.622 Y108.958 E9.47927
G1 X86.184 Y108.533 E9.49835
G1 X85.942 Y108.256 E9.50984
G1 X85.603 Y107.765 E9.52849
G1 X85.475 Y107.535 E9.53671
G1 X85.165 Y106.857 E9.56002
G1 X85.031 Y106.476 E9.57262
G1 X84.897 Y105.859 E9.59234
G1 X84.856 Y105.526 E9.60285
G1 X84.827 Y104.709 E9.62838
G1 X84.838 Y104.423 E9.63732
G1 X84.868 Y104.168 E9.64536
G1 X84.951 Y103.749 E9.65870
G1 X85.042 Y103.422 E9.66931
G1 X85.258 Y102.880 E9.68754
G1 X85.378 Y102.646 E9.69576
G1 X85.814 Y101.949 E9.72145
G1 X86.188 Y101.467 E9.74051
G1 X86.450 Y101.720 F18000.000
G1 F1800.000
G1 X86.737 Y101.430 E9.75326
G1 X86.963 Y101.234 E9.76259
G1 X87.482 Y100.871 E9.78238
G1 X87.745 Y100.719 E9.79187
G1 X88.332 Y100.461 E9.81192
G1 X88.605 Y100.367 E9.82095
G1 X89.235 Y100.222 E9.84113
G1 X89.527 Y100.188 E9.85032
G1 X89.858 Y100.183 E9.86067
G1 X90.575 Y100.238 E9.88314
G1 X91.159 Y100.348 E9.90172
G1 X91.440 Y100.425 E9.91081
G1 X92.024 Y100.654 E9.93042
G1 X92.296 Y100.789 E9.93992
G1 X92.833 Y101.132 E9.95983
G1 X93.180 Y101.413 E9.97379
G1 X93.533 Y101.759 E9.98923
G1 X93.733 Y101.988 E9.99873
G1 X94.097 Y102.511 E10.01864
G1 X94.249 Y102.774 E10.02813
G1 X94.504 Y103.358 E10.04805
G1 X94.601 Y103.646 E10.05754
G1 X94.739 Y104.272 E10.07756
G1 X94.779 Y104.586 E10.08747
G1 X94.786 Y105.265 E10.10868
G1 X94.761 Y105.581 E10.11858
G1 X94.637 Y106.216 E10.13879
G1 X94.553 Y106.508 E10.14828
G1 X94.311 Y107.097 E10.16820
G1 X94.172 Y107.367 E10.17769
G1 X93.819 Y107.898 E10.19760
G1 X93.630 Y108.135 E10.20710
G1 X93.180 Y108.587 E10.22701
G1 X92.948 Y108.783 E10.23651
G1 X92.420 Y109.139 E10.25642
G1 X92.154 Y109.286 E10.26591
G1 X91.569 Y109.530 E10.28572
G1 X91.292 Y109.619 E10.29480
G1 X90.669 Y109.750 E10.31470
G1 X90.448 Y109.776 E10.32164
G1 X89.524 Y109.803 E10.35055
G1 X89.105 Y109.750 E10.36374
G1 X88.522 Y109.606 E10.38250
G1 X88.240 Y109.503 E10.39190
G1 X87.680 Y109.245 E10.41115
G1 X87.111 Y108.880 E10.43228
G1 X86.893 Y108.709 E10.44094
G1 X86.439 Y108.272 E10.46063
G1 X86.228 Y108.031 E10.47064
G1 X85.946 Y107.623 E10.48615
G1 X85.819 Y107.405 E10.49401
G1 X85.499 Y106.710 E10.51793
G1 X85.380 Y106.375 E10.52905
G1 X85.256 Y105.797 E10.54751
G1 X85.219 Y105.499 E10.55691
G1 X85.191 Y104.709 E10.58158
G1 X85.201 Y104.452 E10.58963
G1 X85.307 Y103.829 E10.60938
G1 X85.388 Y103.536 E10.61887
G1 X85.567 Y103.086 E10.63401
G1 X85.736 Y102.757 E10.64558
G1 X86.114 Y102.155 E10.66777
G1 X86.411 Y101.765 E10.68310
G1 X86.689 Y102.002 F18000.000
G1 F1800.000
G1 X86.997 Y101.686 E10.69690
G1 X87.189 Y101.519 E10.70483
G1 X87.680 Y101.177 E10.72355
G1 X87.912 Y101.043 E10.73193
G1 X88.467 Y100.799 E10.75087
G1 X88.708 Y100.716 E10.75883
G1 X89.295 Y100.581 E10.77765
G1 X89.551 Y100.551 E10.78569
G1 X89.845 Y100.547 E10.79489
G1 X90.529 Y100.599 E10.81633
G1 X91.080 Y100.703 E10.83384
G1 X91.327 Y100.771 E10.84186
G1 X91.879 Y100.988 E10.86039
G1 X92.119 Y101.107 E10.86877
G1 X92.626 Y101.432 E10.88756
G1 X92.838 Y101.596 E10.89594
G1 X93.271 Y102.013 E10.91474
G1 X93.448 Y102.215 E10.92312
G1 X93.791 Y102.708 E10.94191
G1 X93.925 Y102.941 E10.95029
G1 X94.165 Y103.492 E10.96908
G1 X94.251 Y103.746 E10.97746
G1 X94.380 Y104.337 E10.99635
G1 X94.415 Y104.614 E11.00509
G1 X94.422 Y105.256 E11.02514
G1 X94.400 Y105.534 E11.03388
