; generated by SuperSlicer 2.2.53 on 2021-03-27 at 19:45:33 UTC

; 

; external perimeters extrusion width = 0.45mm
; perimeters extrusion width = 0.45mm
; infill extrusion width = 0.45mm
; solid infill extrusion width = 0.45mm
; top infill extrusion width = 0.40mm
; support material extrusion width = 0.35mm
; first layer extrusion width = 0.42mm

; object:{"name":"Sphere10mmRad","id":"Sphere10mmRad.stl id:0 copy 0","object_center":[90.000000,105.000000,0.000000],"boundingbox_center":[90.000000,105.000000,10.000000],"boundingbox_size":[20.000000,20.000000,20.000000]}

M73 P0 R8
M73 Q0 S8
M107
M190 S65 ; set bed temperature and wait for it to be reached
M104 S205 ; set temperature
G28 ; home all axes
G1 Z5 F5000 ; lift nozzle
M109 S205 ; set temperature and wait for it to be reached
G21 ; set units to millimeters
G90 ; use absolute coordinates
M82 ; use absolute distances for extrusion
G92 E0
; Filament gcode
G1 Z0.300000 F7800.000
G1 E-4.00000 F3600.00000
M73 Q0 S8
M73 P0 R8
G1 X81.705 Y91.863 F7800.000
G1 E0.00000 F3600.00000
G1 F1800.000
G1 X82.452 Y91.277 E0.02174
G1 X83.281 Y90.813 E0.04349
G1 X84.385 Y90.425 E0.07027
G1 X85.549 Y90.251 E0.09718
G1 X94.136 Y90.243 E0.29372
G1 X95.162 Y90.330 E0.31728
G1 X96.159 Y90.586 E0.34085
G1 X97.099 Y91.005 E0.36441
G1 X97.957 Y91.574 E0.38797
G1 X103.087 Y96.651 E0.55315
G1 X103.665 Y97.366 E0.57419
G1 X104.127 Y98.154 E0.59510
G1 X104.583 Y99.415 E0.62579
G1 X104.756 Y100.739 E0.65634
G1 X104.753 Y109.338 E0.85316
G1 X104.649 Y110.276 E0.87476
G1 X104.403 Y111.188 E0.89636
G1 X103.821 Y112.396 E0.92705
G1 X102.992 Y113.449 E0.95774
G1 X98.236 Y118.191 E1.11144
G1 X97.377 Y118.833 E1.13598
G1 X96.414 Y119.318 E1.16067
G1 X95.315 Y119.642 E1.18689
G1 X94.169 Y119.757 E1.21325
G1 X85.662 Y119.753 E1.40796
G1 X84.724 Y119.649 E1.42956
G1 X83.812 Y119.403 E1.45116
G1 X82.604 Y118.821 E1.48186
G1 X81.551 Y117.992 E1.51255
G1 X76.809 Y113.236 E1.66624
G1 X76.167 Y112.377 E1.69078
G1 X75.682 Y111.414 E1.71547
G1 X75.358 Y110.315 E1.74169
G1 X75.243 Y109.169 E1.76805
G1 X75.247 Y100.662 E1.96276
G1 X75.351 Y99.724 E1.98436
G1 X75.597 Y98.812 E2.00597
G1 X76.163 Y97.630 E2.03596
G1 X76.961 Y96.599 E2.06581
G1 X81.662 Y91.905 E2.21786
; printing object Sphere10mmRad.stl id:0 copy 0
G92 E0
G1 E-4.00000 F3600.00000
G1 X85.870 Y96.410 F7800.000
G1 E0.00000 F3600.00000
G1 F1800.000
G1 X94.130 Y96.410 E0.18903
G1 X95.783 Y98.063 E0.24254
G1 X95.783 Y99.217 E0.26895
G1 X96.937 Y99.217 E0.29536
G1 X98.590 Y100.870 E0.34887
G1 X98.590 Y109.130 E0.53790
G1 X96.937 Y110.783 E0.59141
G1 X95.783 Y110.783 E0.61781
G1 X95.783 Y111.937 E0.64422
G1 X94.130 Y113.590 E0.69773
G1 X85.870 Y113.590 E0.88676
G1 X84.217 Y111.937 E0.94027
G1 X84.217 Y110.783 E0.96668
G1 X83.063 Y110.783 E0.99309
G1 X81.410 Y109.130 E1.04660
G1 X81.410 Y100.870 E1.23563
G1 X83.063 Y99.217 E1.28914
G1 X84.217 Y99.217 E1.31555
G1 X84.217 Y98.063 E1.34196
G1 X85.828 Y96.453 E1.39409
G92 E0
G1 E-4.00000 F3600.00000
G1 X94.337 Y96.643 F7800.000
G1 E0.00000 F3600.00000
G1 F1800.000
G1 X85.889 Y96.643 E0.19336
G1 X85.533 Y96.999 E0.20487
G1 X94.467 Y96.999 E0.40933
G1 X94.822 Y97.354 E0.42084
G1 X85.178 Y97.354 E0.64157
G1 X84.822 Y97.710 E0.65308
G1 X95.178 Y97.710 E0.89010
G1 X95.534 Y98.065 E0.90161
G1 X84.466 Y98.065 E1.15490
G1 X84.395 Y98.137 E1.15722
G1 X84.395 Y98.421 E1.16372
G1 X95.605 Y98.421 E1.42028
G1 X95.605 Y98.777 E1.42842
G1 X84.395 Y98.777 E1.68499
G1 X84.395 Y99.132 E1.69313
G1 X95.605 Y99.132 E1.94969
G1 X95.605 Y99.395 E1.95570
G1 X96.863 Y99.395 E1.98449
G1 X96.956 Y99.488 E1.98750
G1 X83.044 Y99.488 E2.30591
G1 X82.688 Y99.844 E2.31742
G1 X97.312 Y99.844 E2.65210
G1 X97.667 Y100.199 E2.66361
G1 X82.333 Y100.199 E3.01457
G1 X81.977 Y100.555 E3.02608
G1 X98.023 Y100.555 E3.39332
G1 X98.378 Y100.910 E3.40483
G1 X81.588 Y100.944 E3.78912
G1 X81.588 Y101.266 E3.79649
G1 X98.412 Y101.266 E4.18155
G1 X98.412 Y101.622 E4.18969
G1 X81.588 Y101.622 E4.57474
G1 X81.588 Y101.977 E4.58288
G1 X98.412 Y101.977 E4.96794
G1 X98.412 Y102.333 E4.97608
G1 X81.588 Y102.333 E5.36113
G1 X81.588 Y102.689 E5.36927
G1 X98.412 Y102.689 E5.75433
G1 X98.412 Y103.044 E5.76247
G1 X81.588 Y103.044 E6.14752
G1 X81.588 Y103.400 E6.15566
G1 X98.412 Y103.400 E6.54072
G1 X98.412 Y103.755 E6.54886
G1 X81.588 Y103.755 E6.93391
G1 X81.588 Y104.111 E6.94205
G1 X98.412 Y104.111 E7.32711
G1 X98.412 Y104.467 E7.33525
G1 X81.588 Y104.467 E7.72030
G1 X81.588 Y104.822 E7.72844
G1 X98.412 Y104.822 E8.11350
G1 X98.412 Y105.178 E8.12164
G1 X81.588 Y105.178 E8.50670
G1 X81.588 Y105.533 E8.51483
G1 X98.412 Y105.533 E8.89989
G1 X98.412 Y105.889 E8.90803
G1 X81.588 Y105.889 E9.29309
G1 X81.588 Y106.245 E9.30122
G1 X98.412 Y106.245 E9.68628
G1 X98.412 Y106.600 E9.69442
G1 X81.588 Y106.600 E10.07948
G1 X81.588 Y106.956 E10.08761
G1 X98.412 Y106.956 E10.47267
G1 X98.412 Y107.312 E10.48081
G1 X81.588 Y107.312 E10.86587
G1 X81.588 Y107.667 E10.87401
G1 X98.412 Y107.667 E11.25906
G1 X98.412 Y108.023 E11.26720
G1 X81.588 Y108.023 E11.65226
G1 X81.588 Y108.378 E11.66040
G1 X98.412 Y108.378 E12.04545
G1 X98.412 Y108.734 E12.05359
G1 X81.588 Y108.734 E12.43865
G1 X81.622 Y109.090 E12.44682
G1 X98.378 Y109.090 E12.83034
G1 X98.023 Y109.445 E12.84185
G1 X81.977 Y109.445 E13.20908
G1 X82.333 Y109.801 E13.22059
G1 X97.667 Y109.801 E13.57155
G1 X97.312 Y110.157 E13.58306
G1 X82.688 Y110.157 E13.91774
G1 X83.044 Y110.512 E13.92925
G1 X96.956 Y110.512 E14.24765
G1 X96.863 Y110.605 E14.25065
G1 X95.605 Y110.605 E14.27945
G1 X95.605 Y110.868 E14.28546
G1 X84.395 Y110.868 E14.54203
G1 X84.395 Y111.223 E14.55016
G1 X95.605 Y111.223 E14.80673
G1 X95.605 Y111.579 E14.81487
G1 X84.395 Y111.579 E15.07143
G1 X84.395 Y111.863 E15.07793
G1 X84.467 Y111.935 E15.08025
G1 X95.533 Y111.935 E15.33354
G1 X95.178 Y112.290 E15.34505
G1 X84.822 Y112.290 E15.58206
G1 X85.178 Y112.646 E15.59357
G1 X94.822 Y112.646 E15.81430
G1 X94.467 Y113.001 E15.82581
G1 X85.533 Y113.001 E16.03026
G1 X85.889 Y113.357 E16.04177
G1 X94.337 Y113.357 E16.23513
; stop printing object Sphere10mmRad.stl id:0 copy 0
G1 Z0.600000 F7800.000
; printing object Sphere10mmRad.stl id:0 copy 0
G92 E0
G1 E-4.00000 F3600.00000
G1 X95.988 Y108.426 F7800.000
G1 E0.00000 F3600.00000
G1 F1800.000
G1 X95.988 Y101.770 E0.20392
G1 X95.911 Y101.693 E0.20724
G1 X95.681 Y101.693 E0.21430
G1 X95.681 Y108.307 E0.41694
G1 X95.374 Y108.307 E0.42634
G1 X95.374 Y101.693 E0.62898
G1 X95.067 Y101.693 E0.63839
G1 X95.067 Y108.307 E0.84102
G1 X94.760 Y108.307 E0.85043
G1 X94.760 Y101.693 E1.05307
G1 X94.453 Y101.693 E1.06248
G1 X94.453 Y108.307 E1.26511
G1 X94.146 Y108.307 E1.27452
G1 X94.146 Y101.693 E1.47716
G1 X93.838 Y101.693 E1.48656
G1 X93.838 Y108.307 E1.68920
G1 X93.531 Y108.307 E1.69861
G1 X93.531 Y101.693 E1.90124
G1 X93.307 Y101.693 E1.90812
G1 X93.307 Y99.089 E1.98790
G1 X93.224 Y99.006 E1.99148
G1 X93.224 Y110.994 E2.35876
G1 X93.104 Y111.114 E2.36396
G1 X92.917 Y111.114 E2.36969
G1 X92.917 Y98.886 E2.74432
G1 X92.610 Y98.886 E2.75373
G1 X92.610 Y111.114 E3.12837
G1 X92.303 Y111.114 E3.13777
G1 X92.303 Y98.886 E3.51241
G1 X91.996 Y98.886 E3.52182
G1 X91.996 Y111.114 E3.89645
G1 X91.689 Y111.114 E3.90586
G1 X91.689 Y98.886 E4.28050
G1 X91.382 Y98.886 E4.28990
G1 X91.382 Y111.114 E4.66454
G1 X91.075 Y111.114 E4.67395
G1 X91.075 Y98.886 E5.04858
G1 X90.768 Y98.886 E5.05799
G1 X90.768 Y111.114 E5.43263
G1 X90.461 Y111.114 E5.44203
G1 X90.461 Y98.886 E5.81667
G1 X90.153 Y98.886 E5.82608
G1 X90.153 Y111.114 E6.20071
G1 X89.846 Y111.114 E6.21012
G1 X89.846 Y98.886 E6.58475
G1 X89.539 Y98.886 E6.59416
G1 X89.539 Y111.114 E6.96880
G1 X89.232 Y111.114 E6.97821
G1 X89.232 Y98.886 E7.35284
G1 X88.925 Y98.886 E7.36225
G1 X88.925 Y111.114 E7.73688
G1 X88.618 Y111.114 E7.74629
G1 X88.618 Y98.886 E8.12093
G1 X88.311 Y98.886 E8.13033
G1 X88.311 Y111.114 E8.50497
G1 X88.004 Y111.114 E8.51438
G1 X88.004 Y98.886 E8.88901
G1 X87.697 Y98.886 E8.89842
G1 X87.697 Y111.114 E9.27306
G1 X87.390 Y111.114 E9.28246
G1 X87.390 Y98.886 E9.65710
G1 X87.083 Y98.886 E9.66651
G1 X87.083 Y111.114 E10.04114
G1 X86.896 Y111.114 E10.04687
G1 X86.776 Y110.994 E10.05208
G1 X86.776 Y99.006 E10.41934
G1 X86.693 Y99.089 E10.42293
G1 X86.693 Y101.693 E10.50271
G1 X86.469 Y101.693 E10.50958
G1 X86.469 Y108.307 E10.71222
G1 X86.161 Y108.307 E10.72163
G1 X86.161 Y101.693 E10.92426
G1 X85.854 Y101.693 E10.93367
G1 X85.854 Y108.307 E11.13631
G1 X85.547 Y108.307 E11.14571
G1 X85.547 Y101.693 E11.34835
G1 X85.240 Y101.693 E11.35776
G1 X85.240 Y108.307 E11.56039
G1 X84.933 Y108.307 E11.56980
G1 X84.933 Y101.693 E11.77244
G1 X84.626 Y101.693 E11.78185
G1 X84.626 Y108.307 E11.98448
G1 X84.319 Y108.307 E11.99389
G1 X84.319 Y101.693 E12.19653
G1 X84.089 Y101.693 E12.20358
G1 X84.012 Y101.770 E12.20691
G1 X84.012 Y108.426 E12.41082
; stop printing object Sphere10mmRad.stl id:0 copy 0
G1 Z0.900000 F7800.000
; printing object Sphere10mmRad.stl id:0 copy 0
G92 E0
G1 E-4.00000 F3600.00000
G1 X95.374 Y107.945 F7800.000
G1 E0.00000 F3600.00000
G1 F1800.000
G1 X95.374 Y102.193 E0.17623
G1 X95.067 Y102.193 E0.18564
G1 X95.067 Y107.807 E0.35764
G1 X94.760 Y107.807 E0.36705
G1 X94.760 Y102.193 E0.53905
G1 X94.453 Y102.193 E0.54846
G1 X94.453 Y107.807 E0.72046
G1 X94.146 Y107.807 E0.72987
G1 X94.146 Y102.193 E0.90187
G1 X93.838 Y102.193 E0.91127
G1 X93.838 Y107.807 E1.08327
G1 X93.531 Y107.807 E1.09268
G1 X93.531 Y102.193 E1.26468
G1 X93.224 Y102.193 E1.27409
G1 X93.224 Y107.807 E1.44609
G1 X92.917 Y107.807 E1.45550
G1 X92.917 Y102.193 E1.62750
G1 X92.807 Y102.193 E1.63087
G1 X92.807 Y99.386 E1.71687
G1 X92.610 Y99.386 E1.72290
G1 X92.610 Y110.614 E2.06690
G1 X92.303 Y110.614 E2.07631
G1 X92.303 Y99.386 E2.42031
G1 X91.996 Y99.386 E2.42972
G1 X91.996 Y110.614 E2.77372
G1 X91.689 Y110.614 E2.78312
G1 X91.689 Y99.386 E3.12712
G1 X91.382 Y99.386 E3.13653
G1 X91.382 Y110.614 E3.48053
G1 X91.075 Y110.614 E3.48994
G1 X91.075 Y99.386 E3.83394
G1 X90.768 Y99.386 E3.84335
G1 X90.768 Y110.614 E4.18734
G1 X90.461 Y110.614 E4.19675
G1 X90.461 Y99.386 E4.54075
G1 X90.153 Y99.386 E4.55016
G1 X90.153 Y110.614 E4.89416
G1 X89.846 Y110.614 E4.90357
G1 X89.846 Y99.386 E5.24757
G1 X89.539 Y99.386 E5.25697
G1 X89.539 Y110.614 E5.60097
G1 X89.232 Y110.614 E5.61038
G1 X89.232 Y99.386 E5.95438
G1 X88.925 Y99.386 E5.96379
G1 X88.925 Y110.614 E6.30779
G1 X88.618 Y110.614 E6.31719
G1 X88.618 Y99.386 E6.66119
G1 X88.311 Y99.386 E6.67060
G1 X88.311 Y110.614 E7.01460
G1 X88.004 Y110.614 E7.02401
G1 X88.004 Y99.386 E7.36801
G1 X87.697 Y99.386 E7.37742
G1 X87.697 Y110.614 E7.72141
G1 X87.390 Y110.614 E7.73082
G1 X87.390 Y99.386 E8.07482
G1 X87.193 Y99.386 E8.08085
G1 X87.193 Y102.193 E8.16685
G1 X87.083 Y102.193 E8.17023
G1 X87.083 Y107.807 E8.34223
G1 X86.776 Y107.807 E8.35164
G1 X86.776 Y102.193 E8.52364
G1 X86.469 Y102.193 E8.53304
G1 X86.469 Y107.807 E8.70504
G1 X86.161 Y107.807 E8.71445
G1 X86.161 Y102.193 E8.88645
G1 X85.854 Y102.193 E8.89586
G1 X85.854 Y107.807 E9.06786
G1 X85.547 Y107.807 E9.07727
G1 X85.547 Y102.193 E9.24927
G1 X85.240 Y102.193 E9.25868
G1 X85.240 Y107.807 E9.43068
G1 X84.933 Y107.807 E9.44008
G1 X84.933 Y102.193 E9.61208
G1 X84.626 Y102.193 E9.62149
G1 X84.626 Y107.945 E9.79773
; stop printing object Sphere10mmRad.stl id:0 copy 0
M106 S255
G1 Z1.500000 F7800.000
; printing object Sphere10mmRad.stl id:0 copy 0
G92 E0
G1 E-4.00000 F3600.00000
G1 X88.418 Y105.840 F7800.000
G1 E0.00000 F3600.00000
G1 F900.000
G1 X88.285 Y105.515 E0.01577
G1 X88.217 Y105.171 E0.03155
G1 X88.218 Y104.820 E0.04732
G1 X88.288 Y104.476 E0.06309
G1 X88.423 Y104.152 E0.07887
G1 X88.619 Y103.860 E0.09464
G1 X88.868 Y103.613 E0.11041
G1 X89.160 Y103.418 E0.12619
G1 X89.485 Y103.285 E0.14196
G1 X89.829 Y103.217 E0.15773
G1 X90.180 Y103.218 E0.17351
G1 X90.524 Y103.288 E0.18928
G1 X90.848 Y103.423 E0.20505
G1 X91.140 Y103.619 E0.22082
G1 X91.387 Y103.868 E0.23660
G1 X91.582 Y104.160 E0.25237
G1 X91.715 Y104.485 E0.26814
G1 X91.783 Y104.829 E0.28392
G1 X91.782 Y105.180 E0.29969
G1 X91.712 Y105.524 E0.31546
G1 X91.577 Y105.848 E0.33124
G1 X91.381 Y106.140 E0.34701
M73 Q12 S7
G1 X91.132 Y106.387 E0.36278
G1 X90.840 Y106.582 E0.37856
G1 X90.515 Y106.715 E0.39433
G1 X90.171 Y106.783 E0.41010
G1 X89.820 Y106.782 E0.42588
G1 X89.476 Y106.712 E0.44165
G1 X89.152 Y106.577 E0.45742
G1 X88.860 Y106.381 E0.47320
G1 X88.613 Y106.132 E0.48897
G1 X88.452 Y105.890 E0.50205
G1 X89.780 Y106.658 F7800.000
G1 F1800.000
G1 X91.466 Y104.971 E0.60921
G1 X91.357 Y104.444 E0.63339
G1 X89.444 Y106.357 E0.75491
G1 X89.045 Y106.119 E0.77577
G1 X91.119 Y104.046 E0.90752
G1 X90.774 Y103.754 E0.92780
G1 X88.754 Y105.774 E1.05618
G1 X88.569 Y105.323 E1.07810
G1 X90.323 Y103.569 E1.18951
G1 X89.689 Y103.567 E1.21799
G1 X88.332 Y104.924 E1.30423
; stop printing object Sphere10mmRad.stl id:0 copy 0
G1 Z1.700000 F7800.000
; printing object Sphere10mmRad.stl id:0 copy 0
G1 X87.220 Y104.848
G1 F900.000
G1 X87.242 Y104.536 E1.31827
G1 X87.385 Y104.007 E1.34291
G1 X87.629 Y103.516 E1.36755
G1 X87.964 Y103.082 E1.39218
G1 X88.378 Y102.721 E1.41682
M73 P12 R7
G1 X88.853 Y102.449 E1.44146
G1 X89.373 Y102.274 E1.46610
G1 X89.917 Y102.204 E1.49073
G1 X90.464 Y102.242 E1.51537
G1 X90.993 Y102.385 E1.54001
G1 X91.484 Y102.629 E1.56464
G1 X91.918 Y102.964 E1.58928
G1 X92.279 Y103.378 E1.61392
G1 X92.551 Y103.853 E1.63855
G1 X92.728 Y104.381 E1.66354
G1 X92.800 Y105.000 E1.69155
G1 X92.759 Y105.462 E1.71239
G1 X92.615 Y105.993 E1.73713
G1 X92.371 Y106.484 E1.76177
G1 X92.036 Y106.918 E1.78641
G1 X91.622 Y107.279 E1.81104
G1 X91.147 Y107.551 E1.83568
G1 X90.627 Y107.726 E1.86032
G1 X90.083 Y107.796 E1.88496
G1 X89.536 Y107.758 E1.90959
G1 X89.007 Y107.615 E1.93423
G1 X88.516 Y107.371 E1.95887
G1 X88.082 Y107.036 E1.98350
G1 X87.721 Y106.622 E2.00814
G1 X87.449 Y106.147 E2.03278
G1 X87.274 Y105.627 E2.05741
G1 X87.204 Y105.083 E2.08205
G1 X87.216 Y104.908 E2.08994
G92 E0
G1 E-4.00000 F3600.00000
G1 X91.481 Y104.566 F7800.000
G1 E0.00000 F3600.00000
G1 F600
G1 X90.863 Y103.948 E0.02995
G1 X90.641 Y103.800 E0.03908
G1 X90.395 Y103.698 E0.04821
G1 X89.985 Y103.646 E0.06237
G1 X91.362 Y105.022 E0.12906
G1 X91.260 Y105.496 E0.14566
G1 X89.504 Y103.740 E0.23076
G1 X89.136 Y103.949 E0.24523
G1 X91.051 Y105.864 E0.33800
G1 X90.744 Y106.132 E0.35198
G1 X88.868 Y104.256 E0.44284
G1 X88.689 Y104.652 E0.45773
G1 X90.348 Y106.311 E0.53812
G1 X90.133 Y106.354 E0.54562
G1 X89.802 Y106.341 E0.55697
G1 X88.463 Y105.002 E0.62186
G92 E0
G1 E-4.00000 F3600.00000
G1 X91.967 Y103.209 F7800.000
G1 E0.00000 F3600.00000
G1 F1800.000
G1 X88.851 Y102.827 E0.14105
G1 X88.568 Y102.989 E0.15570
G1 X88.310 Y103.214 E0.17107
G1 X89.347 Y103.341 E0.21800
G1 X89.156 Y103.420 E0.22732
G1 X88.757 Y103.722 E0.24977
G1 X87.959 Y103.624 E0.28592
G1 X87.729 Y104.049 E0.30763
G1 X88.434 Y104.136 E0.33952
G1 X88.268 Y104.569 E0.36035
G1 X87.594 Y104.486 E0.39088
G1 X87.542 Y104.933 E0.41110
G1 X88.217 Y105.016 E0.44168
G1 X88.277 Y105.476 E0.46255
G1 X87.573 Y105.390 E0.49443
G1 X87.697 Y105.859 E0.51620
G1 X88.495 Y105.957 E0.55235
G1 X88.615 Y106.136 E0.56206
G1 X88.993 Y106.471 E0.58473
G1 X87.937 Y106.341 E0.63253
G1 X87.989 Y106.432 E0.63721
G1 X88.374 Y106.848 E0.66270
G1 X91.126 Y107.186 E0.78729
G1 X91.432 Y107.011 E0.80312
G1 X91.674 Y106.800 E0.81755
G1 X90.624 Y106.671 E0.86509
G1 X90.844 Y106.580 E0.87584
G1 X91.229 Y106.292 E0.89741
G1 X92.030 Y106.391 E0.93369
G1 X92.264 Y105.966 E0.95546
G1 X91.557 Y105.879 E0.98746
G1 X91.729 Y105.447 E1.00837
G1 X92.402 Y105.530 E1.03885
G1 X92.465 Y105.084 E1.05907
G1 X91.792 Y105.001 E1.08953
G1 X91.726 Y104.540 E1.11048
G1 X92.428 Y104.626 E1.14225
G1 X92.309 Y104.158 E1.16395
G1 X91.516 Y104.061 E1.19983
G1 X91.385 Y103.864 E1.21048
G1 X91.036 Y103.548 E1.23160
G1 X92.324 Y103.706 E1.28989
; stop printing object Sphere10mmRad.stl id:0 copy 0
M106 S244.8
G1 Z1.900000 F7800.000
; printing object Sphere10mmRad.stl id:0 copy 0
M106 S255
G1 X93.024 Y103.327
G1 F900.000
G1 X93.200 Y103.653 E1.30654
G1 X93.401 Y104.303 E1.33711
G1 X93.473 Y105.001 E1.36862
G1 X93.409 Y105.658 E1.39827
G1 X93.215 Y106.310 E1.42887
G1 X92.898 Y106.913 E1.45945
