; generated by SuperSlicer 2.2.53 on 2021-03-11 at 13:14:51 UTC

; 

; external perimeters extrusion width = 0.45mm
; perimeters extrusion width = 0.45mm
; infill extrusion width = 0.45mm
; solid infill extrusion width = 0.45mm
; top infill extrusion width = 0.40mm
; first layer extrusion width = 0.42mm

; object:{"name":"test lidless box 0","id":"test lidless box 0.4mm walls 0.6mm base 30mm sides.stl id:0 copy 0","object_center":[90.000000,105.000000,0.000000],"boundingbox_center":[90.000000,105.000000,15.000000],"boundingbox_size":[30.000000,30.000000,30.000000]}

M73 P0 R21
M73 Q0 S21
M107
M190 S60 ; set bed temperature and wait for it to be reached
M104 S190 ; set temperature
G28 ; home all axes
G1 Z5 F5000 ; lift nozzle
M109 S190 ; set temperature and wait for it to be reached
G21 ; set units to millimeters
G90 ; use absolute coordinates
M82 ; use absolute distances for extrusion
G92 E0
; Filament gcode
G1 Z0.200000 F7800.000
G1 E-4.00000 F3600.00000
M73 Q0 S21
M73 P0 R20
G1 X70.852 Y84.869 F7800.000
G1 E0.00000 F3600.00000
G1 F1800.000
G1 X71.904 Y84.194 E0.02195
G1 X73.069 Y83.745 E0.04389
G1 X74.308 Y83.539 E0.06594
G1 X105.312 Y83.527 E0.61052
G1 X106.429 Y83.630 E0.63021
G1 X107.508 Y83.933 E0.64991
G1 X108.515 Y84.427 E0.66960
G1 X109.411 Y85.091 E0.68919
G1 X110.176 Y85.910 E0.70888
G1 X110.778 Y86.849 E0.72847
G1 X111.202 Y87.887 E0.74816
G1 X111.432 Y88.984 E0.76785
G1 X111.468 Y120.551 E1.32232
G1 X111.345 Y121.555 E1.34008
G1 X111.062 Y122.520 E1.35773
G1 X110.626 Y123.425 E1.37539
G1 X110.045 Y124.253 E1.39315
G1 X109.099 Y125.169 E1.41627
G1 X107.981 Y125.863 E1.43940
G1 X106.740 Y126.304 E1.46252
G1 X105.429 Y126.472 E1.48575
G1 X74.442 Y126.468 E2.03001
G1 X73.445 Y126.345 E2.04766
G1 X72.480 Y126.062 E2.06532
G1 X71.575 Y125.626 E2.08297
G1 X70.747 Y125.045 E2.10073
G1 X69.831 Y124.099 E2.12385
G1 X69.137 Y122.981 E2.14698
G1 X68.696 Y121.740 E2.17010
G1 X68.528 Y120.429 E2.19334
G1 X68.532 Y89.442 E2.73759
G1 X68.655 Y88.445 E2.75525
G1 X68.938 Y87.480 E2.77290
G1 X69.374 Y86.575 E2.79055
G1 X69.955 Y85.747 E2.80831
G1 X70.809 Y84.911 E2.82931
G1 X71.953 Y86.055 F7800.000
G1 F1800.000
G1 X72.164 Y85.844 E2.83588
G1 X73.761 Y85.183 E2.87391
G1 X106.239 Y85.183 E3.58864
G1 X107.836 Y85.844 E3.62667
G1 X109.156 Y87.164 E3.66775
G1 X109.817 Y88.761 E3.70578
G1 X109.817 Y121.239 E4.42051
G1 X109.156 Y122.836 E4.45854
G1 X107.836 Y124.156 E4.49961
G1 X106.239 Y124.817 E4.53765
G1 X73.761 Y124.817 E5.25238
G1 X72.164 Y124.156 E5.29041
G1 X70.844 Y122.836 E5.33148
G1 X70.183 Y121.239 E5.36951
G1 X70.183 Y88.761 E6.08425
G1 X70.844 Y87.164 E6.12228
G1 X71.911 Y86.097 E6.15547
G1 X72.147 Y86.334 F7800.000
G1 F1800.000
G1 X72.353 Y86.127 E6.16189
G1 X73.827 Y85.517 E6.19700
G1 X106.173 Y85.517 E6.90880
G1 X107.647 Y86.127 E6.94391
G1 X108.873 Y87.353 E6.98206
G1 X109.483 Y88.827 E7.01716
G1 X109.483 Y121.173 E7.72897
G1 X108.873 Y122.647 E7.76408
G1 X107.647 Y123.873 E7.80223
G1 X106.173 Y124.483 E7.83733
G1 X73.827 Y124.483 E8.54914
G1 X72.353 Y123.873 E8.58424
G1 X71.127 Y122.647 E8.62239
G1 X70.517 Y121.173 E8.65750
G1 X70.517 Y88.827 E9.36931
G1 X71.127 Y87.353 E9.40441
G1 X72.104 Y86.376 E9.43482
G1 X72.341 Y86.612 F7800.000
G1 F1800.000
G1 X72.543 Y86.411 E9.44110
G1 X73.894 Y85.851 E9.47328
G1 X106.106 Y85.851 E10.18216
G1 X107.457 Y86.411 E10.21434
G1 X108.589 Y87.543 E10.24957
G1 X109.149 Y88.894 E10.28175
G1 X109.149 Y121.106 E10.99063
G1 X108.589 Y122.457 E11.02281
G1 X107.457 Y123.589 E11.05803
G1 X106.106 Y124.149 E11.09021
G1 X73.894 Y124.149 E11.79909
G1 X72.543 Y123.589 E11.83127
G1 X71.411 Y122.457 E11.86650
G1 X70.851 Y121.106 E11.89868
G1 X70.851 Y88.894 E12.60756
G1 X71.411 Y87.543 E12.63974
G1 X72.298 Y86.655 E12.66736
G1 X72.535 Y86.891 F7800.000
G1 F1800.000
G1 X72.732 Y86.694 E12.67350
G1 X73.960 Y86.185 E12.70276
G1 X106.040 Y86.185 E13.40871
G1 X107.268 Y86.694 E13.43797
G1 X108.306 Y87.732 E13.47027
G1 X108.815 Y88.960 E13.49952
G1 X108.815 Y121.040 E14.20548
G1 X108.306 Y122.268 E14.23473
G1 X107.268 Y123.306 E14.26703
G1 X106.040 Y123.815 E14.29628
G1 X73.960 Y123.815 E15.00224
G1 X72.732 Y123.306 E15.03149
G1 X71.694 Y122.268 E15.06379
G1 X71.185 Y121.040 E15.09305
G1 X71.185 Y88.960 E15.79900
G1 X71.694 Y87.732 E15.82826
G1 X72.492 Y86.934 E15.85310
G1 X72.728 Y87.170 F7800.000
G1 F1800.000
G1 X72.921 Y86.977 E15.85910
G1 X74.026 Y86.519 E15.88542
G1 X105.974 Y86.519 E16.58846
G1 X107.079 Y86.977 E16.61478
G1 X108.023 Y87.921 E16.64416
G1 X108.481 Y89.026 E16.67049
G1 X108.481 Y120.974 E17.37352
G1 X108.023 Y122.079 E17.39985
G1 X107.079 Y123.023 E17.42922
G1 X105.974 Y123.481 E17.45555
G1 X74.026 Y123.481 E18.15858
G1 X72.921 Y123.023 E18.18491
G1 X71.977 Y122.079 E18.21428
G1 X71.519 Y120.974 E18.24061
G1 X71.519 Y89.026 E18.94364
G1 X71.977 Y87.921 E18.96997
G1 X72.686 Y87.212 E18.99203
G1 X72.922 Y87.449 F7800.000
G1 F1800.000
G1 X73.110 Y87.260 E18.99788
G1 X74.093 Y86.854 E19.02129
G1 X105.907 Y86.854 E19.72139
G1 X106.890 Y87.261 E19.74480
G1 X107.740 Y88.110 E19.77125
G1 X108.146 Y89.093 E19.79465
G1 X108.146 Y120.907 E20.49475
G1 X107.740 Y121.890 E20.51816
G1 X106.890 Y122.740 E20.54461
G1 X105.907 Y123.146 E20.56801
G1 X74.093 Y123.146 E21.26812
G1 X73.110 Y122.740 E21.29152
G1 X72.261 Y121.890 E21.31797
G1 X71.854 Y120.907 E21.34137
G1 X71.854 Y89.093 E22.04148
G1 X72.260 Y88.110 E22.06488
G1 X72.880 Y87.491 E22.08416
G1 X73.116 Y87.727 F7800.000
G1 F1800.000
G1 X73.300 Y87.544 E22.08987
G1 X74.159 Y87.188 E22.11034
G1 X105.841 Y87.188 E22.80752
G1 X106.700 Y87.544 E22.82800
G1 X107.456 Y88.300 E22.85153
G1 X107.812 Y89.159 E22.87200
G1 X107.812 Y120.841 E23.56918
G1 X107.456 Y121.700 E23.58966
G1 X106.700 Y122.456 E23.61319
G1 X105.841 Y122.812 E23.63366
G1 X74.159 Y122.812 E24.33084
G1 X73.300 Y122.456 E24.35132
G1 X72.544 Y121.700 E24.37484
G1 X72.188 Y120.841 E24.39532
G1 X72.188 Y89.159 E25.09250
G1 X72.544 Y88.300 E25.11298
G1 X73.074 Y87.770 E25.12947
G1 X73.310 Y88.006 F7800.000
G1 F1800.000
G1 X73.489 Y87.827 E25.13504
G1 X74.226 Y87.522 E25.15259
G1 X105.774 Y87.522 E25.84685
G1 X106.511 Y87.827 E25.86440
G1 X107.173 Y88.489 E25.88500
G1 X107.478 Y89.226 E25.90255
G1 X107.478 Y120.774 E26.59681
G1 X107.173 Y121.511 E26.61436
G1 X106.511 Y122.173 E26.63496
G1 X105.774 Y122.478 E26.65251
G1 X74.226 Y122.478 E27.34676
G1 X73.489 Y122.173 E27.36432
G1 X72.827 Y121.511 E27.38491
G1 X72.522 Y120.774 E27.40247
G1 X72.522 Y89.226 E28.09672
G1 X72.827 Y88.489 E28.11427
G1 X73.268 Y88.048 E28.12798
G1 X73.504 Y88.285 F7800.000
G1 F1800.000
G1 X73.678 Y88.110 E28.13341
G1 X74.292 Y87.856 E28.14804
G1 X105.708 Y87.856 E28.83937
G1 X106.322 Y88.110 E28.85399
G1 X106.890 Y88.678 E28.87167
G1 X107.144 Y89.292 E28.88629
G1 X107.144 Y120.708 E29.57762
G1 X106.890 Y121.322 E29.59225
G1 X106.322 Y121.890 E29.60992
G1 X105.708 Y122.144 E29.62455
G1 X74.292 Y122.144 E30.31588
G1 X73.678 Y121.890 E30.33050
G1 X73.110 Y121.322 E30.34818
G1 X72.856 Y120.708 E30.36280
G1 X72.856 Y89.292 E31.05413
G1 X73.110 Y88.678 E31.06876
G1 X73.461 Y88.327 E31.07969
G1 X73.698 Y88.563 F7800.000
G1 F1800.000
G1 X73.868 Y88.394 E31.08497
G1 X74.359 Y88.190 E31.09667
G1 X105.641 Y88.190 E31.78508
G1 X106.132 Y88.394 E31.79678
G1 X106.606 Y88.868 E31.81153
G1 X106.810 Y89.359 E31.82323
G1 X106.810 Y120.641 E32.51163
G1 X106.606 Y121.132 E32.52333
G1 X106.132 Y121.606 E32.53808
G1 X105.641 Y121.810 E32.54978
G1 X74.359 Y121.810 E33.23819
G1 X73.868 Y121.606 E33.24989
G1 X73.394 Y121.132 E33.26463
G1 X73.190 Y120.641 E33.27634
G1 X73.190 Y89.359 E33.96474
G1 X73.394 Y88.868 E33.97644
G1 X73.655 Y88.606 E33.98459
G1 X73.892 Y88.842 F7800.000
G1 F1800.000
G1 X74.057 Y88.677 E33.98973
G1 X74.425 Y88.524 E33.99850
G1 X105.575 Y88.524 E34.68398
G1 X105.943 Y88.677 E34.69276
G1 X106.323 Y89.057 E34.70458
G1 X106.476 Y89.425 E34.71336
G1 X106.476 Y120.575 E35.39883
G1 X106.323 Y120.943 E35.40761
G1 X105.943 Y121.323 E35.41943
G1 X105.575 Y121.476 E35.42821
G1 X74.425 Y121.476 E36.11369
G1 X74.057 Y121.323 E36.12246
G1 X73.677 Y120.943 E36.13428
G1 X73.524 Y120.575 E36.14306
G1 X73.524 Y89.425 E36.82854
G1 X73.677 Y89.057 E36.83732
G1 X73.849 Y88.885 E36.84268
G1 X74.085 Y89.121 F7800.000
G1 F1800.000
G1 X74.246 Y88.960 E36.84767
G1 X74.492 Y88.858 E36.85353
G1 X105.508 Y88.858 E37.53608
G1 X105.754 Y88.960 E37.54193
G1 X106.040 Y89.246 E37.55083
G1 X106.142 Y89.492 E37.55668
G1 X106.142 Y120.508 E38.23923
M73 Q4 S20
M73 P4 R19
G1 X106.040 Y120.754 E38.24508
G1 X105.754 Y121.040 E38.25398
G1 X105.508 Y121.142 E38.25983
G1 X74.492 Y121.142 E38.94238
G1 X74.246 Y121.040 E38.94823
G1 X73.960 Y120.754 E38.95713
G1 X73.858 Y120.508 E38.96298
G1 X73.858 Y89.492 E39.64553
G1 X73.960 Y89.246 E39.65138
G1 X74.043 Y89.163 E39.65396
G1 X74.279 Y89.400 F7800.000
G1 F1800.000
G1 X74.435 Y89.244 E39.65882
G1 X74.558 Y89.193 E39.66174
G1 X105.442 Y89.193 E40.34137
G1 X105.565 Y89.244 E40.34429
G1 X105.756 Y89.435 E40.35027
G1 X105.807 Y89.558 E40.35319
G1 X105.807 Y120.442 E41.03282
G1 X105.756 Y120.565 E41.03574
G1 X105.565 Y120.756 E41.04172
G1 X105.442 Y120.807 E41.04464
G1 X74.558 Y120.807 E41.72427
G1 X74.435 Y120.756 E41.72719
G1 X74.244 Y120.565 E41.73316
G1 X74.193 Y120.442 E41.73609
G1 X74.193 Y89.558 E42.41572
G1 X74.240 Y89.444 E42.41844
G1 X74.527 Y89.625 F7800.000
G1 F1800.000
G1 X74.625 Y89.527 E42.42148
G1 X105.375 Y89.527 E43.09819
G1 X105.473 Y89.625 E43.10123
G1 X105.473 Y120.375 E43.77793
G1 X105.375 Y120.473 E43.78098
G1 X74.625 Y120.473 E44.45768
G1 X74.527 Y120.375 E44.46073
G1 X74.527 Y89.685 E45.13611
; printing object test lidless box 0.4mm walls 0.6mm base 30mm sides.stl id:0 copy 0
G1 X74.904 Y89.904 F7800.000
G1 F1800.000
G1 X105.096 Y89.904 E45.66642
G1 X105.096 Y120.096 E46.19673
G1 X74.904 Y120.096 E46.72704
G1 X74.904 Y89.964 E47.25630
G92 E0
G1 E-4.00000 F3600.00000
G1 X104.989 Y90.729 F7800.000
G1 E0.00000 F3600.00000
G1 F1200.000
G1 X104.431 Y90.171 E0.01372
G1 X103.928 Y90.171 E0.02245
G1 X104.829 Y91.072 E0.04459
G1 X104.829 Y91.575 E0.05332
G1 X103.425 Y90.171 E0.08780
G1 X102.922 Y90.171 E0.09653
G1 X104.829 Y92.078 E0.14337
G1 X104.829 Y92.581 E0.15210
G1 X102.419 Y90.171 E0.21128
G1 X101.916 Y90.171 E0.22001
G1 X104.829 Y93.084 E0.29153
G1 X104.829 Y93.587 E0.30026
G1 X101.413 Y90.171 E0.38413
G1 X100.910 Y90.171 E0.39286
G1 X104.829 Y94.090 E0.48908
G1 X104.829 Y94.593 E0.49781
G1 X100.407 Y90.171 E0.60638
G1 X99.904 Y90.171 E0.61511
G1 X104.829 Y95.096 E0.73602
G1 X104.829 Y95.599 E0.74475
G1 X99.401 Y90.171 E0.87801
G1 X98.898 Y90.171 E0.88674
G1 X104.829 Y96.102 E1.03235
G1 X104.829 Y96.604 E1.04108
G1 X98.396 Y90.171 E1.19903
G1 X97.893 Y90.171 E1.20776
G1 X104.829 Y97.107 E1.37806
G1 X104.829 Y97.610 E1.38679
G1 X97.390 Y90.171 E1.56944
G1 X96.887 Y90.171 E1.57817
G1 X104.829 Y98.113 E1.77316
G1 X104.829 Y98.616 E1.78189
G1 X96.384 Y90.171 E1.98923
G1 X95.881 Y90.171 E1.99796
G1 X104.829 Y99.119 E2.21765
G1 X104.829 Y99.622 E2.22638
G1 X95.378 Y90.171 E2.45841
G1 X94.875 Y90.171 E2.46714
G1 X104.829 Y100.125 E2.71152
G1 X104.829 Y100.628 E2.72025
G1 X94.372 Y90.171 E2.97698
G1 X93.869 Y90.171 E2.98571
G1 X104.829 Y101.131 E3.25478
G1 X104.829 Y101.634 E3.26351
G1 X93.366 Y90.171 E3.54493
G1 X92.863 Y90.171 E3.55366
G1 X104.829 Y102.137 E3.84743
G1 X104.829 Y102.640 E3.85616
G1 X92.360 Y90.171 E4.16228
G1 X91.858 Y90.171 E4.17101
G1 X104.829 Y103.142 E4.48947
G1 X104.829 Y103.645 E4.49820
G1 X91.355 Y90.171 E4.82901
G1 X90.852 Y90.171 E4.83774
G1 X104.829 Y104.148 E5.18089
G1 X104.829 Y104.651 E5.18962
G1 X90.349 Y90.171 E5.54512
G1 X89.846 Y90.171 E5.55385
G1 X104.829 Y105.154 E5.92170
G1 X104.829 Y105.657 E5.93043
G1 X89.343 Y90.171 E6.31062
G1 X88.840 Y90.171 E6.31936
G1 X104.829 Y106.160 E6.71190
G1 X104.829 Y106.663 E6.72063
G1 X88.337 Y90.171 E7.12552
G1 X87.834 Y90.171 E7.13425
G1 X104.829 Y107.166 E7.55148
G1 X104.829 Y107.669 E7.56021
G1 X87.331 Y90.171 E7.98979
G1 X86.828 Y90.171 E7.99852
G1 X104.829 Y108.172 E8.44045
G1 X104.829 Y108.675 E8.44918
G1 X86.325 Y90.171 E8.90346
G1 X85.823 Y90.171 E8.91219
G1 X104.829 Y109.177 E9.37881
G1 X104.829 Y109.680 E9.38754
G1 X85.320 Y90.171 E9.86651
G1 X84.817 Y90.171 E9.87524
G1 X104.829 Y110.183 E10.36655
G1 X104.829 Y110.686 E10.37528
G1 X84.314 Y90.171 E10.87895
G1 X83.811 Y90.171 E10.88768
G1 X104.829 Y111.189 E11.40369
G1 X104.829 Y111.692 E11.41242
G1 X83.308 Y90.171 E11.94077
G1 X82.805 Y90.171 E11.94950
G1 X104.829 Y112.195 E12.49021
G1 X104.829 Y112.698 E12.49894
G1 X82.302 Y90.171 E13.05199
G1 X81.799 Y90.171 E13.06072
G1 X104.829 Y113.201 E13.62611
G1 X104.829 Y113.704 E13.63484
G1 X81.296 Y90.171 E14.21259
G1 X80.793 Y90.171 E14.22132
G1 X104.829 Y114.207 E14.81141
G1 X104.829 Y114.710 E14.82014
G1 X80.290 Y90.171 E15.42257
G1 X79.787 Y90.171 E15.43130
G1 X104.829 Y115.213 E16.04609
M73 Q9 S18
M73 P9 R18
G1 X104.829 Y115.715 E16.05482
G1 X79.285 Y90.171 E16.68195
G1 X78.782 Y90.171 E16.69068
G1 X104.829 Y116.218 E17.33015
G1 X104.829 Y116.721 E17.33888
G1 X78.279 Y90.171 E17.99071
G1 X77.776 Y90.171 E17.99944
G1 X104.829 Y117.224 E18.66361
G1 X104.829 Y117.727 E18.67234
G1 X77.273 Y90.171 E19.34886
G1 X76.770 Y90.171 E19.35759
G1 X104.829 Y118.230 E20.04645
G1 X104.829 Y118.733 E20.05518
G1 X76.267 Y90.171 E20.75639
G1 X75.764 Y90.171 E20.76512
G1 X104.829 Y119.236 E21.47868
G1 X104.829 Y119.739 E21.48741
G1 X75.261 Y90.171 E22.21331
G1 X75.171 Y90.171 E22.21489
G1 X75.171 Y90.583 E22.22204
G1 X104.417 Y119.829 E22.94005
G1 X103.914 Y119.829 E22.94878
G1 X75.171 Y91.086 E23.65444
G1 X75.171 Y91.589 E23.66317
G1 X103.411 Y119.829 E24.35648
G1 X102.908 Y119.829 E24.36521
G1 X75.171 Y92.092 E25.04618
G1 X75.171 Y92.595 E25.05491
G1 X102.405 Y119.829 E25.72353
G1 X101.902 Y119.829 E25.73226
G1 X75.171 Y93.098 E26.38853
G1 X75.171 Y93.600 E26.39726
G1 X101.400 Y119.829 E27.04118
G1 X100.897 Y119.829 E27.04991
G1 X75.171 Y94.103 E27.68149
G1 X75.171 Y94.606 E27.69022
G1 X100.394 Y119.829 E28.30945
G1 X99.891 Y119.829 E28.31818
G1 X75.171 Y95.109 E28.92507
G1 X75.171 Y95.612 E28.93380
G1 X99.388 Y119.829 E29.52834
G1 X98.885 Y119.829 E29.53707
G1 X75.171 Y96.115 E30.11926
G1 X75.171 Y96.618 E30.12799
G1 X98.382 Y119.829 E30.69783
G1 X97.879 Y119.829 E30.70656
G1 X75.171 Y97.121 E31.26406
G1 X75.171 Y97.624 E31.27279
G1 X97.376 Y119.829 E31.81794
G1 X96.873 Y119.829 E31.82667
G1 X75.171 Y98.127 E32.35948
G1 X75.171 Y98.630 E32.36821
G1 X96.370 Y119.829 E32.88866
G1 X95.867 Y119.829 E32.89739
G1 X75.171 Y99.133 E33.40550
G1 X75.171 Y99.635 E33.41424
G1 X95.365 Y119.829 E33.91000
G1 X94.862 Y119.829 E33.91873
G1 X75.171 Y100.138 E34.40215
G1 X75.171 Y100.641 E34.41088
G1 X94.359 Y119.829 E34.88195
G1 X93.856 Y119.829 E34.89068
G1 X75.171 Y101.144 E35.34940
G1 X75.171 Y101.647 E35.35813
G1 X93.353 Y119.829 E35.80451
G1 X92.850 Y119.829 E35.81324
G1 X75.171 Y102.150 E36.24727
G1 X75.171 Y102.653 E36.25600
G1 X92.347 Y119.829 E36.67768
G1 X91.844 Y119.829 E36.68641
G1 X75.171 Y103.156 E37.09575
M73 Q14 S17
M73 P14 R17
G1 X75.171 Y103.659 E37.10448
G1 X91.341 Y119.829 E37.50147
G1 X90.838 Y119.829 E37.51020
G1 X75.171 Y104.162 E37.89484
G1 X75.171 Y104.665 E37.90357
G1 X90.335 Y119.829 E38.27587
G1 X89.832 Y119.829 E38.28460
G1 X75.171 Y105.168 E38.64455
G1 X75.171 Y105.671 E38.65328
G1 X89.329 Y119.829 E39.00088
G1 X88.827 Y119.829 E39.00961
G1 X75.171 Y106.173 E39.34487
G1 X75.171 Y106.676 E39.35360
G1 X88.324 Y119.829 E39.67651
G1 X87.821 Y119.829 E39.68524
G1 X75.171 Y107.179 E39.99580
G1 X75.171 Y107.682 E40.00453
G1 X87.318 Y119.829 E40.30274
G1 X86.815 Y119.829 E40.31147
G1 X75.171 Y108.185 E40.59734
G1 X75.171 Y108.688 E40.60607
G1 X86.312 Y119.829 E40.87960
G1 X85.809 Y119.829 E40.88833
G1 X75.171 Y109.191 E41.14950
G1 X75.171 Y109.694 E41.15823
G1 X85.306 Y119.829 E41.40706
G1 X84.803 Y119.829 E41.41579
G1 X75.171 Y110.197 E41.65227
G1 X75.171 Y110.700 E41.66100
G1 X84.300 Y119.829 E41.88514
G1 X83.797 Y119.829 E41.89387
G1 X75.171 Y111.203 E42.10566
G1 X75.171 Y111.706 E42.11439
G1 X83.294 Y119.829 E42.31383
G1 X82.791 Y119.829 E42.32256
G1 X75.171 Y112.209 E42.50965
