; generated by SuperSlicer 2.2.53 on 2021-03-10 at 16:00:07 UTC

; 

; external perimeters extrusion width = 0.45mm
; perimeters extrusion width = 0.45mm
; infill extrusion width = 0.45mm
; solid infill extrusion width = 0.45mm
; top infill extrusion width = 0.40mm
; first layer extrusion width = 0.42mm

; object:{"name":"test lidless box 0","id":"test lidless box 0.4mm walls 0.6mm base 30mm sides.stl id:0 copy 0","object_center":[90.000000,105.000000,0.000000],"boundingbox_center":[90.000000,105.000000,15.000000],"boundingbox_size":[30.000000,30.000000,30.000000]}

M73 P0 R21
M73 Q0 S21
M107
M190 S60 ; set bed temperature and wait for it to be reached
M104 S190 ; set temperature
G28 ; home all axes
G1 Z5 F5000 ; lift nozzle
M109 S190 ; set temperature and wait for it to be reached
G21 ; set units to millimeters
G90 ; use absolute coordinates
M82 ; use absolute distances for extrusion
G92 E0
; Filament gcode
G1 Z0.100000 F7800.000
G1 E-4.00000 F3600.00000
M73 Q0 S21
M73 P0 R20
G1 X70.852 Y84.869 F7800.000
G1 E0.00000 F3600.00000
G1 F1800.000
G1 X71.904 Y84.194 E0.02860
G1 X73.069 Y83.745 E0.05719
G1 X74.308 Y83.539 E0.08593
G1 X105.312 Y83.527 E0.79553
G1 X106.429 Y83.630 E0.82119
G1 X107.508 Y83.933 E0.84685
G1 X108.515 Y84.427 E0.87251
G1 X109.411 Y85.091 E0.89803
G1 X110.176 Y85.910 E0.92369
G1 X110.778 Y86.849 E0.94921
G1 X111.202 Y87.887 E0.97487
G1 X111.432 Y88.984 E1.00053
G1 X111.468 Y120.551 E1.72302
G1 X111.345 Y121.555 E1.74616
G1 X111.062 Y122.520 E1.76917
G1 X110.626 Y123.425 E1.79217
G1 X110.045 Y124.253 E1.81531
G1 X109.099 Y125.169 E1.84544
G1 X107.981 Y125.863 E1.87558
G1 X106.740 Y126.304 E1.90571
G1 X105.429 Y126.472 E1.93598
G1 X74.442 Y126.468 E2.64516
G1 X73.445 Y126.345 E2.66817
G1 X72.480 Y126.062 E2.69117
G1 X71.575 Y125.626 E2.71417
G1 X70.747 Y125.045 E2.73731
G1 X69.831 Y124.099 E2.76745
G1 X69.137 Y122.981 E2.79758
G1 X68.696 Y121.740 E2.82771
G1 X68.528 Y120.429 E2.85798
G1 X68.532 Y89.442 E3.56717
G1 X68.655 Y88.445 E3.59017
G1 X68.938 Y87.480 E3.61317
G1 X69.374 Y86.575 E3.63617
G1 X69.955 Y85.747 E3.65932
G1 X70.809 Y84.911 E3.68668
G1 X71.953 Y86.055 F7800.000
G1 F1800.000
G1 X72.164 Y85.844 E3.69523
G1 X73.761 Y85.183 E3.74479
G1 X106.239 Y85.183 E4.67611
G1 X107.836 Y85.844 E4.72566
G1 X109.156 Y87.164 E4.77918
G1 X109.817 Y88.761 E4.82874
G1 X109.817 Y121.239 E5.76006
G1 X109.156 Y122.836 E5.80961
G1 X107.836 Y124.156 E5.86313
G1 X106.239 Y124.817 E5.91269
G1 X73.761 Y124.817 E6.84401
G1 X72.164 Y124.156 E6.89356
G1 X70.844 Y122.836 E6.94709
G1 X70.183 Y121.239 E6.99664
G1 X70.183 Y88.761 E7.92796
G1 X70.844 Y87.164 E7.97751
G1 X71.911 Y86.097 E8.02076
G1 X72.147 Y86.334 F7800.000
G1 F1800.000
G1 X72.353 Y86.127 E8.02913
G1 X73.827 Y85.517 E8.07487
G1 X106.173 Y85.517 E9.00238
G1 X107.647 Y86.127 E9.04812
G1 X108.873 Y87.353 E9.09783
G1 X109.483 Y88.827 E9.14358
G1 X109.483 Y121.173 E10.07108
G1 X108.873 Y122.647 E10.11683
G1 X107.647 Y123.873 E10.16654
G1 X106.173 Y124.483 E10.21228
G1 X73.827 Y124.483 E11.13979
G1 X72.353 Y123.873 E11.18553
G1 X71.127 Y122.647 E11.23524
G1 X70.517 Y121.173 E11.28098
G1 X70.517 Y88.827 E12.20849
G1 X71.127 Y87.353 E12.25423
G1 X72.104 Y86.376 E12.29386
G1 X72.341 Y86.612 F7800.000
G1 F1800.000
G1 X72.543 Y86.411 E12.30204
G1 X73.894 Y85.851 E12.34397
G1 X106.106 Y85.851 E13.26766
G1 X107.457 Y86.411 E13.30959
G1 X108.589 Y87.543 E13.35549
G1 X109.149 Y88.894 E13.39743
G1 X109.149 Y121.106 E14.32112
G1 X108.589 Y122.457 E14.36305
G1 X107.457 Y123.589 E14.40895
G1 X106.106 Y124.149 E14.45088
G1 X73.894 Y124.149 E15.37458
G1 X72.543 Y123.589 E15.41651
G1 X71.411 Y122.457 E15.46241
G1 X70.851 Y121.106 E15.50434
G1 X70.851 Y88.894 E16.42803
G1 X71.411 Y87.543 E16.46996
G1 X72.298 Y86.655 E16.50596
G1 X72.535 Y86.891 F7800.000
G1 F1800.000
G1 X72.732 Y86.694 E16.51396
G1 X73.960 Y86.185 E16.55207
G1 X106.040 Y86.185 E17.47196
G1 X107.268 Y86.694 E17.51008
G1 X108.306 Y87.732 E17.55216
G1 X108.815 Y88.960 E17.59028
G1 X108.815 Y121.040 E18.51017
G1 X108.306 Y122.268 E18.54828
G1 X107.268 Y123.306 E18.59037
G1 X106.040 Y123.815 E18.62849
G1 X73.960 Y123.815 E19.54837
G1 X72.732 Y123.306 E19.58649
G1 X71.694 Y122.268 E19.62858
G1 X71.185 Y121.040 E19.66670
G1 X71.185 Y88.960 E20.58658
G1 X71.694 Y87.732 E20.62470
G1 X72.492 Y86.934 E20.65707
G1 X72.728 Y87.170 F7800.000
G1 F1800.000
G1 X72.921 Y86.977 E20.66488
G1 X74.026 Y86.519 E20.69919
G1 X105.974 Y86.519 E21.61526
G1 X107.079 Y86.977 E21.64957
G1 X108.023 Y87.921 E21.68784
G1 X108.481 Y89.026 E21.72215
G1 X108.481 Y120.974 E22.63822
G1 X108.023 Y122.079 E22.67253
G1 X107.079 Y123.023 E22.71080
G1 X105.974 Y123.481 E22.74511
G1 X74.026 Y123.481 E23.66118
G1 X72.921 Y123.023 E23.69549
G1 X71.977 Y122.079 E23.73376
G1 X71.519 Y120.974 E23.76807
G1 X71.519 Y89.026 E24.68414
G1 X71.977 Y87.921 E24.71845
G1 X72.686 Y87.212 E24.74719
G1 X72.922 Y87.449 F7800.000
G1 F1800.000
G1 X73.110 Y87.260 E24.75482
G1 X74.093 Y86.854 E24.78531
G1 X105.907 Y86.854 E25.69757
G1 X106.890 Y87.261 E25.72807
G1 X107.740 Y88.110 E25.76253
G1 X108.146 Y89.093 E25.79303
G1 X108.146 Y120.907 E26.70529
G1 X107.740 Y121.890 E26.73578
G1 X106.890 Y122.740 E26.77025
G1 X105.907 Y123.146 E26.80074
G1 X74.093 Y123.146 E27.71300
G1 X73.110 Y122.740 E27.74349
G1 X72.261 Y121.890 E27.77796
G1 X71.854 Y120.907 E27.80845
G1 X71.854 Y89.093 E28.72071
G1 X72.260 Y88.110 E28.75121
G1 X72.880 Y87.491 E28.77632
G1 X73.116 Y87.727 F7800.000
G1 F1800.000
G1 X73.300 Y87.544 E28.78376
G1 X74.159 Y87.188 E28.81045
G1 X105.841 Y87.188 E29.71889
G1 X106.700 Y87.544 E29.74558
G1 X107.456 Y88.300 E29.77623
G1 X107.812 Y89.159 E29.80291
G1 X107.812 Y120.841 E30.71136
G1 X107.456 Y121.700 E30.73804
G1 X106.700 Y122.456 E30.76870
G1 X105.841 Y122.812 E30.79538
G1 X74.159 Y122.812 E31.70383
G1 X73.300 Y122.456 E31.73051
G1 X72.544 Y121.700 E31.76116
G1 X72.188 Y120.841 E31.78784
G1 X72.188 Y89.159 E32.69629
G1 X72.544 Y88.300 E32.72297
G1 X73.074 Y87.770 E32.74447
G1 X73.310 Y88.006 F7800.000
G1 F1800.000
G1 X73.489 Y87.827 E32.75172
G1 X74.226 Y87.522 E32.77459
G1 X105.774 Y87.522 E33.67923
G1 X106.511 Y87.827 E33.70210
G1 X107.173 Y88.489 E33.72894
G1 X107.478 Y89.226 E33.75181
G1 X107.478 Y120.774 E34.65644
G1 X107.173 Y121.511 E34.67932
G1 X106.511 Y122.173 E34.70616
G1 X105.774 Y122.478 E34.72903
G1 X74.226 Y122.478 E35.63366
G1 X73.489 Y122.173 E35.65653
G1 X72.827 Y121.511 E35.68337
G1 X72.522 Y120.774 E35.70624
G1 X72.522 Y89.226 E36.61088
G1 X72.827 Y88.489 E36.63375
G1 X73.268 Y88.048 E36.65162
G1 X73.504 Y88.285 F7800.000
G1 F1800.000
G1 X73.678 Y88.110 E36.65869
G1 X74.292 Y87.856 E36.67774
G1 X105.708 Y87.856 E37.57857
G1 X106.322 Y88.110 E37.59763
G1 X106.890 Y88.678 E37.62066
G1 X107.144 Y89.292 E37.63971
G1 X107.144 Y120.708 E38.54054
G1 X106.890 Y121.322 E38.55960
G1 X106.322 Y121.890 E38.58263
G1 X105.708 Y122.144 E38.60168
G1 X74.292 Y122.144 E39.50251
G1 X73.678 Y121.890 E39.52157
G1 X73.110 Y121.322 E39.54460
G1 X72.856 Y120.708 E39.56365
G1 X72.856 Y89.292 E40.46448
G1 X73.110 Y88.678 E40.48354
G1 X73.461 Y88.327 E40.49778
G1 X73.698 Y88.563 F7800.000
G1 F1800.000
G1 X73.868 Y88.394 E40.50466
G1 X74.359 Y88.190 E40.51991
G1 X105.641 Y88.190 E41.41692
G1 X106.132 Y88.394 E41.43217
G1 X106.606 Y88.868 E41.45138
G1 X106.810 Y89.359 E41.46663
G1 X106.810 Y120.641 E42.36364
G1 X106.606 Y121.132 E42.37889
G1 X106.132 Y121.606 E42.39810
G1 X105.641 Y121.810 E42.41335
G1 X74.359 Y121.810 E43.31036
G1 X73.868 Y121.606 E43.32561
G1 X73.394 Y121.132 E43.34483
G1 X73.190 Y120.641 E43.36007
G1 X73.190 Y89.359 E44.25709
G1 X73.394 Y88.868 E44.27233
G1 X73.655 Y88.606 E44.28295
G1 X73.892 Y88.842 F7800.000
G1 F1800.000
G1 X74.057 Y88.677 E44.28964
G1 X74.425 Y88.524 E44.30108
G1 X105.575 Y88.524 E45.19428
G1 X105.943 Y88.677 E45.20571
G1 X106.323 Y89.057 E45.22112
G1 X106.476 Y89.425 E45.23255
G1 X106.476 Y120.575 E46.12575
G1 X106.323 Y120.943 E46.13719
G1 X105.943 Y121.323 E46.15259
G1 X105.575 Y121.476 E46.16403
G1 X74.425 Y121.476 E47.05723
G1 X74.057 Y121.323 E47.06866
G1 X73.677 Y120.943 E47.08407
G1 X73.524 Y120.575 E47.09550
G1 X73.524 Y89.425 E47.98870
G1 X73.677 Y89.057 E48.00014
G1 X73.849 Y88.885 E48.00712
G1 X74.085 Y89.121 F7800.000
G1 F1800.000
G1 X74.246 Y88.960 E48.01364
G1 X74.492 Y88.858 E48.02126
G1 X105.508 Y88.858 E48.91065
G1 X105.754 Y88.960 E48.91827
G1 X106.040 Y89.246 E48.92986
G1 X106.142 Y89.492 E48.93749
G1 X106.142 Y120.508 E49.82687
M73 Q4 S20
M73 P4 R19
G1 X106.040 Y120.754 E49.83450
G1 X105.754 Y121.040 E49.84609
G1 X105.508 Y121.142 E49.85372
G1 X74.492 Y121.142 E50.74310
G1 X74.246 Y121.040 E50.75073
G1 X73.960 Y120.754 E50.76232
G1 X73.858 Y120.508 E50.76994
G1 X73.858 Y89.492 E51.65933
G1 X73.960 Y89.246 E51.66695
G1 X74.043 Y89.163 E51.67031
G1 X74.279 Y89.400 F7800.000
G1 F1800.000
G1 X74.435 Y89.244 E51.67664
G1 X74.558 Y89.193 E51.68045
G1 X105.442 Y89.193 E52.56603
G1 X105.565 Y89.244 E52.56984
G1 X105.756 Y89.435 E52.57762
G1 X105.807 Y89.558 E52.58143
G1 X105.807 Y120.442 E53.46701
G1 X105.756 Y120.565 E53.47082
G1 X105.565 Y120.756 E53.47860
G1 X105.442 Y120.807 E53.48241
G1 X74.558 Y120.807 E54.36799
G1 X74.435 Y120.756 E54.37180
G1 X74.244 Y120.565 E54.37958
G1 X74.193 Y120.442 E54.38339
G1 X74.193 Y89.558 E55.26897
G1 X74.240 Y89.444 E55.27251
G1 X74.527 Y89.625 F7800.000
G1 F1800.000
G1 X74.625 Y89.527 E55.27648
G1 X105.375 Y89.527 E56.15824
G1 X105.473 Y89.625 E56.16221
G1 X105.473 Y120.375 E57.04397
G1 X105.375 Y120.473 E57.04794
G1 X74.625 Y120.473 E57.92971
G1 X74.527 Y120.375 E57.93368
G1 X74.527 Y89.685 E58.81372
; printing object test lidless box 0.4mm walls 0.6mm base 30mm sides.stl id:0 copy 0
G1 X74.904 Y89.904 F7800.000
G1 F1800.000
G1 X105.096 Y89.904 E59.50473
G1 X105.096 Y120.096 E60.19574
G1 X74.904 Y120.096 E60.88676
G1 X74.904 Y89.964 E61.57639
G92 E0
G1 E-4.00000 F3600.00000
G1 X104.989 Y90.729 F7800.000
G1 E0.00000 F3600.00000
G1 F1200.000
G1 X104.431 Y90.171 E0.01788
G1 X103.928 Y90.171 E0.02925
G1 X104.829 Y91.072 E0.05810
G1 X104.829 Y91.575 E0.06948
G1 X103.425 Y90.171 E0.11441
G1 X102.922 Y90.171 E0.12579
G1 X104.829 Y92.078 E0.18681
G1 X104.829 Y92.581 E0.19819
G1 X102.419 Y90.171 E0.27530
G1 X101.916 Y90.171 E0.28667
G1 X104.829 Y93.084 E0.37987
G1 X104.829 Y93.587 E0.39125
G1 X101.413 Y90.171 E0.50054
G1 X100.910 Y90.171 E0.51191
G1 X104.829 Y94.090 E0.63729
G1 X104.829 Y94.593 E0.64867
G1 X100.407 Y90.171 E0.79013
G1 X99.904 Y90.171 E0.80151
G1 X104.829 Y95.096 E0.95906
G1 X104.829 Y95.599 E0.97043
G1 X99.401 Y90.171 E1.14408
G1 X98.898 Y90.171 E1.15545
G1 X104.829 Y96.102 E1.34518
G1 X104.829 Y96.604 E1.35656
G1 X98.396 Y90.171 E1.56237
G1 X97.893 Y90.171 E1.57375
G1 X104.829 Y97.107 E1.79565
G1 X104.829 Y97.610 E1.80703
G1 X97.390 Y90.171 E2.04502
G1 X96.887 Y90.171 E2.05640
G1 X104.829 Y98.113 E2.31048
G1 X104.829 Y98.616 E2.32186
G1 X96.384 Y90.171 E2.59203
G1 X95.881 Y90.171 E2.60340
G1 X104.829 Y99.119 E2.88966
G1 X104.829 Y99.622 E2.90104
G1 X95.378 Y90.171 E3.20339
G1 X94.875 Y90.171 E3.21476
G1 X104.829 Y100.125 E3.53320
G1 X104.829 Y100.628 E3.54457
G1 X94.372 Y90.171 E3.87909
G1 X93.869 Y90.171 E3.89047
G1 X104.829 Y101.131 E4.24108
G1 X104.829 Y101.634 E4.25246
G1 X93.366 Y90.171 E4.61916
G1 X92.863 Y90.171 E4.63053
G1 X104.829 Y102.137 E5.01332
G1 X104.829 Y102.640 E5.02470
G1 X92.360 Y90.171 E5.42357
G1 X91.858 Y90.171 E5.43495
G1 X104.829 Y103.142 E5.84991
G1 X104.829 Y103.645 E5.86129
G1 X91.355 Y90.171 E6.29234
G1 X90.852 Y90.171 E6.30372
G1 X104.829 Y104.148 E6.75086
G1 X104.829 Y104.651 E6.76223
G1 X90.349 Y90.171 E7.22546
G1 X89.846 Y90.171 E7.23684
G1 X104.829 Y105.154 E7.71615
G1 X104.829 Y105.657 E7.72753
G1 X89.343 Y90.171 E8.22294
G1 X88.840 Y90.171 E8.23431
G1 X104.829 Y106.160 E8.74580
G1 X104.829 Y106.663 E8.75718
G1 X88.337 Y90.171 E9.28476
G1 X87.834 Y90.171 E9.29614
G1 X104.829 Y107.166 E9.83981
G1 X104.829 Y107.669 E9.85118
G1 X87.331 Y90.171 E10.41094
G1 X86.828 Y90.171 E10.42232
G1 X104.829 Y108.172 E10.99816
G1 X104.829 Y108.675 E11.00954
G1 X86.325 Y90.171 E11.60147
G1 X85.823 Y90.171 E11.61285
G1 X104.829 Y109.177 E12.22087
G1 X104.829 Y109.680 E12.23225
G1 X85.320 Y90.171 E12.85636
G1 X84.817 Y90.171 E12.86774
G1 X104.829 Y110.183 E13.50793
G1 X104.829 Y110.686 E13.51931
G1 X84.314 Y90.171 E14.17560
G1 X83.811 Y90.171 E14.18697
G1 X104.829 Y111.189 E14.85935
G1 X104.829 Y111.692 E14.87072
G1 X83.308 Y90.171 E15.55919
G1 X82.805 Y90.171 E15.57056
G1 X104.829 Y112.195 E16.27512
G1 X104.829 Y112.698 E16.28649
G1 X82.302 Y90.171 E17.00713
G1 X81.799 Y90.171 E17.01851
G1 X104.829 Y113.201 E17.75524
G1 X104.829 Y113.704 E17.76661
G1 X81.296 Y90.171 E18.51943
G1 X80.793 Y90.171 E18.53081
G1 X104.829 Y114.207 E19.29971
G1 X104.829 Y114.710 E19.31109
G1 X80.290 Y90.171 E20.09608
G1 X79.787 Y90.171 E20.10745
G1 X104.829 Y115.213 E20.90854
M73 Q10 S18
M73 P9 R18
G1 X104.829 Y115.715 E20.91991
G1 X79.285 Y90.171 E21.73708
G1 X78.782 Y90.171 E21.74846
G1 X104.829 Y116.218 E22.58171
G1 X104.829 Y116.721 E22.59309
G1 X78.279 Y90.171 E23.44244
G1 X77.776 Y90.171 E23.45381
G1 X104.829 Y117.224 E24.31925
G1 X104.829 Y117.727 E24.33062
G1 X77.273 Y90.171 E25.21214
G1 X76.770 Y90.171 E25.22352
G1 X104.829 Y118.230 E26.12113
G1 X104.829 Y118.733 E26.13251
G1 X76.267 Y90.171 E27.04621
G1 X75.764 Y90.171 E27.05758
G1 X104.829 Y119.236 E27.98737
G1 X104.829 Y119.739 E27.99874
G1 X75.261 Y90.171 E28.94462
G1 X75.171 Y90.171 E28.94667
G1 X75.171 Y90.583 E28.95600
G1 X104.417 Y119.829 E29.89158
G1 X103.914 Y119.829 E29.90295
G1 X75.171 Y91.086 E30.82245
G1 X75.171 Y91.589 E30.83383
G1 X103.411 Y119.829 E31.73723
G1 X102.908 Y119.829 E31.74861
G1 X75.171 Y92.092 E32.63593
G1 X75.171 Y92.595 E32.64730
G1 X102.405 Y119.829 E33.51853
G1 X101.902 Y119.829 E33.52991
G1 X75.171 Y93.098 E34.38505
G1 X75.171 Y93.600 E34.39643
G1 X101.400 Y119.829 E35.23548
G1 X100.897 Y119.829 E35.24686
G1 X75.171 Y94.103 E36.06982
G1 X75.171 Y94.606 E36.08120
G1 X100.394 Y119.829 E36.88808
G1 X99.891 Y119.829 E36.89945
G1 X75.171 Y95.109 E37.69024
G1 X75.171 Y95.612 E37.70162
G1 X99.388 Y119.829 E38.47632
G1 X98.885 Y119.829 E38.48769
G1 X75.171 Y96.115 E39.24631
G1 X75.171 Y96.618 E39.25768
G1 X98.382 Y119.829 E40.00021
G1 X97.879 Y119.829 E40.01158
G1 X75.171 Y97.121 E40.73802
G1 X75.171 Y97.624 E40.74939
G1 X97.376 Y119.829 E41.45974
G1 X96.873 Y119.829 E41.47112
G1 X75.171 Y98.127 E42.16538
G1 X75.171 Y98.630 E42.17675
G1 X96.370 Y119.829 E42.85493
G1 X95.867 Y119.829 E42.86630
G1 X75.171 Y99.133 E43.52838
G1 X75.171 Y99.635 E43.53976
G1 X95.365 Y119.829 E44.18576
G1 X94.862 Y119.829 E44.19713
G1 X75.171 Y100.138 E44.82704
G1 X75.171 Y100.641 E44.83842
G1 X94.359 Y119.829 E45.45223
G1 X93.856 Y119.829 E45.46361
G1 X75.171 Y101.144 E46.06134
G1 X75.171 Y101.647 E46.07272
G1 X93.353 Y119.829 E46.65436
G1 X92.850 Y119.829 E46.66573
G1 X75.171 Y102.150 E47.23129
G1 X75.171 Y102.653 E47.24266
G1 X92.347 Y119.829 E47.79213
G1 X91.844 Y119.829 E47.80351
G1 X75.171 Y103.156 E48.33688
M73 Q14 S17
M73 P14 R17
G1 X75.171 Y103.659 E48.34826
G1 X91.341 Y119.829 E48.86555
G1 X90.838 Y119.829 E48.87693
G1 X75.171 Y104.162 E49.37813
G1 X75.171 Y104.665 E49.38950
G1 X90.335 Y119.829 E49.87462
G1 X89.832 Y119.829 E49.88599
G1 X75.171 Y105.168 E50.35502
G1 X75.171 Y105.671 E50.36639
G1 X89.329 Y119.829 E50.81933
G1 X88.827 Y119.829 E50.83070
G1 X75.171 Y106.173 E51.26755
G1 X75.171 Y106.676 E51.27893
G1 X88.324 Y119.829 E51.69969
G1 X87.821 Y119.829 E51.71107
G1 X75.171 Y107.179 E52.11574
G1 X75.171 Y107.682 E52.12711
G1 X87.318 Y119.829 E52.51570
G1 X86.815 Y119.829 E52.52707
G1 X75.171 Y108.185 E52.89957
G1 X75.171 Y108.688 E52.91094
G1 X86.312 Y119.829 E53.26735
G1 X85.809 Y119.829 E53.27873
G1 X75.171 Y109.191 E53.61905
G1 X75.171 Y109.694 E53.63042
G1 X85.306 Y119.829 E53.95465
G1 X84.803 Y119.829 E53.96603
G1 X75.171 Y110.197 E54.27417
G1 X75.171 Y110.700 E54.28555
G1 X84.300 Y119.829 E54.57760
G1 X83.797 Y119.829 E54.58898
G1 X75.171 Y111.203 E54.86494
G1 X75.171 Y111.706 E54.87632
G1 X83.294 Y119.829 E55.13620
G1 X82.791 Y119.829 E55.14757
