; generated by SuperSlicer 2.2.53 on 2021-03-11 at 15:47:23 UTC

; 

; external perimeters extrusion width = 0.45mm
; perimeters extrusion width = 0.45mm
; infill extrusion width = 0.45mm
; solid infill extrusion width = 0.45mm
; top infill extrusion width = 0.40mm
; first layer extrusion width = 0.42mm

; object:{"name":"test lidless box 0","id":"test lidless box 0.4mm walls 0.6mm base 30mm sides.stl id:0 copy 0","object_center":[90.000000,105.000000,0.000000],"boundingbox_center":[90.000000,105.000000,15.000000],"boundingbox_size":[30.000000,30.000000,30.000000]}

M73 P0 R21
M73 Q0 S21
M107
M190 S60 ; set bed temperature and wait for it to be reached
M104 S215 ; set temperature
G28 ; home all axes
G1 Z5 F5000 ; lift nozzle
M109 S215 ; set temperature and wait for it to be reached
G21 ; set units to millimeters
G90 ; use absolute coordinates
M82 ; use absolute distances for extrusion
G92 E0
; Filament gcode
G1 Z0.300000 F7800.000
G1 E-4.00000 F3600.00000
M73 Q0 S21
M73 P0 R20
G1 X70.852 Y84.869 F7800.000
G1 E0.00000 F3600.00000
G1 F1800.000
G1 X71.904 Y84.194 E0.02793
G1 X73.069 Y83.745 E0.05586
G1 X74.308 Y83.539 E0.08393
G1 X105.312 Y83.527 E0.77703
G1 X106.429 Y83.630 E0.80209
G1 X107.508 Y83.933 E0.82715
G1 X108.515 Y84.427 E0.85222
G1 X109.411 Y85.091 E0.87715
G1 X110.176 Y85.910 E0.90221
G1 X110.778 Y86.849 E0.92714
G1 X111.202 Y87.887 E0.95220
G1 X111.432 Y88.984 E0.97727
G1 X111.468 Y120.551 E1.68295
G1 X111.345 Y121.555 E1.70556
G1 X111.062 Y122.520 E1.72802
G1 X110.626 Y123.425 E1.75049
G1 X110.045 Y124.253 E1.77310
G1 X109.099 Y125.169 E1.80253
G1 X107.981 Y125.863 E1.83196
G1 X106.740 Y126.304 E1.86139
G1 X105.429 Y126.472 E1.89096
G1 X74.442 Y126.468 E2.58365
G1 X73.445 Y126.345 E2.60612
G1 X72.480 Y126.062 E2.62858
G1 X71.575 Y125.626 E2.65105
G1 X70.747 Y125.045 E2.67366
G1 X69.831 Y124.099 E2.70309
G1 X69.137 Y122.981 E2.73252
G1 X68.696 Y121.740 E2.76195
G1 X68.528 Y120.429 E2.79152
G1 X68.532 Y89.442 E3.48421
G1 X68.655 Y88.445 E3.50668
G1 X68.938 Y87.480 E3.52914
G1 X69.374 Y86.575 E3.55161
G1 X69.955 Y85.747 E3.57422
G1 X70.809 Y84.911 E3.60094
G1 X71.953 Y86.055 F7800.000
G1 F1800.000
G1 X72.164 Y85.844 E3.60930
G1 X73.761 Y85.183 E3.65770
G1 X106.239 Y85.183 E4.56736
G1 X107.836 Y85.844 E4.61576
G1 X109.156 Y87.164 E4.66804
G1 X109.817 Y88.761 E4.71644
G1 X109.817 Y121.239 E5.62610
G1 X109.156 Y122.836 E5.67450
G1 X107.836 Y124.156 E5.72678
G1 X106.239 Y124.817 E5.77518
G1 X73.761 Y124.817 E6.68484
G1 X72.164 Y124.156 E6.73325
G1 X70.844 Y122.836 E6.78552
G1 X70.183 Y121.239 E6.83393
G1 X70.183 Y88.761 E7.74359
G1 X70.844 Y87.164 E7.79199
G1 X71.911 Y86.097 E7.83423
G1 X72.147 Y86.334 F7800.000
G1 F1800.000
G1 X72.353 Y86.127 E7.84241
G1 X73.827 Y85.517 E7.88709
G1 X106.173 Y85.517 E8.79302
G1 X107.647 Y86.127 E8.83770
G1 X108.873 Y87.353 E8.88626
G1 X109.483 Y88.827 E8.93094
G1 X109.483 Y121.173 E9.83687
G1 X108.873 Y122.647 E9.88155
G1 X107.647 Y123.873 E9.93011
G1 X106.173 Y124.483 E9.97479
G1 X73.827 Y124.483 E10.88072
G1 X72.353 Y123.873 E10.92540
G1 X71.127 Y122.647 E10.97396
G1 X70.517 Y121.173 E11.01864
G1 X70.517 Y88.827 E11.92457
G1 X71.127 Y87.353 E11.96925
G1 X72.104 Y86.376 E12.00795
G1 X72.341 Y86.612 F7800.000
G1 F1800.000
G1 X72.543 Y86.411 E12.01594
G1 X73.894 Y85.851 E12.05690
G1 X106.106 Y85.851 E12.95911
G1 X107.457 Y86.411 E13.00007
G1 X108.589 Y87.543 E13.04490
G1 X109.149 Y88.894 E13.08586
G1 X109.149 Y121.106 E13.98807
G1 X108.589 Y122.457 E14.02903
G1 X107.457 Y123.589 E14.07386
G1 X106.106 Y124.149 E14.11481
G1 X73.894 Y124.149 E15.01703
G1 X72.543 Y123.589 E15.05798
G1 X71.411 Y122.457 E15.10281
G1 X70.851 Y121.106 E15.14377
G1 X70.851 Y88.894 E16.04598
G1 X71.411 Y87.543 E16.08694
G1 X72.298 Y86.655 E16.12210
G1 X72.535 Y86.891 F7800.000
G1 F1800.000
G1 X72.732 Y86.694 E16.12991
G1 X73.960 Y86.185 E16.16714
G1 X106.040 Y86.185 E17.06563
G1 X107.268 Y86.694 E17.10287
G1 X108.306 Y87.732 E17.14397
G1 X108.815 Y88.960 E17.18121
G1 X108.815 Y121.040 E18.07970
G1 X108.306 Y122.268 E18.11693
G1 X107.268 Y123.306 E18.15804
G1 X106.040 Y123.815 E18.19527
G1 X73.960 Y123.815 E19.09376
G1 X72.732 Y123.306 E19.13099
G1 X71.694 Y122.268 E19.17210
G1 X71.185 Y121.040 E19.20933
G1 X71.185 Y88.960 E20.10782
G1 X71.694 Y87.732 E20.14506
G1 X72.492 Y86.934 E20.17667
G1 X72.728 Y87.170 F7800.000
G1 F1800.000
G1 X72.921 Y86.977 E20.18430
G1 X74.026 Y86.519 E20.21781
G1 X105.974 Y86.519 E21.11258
G1 X107.079 Y86.977 E21.14609
G1 X108.023 Y87.921 E21.18348
G1 X108.481 Y89.026 E21.21698
G1 X108.481 Y120.974 E22.11175
G1 X108.023 Y122.079 E22.14526
G1 X107.079 Y123.023 E22.18265
G1 X105.974 Y123.481 E22.21615
G1 X74.026 Y123.481 E23.11092
G1 X72.921 Y123.023 E23.14443
G1 X71.977 Y122.079 E23.18182
G1 X71.519 Y120.974 E23.21533
G1 X71.519 Y89.026 E24.11009
G1 X71.977 Y87.921 E24.14360
G1 X72.686 Y87.212 E24.17168
G1 X72.922 Y87.449 F7800.000
G1 F1800.000
G1 X73.110 Y87.260 E24.17913
G1 X74.093 Y86.854 E24.20891
G1 X105.907 Y86.854 E25.09995
G1 X106.890 Y87.261 E25.12974
G1 X107.740 Y88.110 E25.16340
G1 X108.146 Y89.093 E25.19319
G1 X108.146 Y120.907 E26.08423
G1 X107.740 Y121.890 E26.11402
G1 X106.890 Y122.740 E26.14768
G1 X105.907 Y123.146 E26.17747
G1 X74.093 Y123.146 E27.06851
G1 X73.110 Y122.740 E27.09830
G1 X72.261 Y121.890 E27.13196
G1 X71.854 Y120.907 E27.16174
G1 X71.854 Y89.093 E28.05279
G1 X72.260 Y88.110 E28.08257
G1 X72.880 Y87.491 E28.10711
G1 X73.116 Y87.727 F7800.000
G1 F1800.000
G1 X73.300 Y87.544 E28.11438
G1 X74.159 Y87.188 E28.14044
G1 X105.841 Y87.188 E29.02776
G1 X106.700 Y87.544 E29.05382
G1 X107.456 Y88.300 E29.08376
G1 X107.812 Y89.159 E29.10982
G1 X107.812 Y120.841 E29.99714
G1 X107.456 Y121.700 E30.02321
G1 X106.700 Y122.456 E30.05314
G1 X105.841 Y122.812 E30.07921
G1 X74.159 Y122.812 E30.96653
G1 X73.300 Y122.456 E30.99259
G1 X72.544 Y121.700 E31.02253
G1 X72.188 Y120.841 E31.04859
G1 X72.188 Y89.159 E31.93591
G1 X72.544 Y88.300 E31.96197
G1 X73.074 Y87.770 E31.98297
G1 X73.310 Y88.006 F7800.000
G1 F1800.000
G1 X73.489 Y87.827 E31.99005
G1 X74.226 Y87.522 E32.01239
G1 X105.774 Y87.522 E32.89599
G1 X106.511 Y87.827 E32.91833
G1 X107.173 Y88.489 E32.94454
G1 X107.478 Y89.226 E32.96688
G1 X107.478 Y120.774 E33.85048
G1 X107.173 Y121.511 E33.87282
G1 X106.511 Y122.173 E33.89904
G1 X105.774 Y122.478 E33.92138
G1 X74.226 Y122.478 E34.80497
G1 X73.489 Y122.173 E34.82731
G1 X72.827 Y121.511 E34.85353
G1 X72.522 Y120.774 E34.87587
G1 X72.522 Y89.226 E35.75946
G1 X72.827 Y88.489 E35.78180
G1 X73.268 Y88.048 E35.79925
G1 X73.504 Y88.285 F7800.000
G1 F1800.000
G1 X73.678 Y88.110 E35.80616
G1 X74.292 Y87.856 E35.82477
G1 X105.708 Y87.856 E36.70465
G1 X106.322 Y88.110 E36.72326
G1 X106.890 Y88.678 E36.74576
G1 X107.144 Y89.292 E36.76437
G1 X107.144 Y120.708 E37.64425
G1 X106.890 Y121.322 E37.66286
G1 X106.322 Y121.890 E37.68536
G1 X105.708 Y122.144 E37.70397
G1 X74.292 Y122.144 E38.58384
G1 X73.678 Y121.890 E38.60246
G1 X73.110 Y121.322 E38.62495
G1 X72.856 Y120.708 E38.64357
G1 X72.856 Y89.292 E39.52344
G1 X73.110 Y88.678 E39.54206
G1 X73.461 Y88.327 E39.55597
G1 X73.698 Y88.563 F7800.000
G1 F1800.000
G1 X73.868 Y88.394 E39.56269
G1 X74.359 Y88.190 E39.57758
G1 X105.641 Y88.190 E40.45373
G1 X106.132 Y88.394 E40.46863
G1 X106.606 Y88.868 E40.48740
G1 X106.810 Y89.359 E40.50229
G1 X106.810 Y120.641 E41.37844
G1 X106.606 Y121.132 E41.39333
G1 X106.132 Y121.606 E41.41210
G1 X105.641 Y121.810 E41.42700
G1 X74.359 Y121.810 E42.30315
G1 X73.868 Y121.606 E42.31804
G1 X73.394 Y121.132 E42.33681
G1 X73.190 Y120.641 E42.35170
G1 X73.190 Y89.359 E43.22785
G1 X73.394 Y88.868 E43.24274
G1 X73.655 Y88.606 E43.25311
G1 X73.892 Y88.842 F7800.000
G1 F1800.000
G1 X74.057 Y88.677 E43.25965
G1 X74.425 Y88.524 E43.27082
G1 X105.575 Y88.524 E44.14325
G1 X105.943 Y88.677 E44.15442
G1 X106.323 Y89.057 E44.16946
G1 X106.476 Y89.425 E44.18063
G1 X106.476 Y120.575 E45.05306
G1 X106.323 Y120.943 E45.06423
G1 X105.943 Y121.323 E45.07928
G1 X105.575 Y121.476 E45.09045
G1 X74.425 Y121.476 E45.96287
G1 X74.057 Y121.323 E45.97404
G1 X73.677 Y120.943 E45.98909
G1 X73.524 Y120.575 E46.00026
G1 X73.524 Y89.425 E46.87269
G1 X73.677 Y89.057 E46.88386
G1 X73.849 Y88.885 E46.89068
G1 X74.085 Y89.121 F7800.000
G1 F1800.000
G1 X74.246 Y88.960 E46.89704
G1 X74.492 Y88.858 E46.90449
G1 X105.508 Y88.858 E47.77319
G1 X105.754 Y88.960 E47.78064
G1 X106.040 Y89.246 E47.79196
G1 X106.142 Y89.492 E47.79941
G1 X106.142 Y120.508 E48.66811
M73 Q4 S20
M73 P4 R19
G1 X106.040 Y120.754 E48.67556
G1 X105.754 Y121.040 E48.68688
G1 X105.508 Y121.142 E48.69433
G1 X74.492 Y121.142 E49.56303
G1 X74.246 Y121.040 E49.57048
G1 X73.960 Y120.754 E49.58180
G1 X73.858 Y120.508 E49.58925
G1 X73.858 Y89.492 E50.45795
G1 X73.960 Y89.246 E50.46540
G1 X74.043 Y89.163 E50.46868
G1 X74.279 Y89.400 F7800.000
G1 F1800.000
G1 X74.435 Y89.244 E50.47486
G1 X74.558 Y89.193 E50.47858
G1 X105.442 Y89.193 E51.34356
G1 X105.565 Y89.244 E51.34728
G1 X105.756 Y89.435 E51.35488
G1 X105.807 Y89.558 E51.35861
G1 X105.807 Y120.442 E52.22359
G1 X105.756 Y120.565 E52.22731
G1 X105.565 Y120.756 E52.23491
G1 X105.442 Y120.807 E52.23863
G1 X74.558 Y120.807 E53.10361
G1 X74.435 Y120.756 E53.10734
G1 X74.244 Y120.565 E53.11494
G1 X74.193 Y120.442 E53.11866
G1 X74.193 Y89.558 E53.98364
G1 X74.240 Y89.444 E53.98710
G1 X74.527 Y89.625 F7800.000
G1 F1800.000
G1 X74.625 Y89.527 E53.99098
G1 X105.375 Y89.527 E54.85224
G1 X105.473 Y89.625 E54.85611
G1 X105.473 Y120.375 E55.71737
G1 X105.375 Y120.473 E55.72125
G1 X74.625 Y120.473 E56.58250
G1 X74.527 Y120.375 E56.58638
G1 X74.527 Y89.685 E57.44596
; printing object test lidless box 0.4mm walls 0.6mm base 30mm sides.stl id:0 copy 0
G1 X74.904 Y89.904 F7800.000
G1 F1800.000
G1 X105.096 Y89.904 E58.12090
G1 X105.096 Y120.096 E58.79584
G1 X74.904 Y120.096 E59.47078
G1 X74.904 Y89.964 E60.14439
G92 E0
G1 E-4.00000 F3600.00000
G1 X104.989 Y90.729 F7800.000
G1 E0.00000 F3600.00000
G1 F1200.000
G1 X104.431 Y90.171 E0.01746
G1 X103.928 Y90.171 E0.02857
G1 X104.829 Y91.072 E0.05675
G1 X104.829 Y91.575 E0.06786
G1 X103.425 Y90.171 E0.11175
G1 X102.922 Y90.171 E0.12286
G1 X104.829 Y92.078 E0.18247
G1 X104.829 Y92.581 E0.19358
G1 X102.419 Y90.171 E0.26890
G1 X101.916 Y90.171 E0.28001
G1 X104.829 Y93.084 E0.37104
G1 X104.829 Y93.587 E0.38215
G1 X101.413 Y90.171 E0.48890
G1 X100.910 Y90.171 E0.50001
G1 X104.829 Y94.090 E0.62247
G1 X104.829 Y94.593 E0.63358
G1 X100.407 Y90.171 E0.77176
G1 X99.904 Y90.171 E0.78287
G1 X104.829 Y95.096 E0.93675
G1 X104.829 Y95.599 E0.94787
G1 X99.401 Y90.171 E1.11747
G1 X98.898 Y90.171 E1.12858
G1 X104.829 Y96.102 E1.31390
G1 X104.829 Y96.604 E1.32501
G1 X98.396 Y90.171 E1.52604
G1 X97.893 Y90.171 E1.53715
G1 X104.829 Y97.107 E1.75390
G1 X104.829 Y97.610 E1.76501
G1 X97.390 Y90.171 E1.99747
G1 X96.887 Y90.171 E2.00858
G1 X104.829 Y98.113 E2.25675
G1 X104.829 Y98.616 E2.26786
G1 X96.384 Y90.171 E2.53175
G1 X95.881 Y90.171 E2.54286
G1 X104.829 Y99.119 E2.82246
G1 X104.829 Y99.622 E2.83357
G1 X95.378 Y90.171 E3.12889
G1 X94.875 Y90.171 E3.14000
G1 X104.829 Y100.125 E3.45103
G1 X104.829 Y100.628 E3.46214
G1 X94.372 Y90.171 E3.78888
G1 X93.869 Y90.171 E3.79999
G1 X104.829 Y101.131 E4.14245
G1 X104.829 Y101.634 E4.15356
G1 X93.366 Y90.171 E4.51173
G1 X92.863 Y90.171 E4.52285
G1 X104.829 Y102.137 E4.89673
G1 X104.829 Y102.640 E4.90784
G1 X92.360 Y90.171 E5.29744
G1 X91.858 Y90.171 E5.30855
G1 X104.829 Y103.142 E5.71387
G1 X104.829 Y103.645 E5.72498
G1 X91.355 Y90.171 E6.14601
G1 X90.852 Y90.171 E6.15712
G1 X104.829 Y104.148 E6.59386
G1 X104.829 Y104.651 E6.60497
G1 X90.349 Y90.171 E7.05743
G1 X89.846 Y90.171 E7.06854
G1 X104.829 Y105.154 E7.53671
G1 X104.829 Y105.657 E7.54782
G1 X89.343 Y90.171 E8.03170
G1 X88.840 Y90.171 E8.04282
G1 X104.829 Y106.160 E8.54241
G1 X104.829 Y106.663 E8.55353
G1 X88.337 Y90.171 E9.06884
G1 X87.834 Y90.171 E9.07995
G1 X104.829 Y107.166 E9.61097
G1 X104.829 Y107.669 E9.62209
G1 X87.331 Y90.171 E10.16883
G1 X86.828 Y90.171 E10.17994
G1 X104.829 Y108.172 E10.74239
G1 X104.829 Y108.675 E10.75350
G1 X86.325 Y90.171 E11.33167
G1 X85.823 Y90.171 E11.34278
G1 X104.829 Y109.177 E11.93667
G1 X104.829 Y109.680 E11.94778
G1 X85.320 Y90.171 E12.55737
G1 X84.817 Y90.171 E12.56849
G1 X104.829 Y110.183 E13.19380
G1 X104.829 Y110.686 E13.20491
G1 X84.314 Y90.171 E13.84593
G1 X83.811 Y90.171 E13.85704
G1 X104.829 Y111.189 E14.51378
G1 X104.829 Y111.692 E14.52489
G1 X83.308 Y90.171 E15.19735
G1 X82.805 Y90.171 E15.20846
G1 X104.829 Y112.195 E15.89663
G1 X104.829 Y112.698 E15.90774
G1 X82.302 Y90.171 E16.61162
G1 X81.799 Y90.171 E16.62273
G1 X104.829 Y113.201 E17.34232
G1 X104.829 Y113.704 E17.35344
G1 X81.296 Y90.171 E18.08874
G1 X80.793 Y90.171 E18.09986
G1 X104.829 Y114.207 E18.85088
G1 X104.829 Y114.710 E18.86199
G1 X80.290 Y90.171 E19.62873
G1 X79.787 Y90.171 E19.63984
G1 X104.829 Y115.213 E20.42229
M73 Q9 S18
M73 P9 R18
G1 X104.829 Y115.715 E20.43340
G1 X79.285 Y90.171 E21.23157
G1 X78.782 Y90.171 E21.24268
G1 X104.829 Y116.218 E22.05656
G1 X104.829 Y116.721 E22.06767
G1 X78.279 Y90.171 E22.89726
G1 X77.776 Y90.171 E22.90838
G1 X104.829 Y117.224 E23.75368
G1 X104.829 Y117.727 E23.76479
G1 X77.273 Y90.171 E24.62582
G1 X76.770 Y90.171 E24.63693
G1 X104.829 Y118.230 E25.51366
G1 X104.829 Y118.733 E25.52477
G1 X76.267 Y90.171 E26.41722
G1 X75.764 Y90.171 E26.42834
G1 X104.829 Y119.236 E27.33650
G1 X104.829 Y119.739 E27.34761
G1 X75.261 Y90.171 E28.27149
G1 X75.171 Y90.171 E28.27349
G1 X75.171 Y90.583 E28.28260
G1 X104.417 Y119.829 E29.19643
G1 X103.914 Y119.829 E29.20754
G1 X75.171 Y91.086 E30.10565
G1 X75.171 Y91.589 E30.11676
G1 X103.411 Y119.829 E30.99916
G1 X102.908 Y119.829 E31.01027
G1 X75.171 Y92.092 E31.87695
G1 X75.171 Y92.595 E31.88806
G1 X102.405 Y119.829 E32.73903
G1 X101.902 Y119.829 E32.75014
G1 X75.171 Y93.098 E33.58540
G1 X75.171 Y93.600 E33.59651
G1 X101.400 Y119.829 E34.41605
G1 X100.897 Y119.829 E34.42716
G1 X75.171 Y94.103 E35.23099
G1 X75.171 Y94.606 E35.24210
G1 X100.394 Y119.829 E36.03021
G1 X99.891 Y119.829 E36.04132
G1 X75.171 Y95.109 E36.81372
G1 X75.171 Y95.612 E36.82483
G1 X99.388 Y119.829 E37.58152
G1 X98.885 Y119.829 E37.59263
G1 X75.171 Y96.115 E38.33360
G1 X75.171 Y96.618 E38.34471
G1 X98.382 Y119.829 E39.06997
G1 X97.879 Y119.829 E39.08108
G1 X75.171 Y97.121 E39.79062
G1 X75.171 Y97.624 E39.80173
G1 X97.376 Y119.829 E40.49556
G1 X96.873 Y119.829 E40.50667
G1 X75.171 Y98.127 E41.18479
G1 X75.171 Y98.630 E41.19590
G1 X96.370 Y119.829 E41.85830
G1 X95.867 Y119.829 E41.86941
G1 X75.171 Y99.133 E42.51610
G1 X75.171 Y99.635 E42.52721
G1 X95.365 Y119.829 E43.15818
G1 X94.862 Y119.829 E43.16929
G1 X75.171 Y100.138 E43.78455
G1 X75.171 Y100.641 E43.79566
G1 X94.359 Y119.829 E44.39520
G1 X93.856 Y119.829 E44.40632
G1 X75.171 Y101.144 E44.99015
G1 X75.171 Y101.647 E45.00126
G1 X93.353 Y119.829 E45.56937
G1 X92.850 Y119.829 E45.58048
G1 X75.171 Y102.150 E46.13289
G1 X75.171 Y102.653 E46.14400
G1 X92.347 Y119.829 E46.68069
G1 X91.844 Y119.829 E46.69180
G1 X75.171 Y103.156 E47.21277
M73 Q14 S17
M73 P14 R17
G1 X75.171 Y103.659 E47.22388
G1 X91.341 Y119.829 E47.72914
G1 X90.838 Y119.829 E47.74025
G1 X75.171 Y104.162 E48.22980
G1 X75.171 Y104.665 E48.24091
G1 X90.335 Y119.829 E48.71474
G1 X89.832 Y119.829 E48.72585
G1 X75.171 Y105.168 E49.18397
G1 X75.171 Y105.671 E49.19508
G1 X89.329 Y119.829 E49.63748
G1 X88.827 Y119.829 E49.64860
G1 X75.171 Y106.173 E50.07528
G1 X75.171 Y106.676 E50.08640
G1 X88.324 Y119.829 E50.49737
G1 X87.821 Y119.829 E50.50848
G1 X75.171 Y107.179 E50.90374
G1 X75.171 Y107.682 E50.91485
G1 X87.318 Y119.829 E51.29440
G1 X86.815 Y119.829 E51.30551
G1 X75.171 Y108.185 E51.66935
G1 X75.171 Y108.688 E51.68046
G1 X86.312 Y119.829 E52.02858
G1 X85.809 Y119.829 E52.03969
G1 X75.171 Y109.191 E52.37209
G1 X75.171 Y109.694 E52.38320
G1 X85.306 Y119.829 E52.69989
G1 X84.803 Y119.829 E52.71101
G1 X75.171 Y110.197 E53.01198
G1 X75.171 Y110.700 E53.02309
G1 X84.300 Y119.829 E53.30836
G1 X83.797 Y119.829 E53.31947
G1 X75.171 Y111.203 E53.58902
G1 X75.171 Y111.706 E53.60013
G1 X83.294 Y119.829 E53.85396
G1 X82.791 Y119.829 E53.86507
G1 X75.171 Y112.209 E54.10319
