; generated by SuperSlicer 2.2.53 on 2021-03-14 at 14:00:33 UTC

; 

; external perimeters extrusion width = 0.45mm
; perimeters extrusion width = 0.45mm
; infill extrusion width = 0.45mm
; solid infill extrusion width = 0.45mm
; top infill extrusion width = 0.40mm
; first layer extrusion width = 0.42mm

; object:{"name":"test lidless box 0","id":"test lidless box 0.4mm walls 0.6mm base 30mm sides.stl id:0 copy 0","object_center":[90.000000,105.000000,0.000000],"boundingbox_center":[90.000000,105.000000,15.000000],"boundingbox_size":[30.000000,30.000000,30.000000]}

M73 P0 R13
M73 Q0 S13
M107
M190 S60 ; set bed temperature and wait for it to be reached
M104 S190 ; set temperature
G28 ; home all axes
G1 Z5 F5000 ; lift nozzle
M109 S190 ; set temperature and wait for it to be reached
G21 ; set units to millimeters
G90 ; use absolute coordinates
M82 ; use absolute distances for extrusion
G92 E0
; Filament gcode
G1 Z-0.100000 F18000.000
G1 E-4.00000 F3600.00000
M73 Q0 S13
M73 P0 R13
G1 X71.523 Y85.611 F18000.000
G1 E0.00000 F3600.00000
G1 F0.000
G1 X72.413 Y85.055 E0.04000
G1 X73.390 Y84.691 E0.07978
G1 X74.426 Y84.531 E0.11978
G1 X105.312 Y84.524 E1.29791
G1 X106.256 Y84.612 E1.33407
G1 X107.168 Y84.871 E1.37023
G1 X108.017 Y85.292 E1.40639
G1 X108.775 Y85.861 E1.44255
G1 X109.417 Y86.559 E1.47871
G1 X109.920 Y87.362 E1.51487
G1 X110.268 Y88.244 E1.55103
G1 X110.450 Y89.180 E1.58740
G1 X110.472 Y120.491 E2.78178
G1 X110.368 Y121.355 E2.81495
G1 X110.121 Y122.189 E2.84813
G1 X109.740 Y122.964 E2.88108
G1 X109.232 Y123.670 E2.91426
G1 X108.437 Y124.420 E2.95596
G1 X107.501 Y124.986 E2.99766
G1 X106.468 Y125.343 E3.03937
G1 X105.383 Y125.475 E3.08107
G1 X74.503 Y125.472 E4.25898
G1 X73.640 Y125.367 E4.29216
G1 X72.811 Y125.121 E4.32511
G1 X72.036 Y124.740 E4.35807
G1 X71.330 Y124.232 E4.39125
G1 X70.580 Y123.437 E4.43295
G1 X70.014 Y122.501 E4.47465
G1 X69.657 Y121.468 E4.51636
G1 X69.525 Y120.383 E4.55806
G1 X69.528 Y89.503 E5.73597
G1 X69.633 Y88.640 E5.76915
G1 X69.879 Y87.811 E5.80210
G1 X70.260 Y87.036 E5.83506
G1 X70.768 Y86.330 E5.86823
G1 X71.480 Y85.652 E5.90573
G1 X71.710 Y85.895 F18000.000
G1 F0.000
G1 X72.573 Y85.348 E5.94472
G1 X73.494 Y85.010 E5.98216
G1 X74.460 Y84.864 E6.01940
G1 X105.312 Y84.858 E7.19625
G1 X106.197 Y84.941 E7.23018
G1 X107.053 Y85.185 E7.26412
G1 X107.854 Y85.584 E7.29826
G1 X108.564 Y86.121 E7.33220
G1 X109.163 Y86.778 E7.36614
G1 X109.632 Y87.534 E7.40007
G1 X109.955 Y88.363 E7.43401
G1 X110.120 Y89.238 E7.46795
G1 X110.139 Y120.469 E8.65928
G1 X110.042 Y121.283 E8.69053
G1 X109.809 Y122.068 E8.72179
G1 X109.447 Y122.803 E8.75304
G1 X108.966 Y123.466 E8.78429
G1 X108.222 Y124.163 E8.82318
G1 X107.348 Y124.689 E8.86207
G1 X106.384 Y125.020 E8.90095
G1 X105.372 Y125.141 E8.93984
G1 X74.526 Y125.139 E10.11648
G1 X73.712 Y125.041 E10.14774
G1 X72.932 Y124.809 E10.17878
G1 X72.197 Y124.447 E10.21004
G1 X71.534 Y123.966 E10.24129
G1 X70.837 Y123.222 E10.28018
G1 X70.311 Y122.348 E10.31906
G1 X69.980 Y121.384 E10.35795
G1 X69.859 Y120.372 E10.39684
G1 X69.861 Y89.526 E11.57348
G1 X69.959 Y88.712 E11.60473
G1 X70.191 Y87.932 E11.63578
G1 X70.553 Y87.197 E11.66703
G1 X71.034 Y86.534 E11.69829
G1 X71.666 Y85.936 E11.73145
G1 X71.894 Y86.180 F18000.000
G1 F0.000
G1 X71.962 Y86.116 E11.73502
G1 X72.738 Y85.640 E11.76975
G1 X73.589 Y85.330 E11.80428
G1 X74.490 Y85.197 E11.83901
G1 X105.311 Y85.193 E13.01470
G1 X106.140 Y85.271 E13.04645
G1 X106.940 Y85.500 E13.07819
G1 X107.684 Y85.872 E13.10994
G1 X108.347 Y86.375 E13.14168
G1 X108.906 Y86.992 E13.17343
G1 X109.342 Y87.701 E13.20517
G1 X109.640 Y88.478 E13.23692
G1 X109.790 Y89.296 E13.26866
G1 X109.805 Y120.453 E14.45713
G1 X109.714 Y121.217 E14.48649
G1 X109.495 Y121.955 E14.51584
G1 X109.153 Y122.644 E14.54520
G1 X108.698 Y123.265 E14.57455
G1 X108.008 Y123.906 E14.61047
G1 X107.195 Y124.392 E14.64660
G1 X106.299 Y124.697 E14.68272
G1 X105.358 Y124.807 E14.71884
G1 X74.547 Y124.805 E15.89413
G1 X73.783 Y124.714 E15.92349
G1 X73.045 Y124.495 E15.95284
G1 X72.356 Y124.153 E15.98220
G1 X71.735 Y123.698 E16.01155
G1 X71.094 Y123.008 E16.04748
G1 X70.608 Y122.195 E16.08360
G1 X70.303 Y121.299 E16.11972
G1 X70.193 Y120.358 E16.15584
G1 X70.195 Y89.547 E17.33114
G1 X70.286 Y88.783 E17.36049
G1 X70.505 Y88.045 E17.38985
G1 X70.847 Y87.356 E17.41920
G1 X71.302 Y86.735 E17.44856
G1 X71.851 Y86.221 E17.47724
G1 X72.077 Y86.466 F18000.000
G1 F0.000
G1 X72.181 Y86.370 E17.48261
G1 X72.899 Y85.933 E17.51468
G1 X73.686 Y85.651 E17.54656
G1 X74.518 Y85.531 E17.57863
G1 X105.311 Y85.527 E18.75325
G1 X106.078 Y85.599 E18.78264
G1 X106.824 Y85.813 E18.81222
G1 X107.517 Y86.161 E18.84180
G1 X108.129 Y86.629 E18.87119
G1 X108.645 Y87.201 E18.90058
G1 X109.049 Y87.863 E18.93017
G1 X109.322 Y88.583 E18.95956
G1 X109.459 Y89.347 E18.98914
G1 X109.471 Y120.432 E20.17490
G1 X109.387 Y121.148 E20.20238
G1 X109.181 Y121.838 E20.22985
G1 X108.860 Y122.482 E20.25733
G1 X108.432 Y123.062 E20.28480
G1 X107.791 Y123.651 E20.31802
G1 X107.041 Y124.095 E20.35124
G1 X106.216 Y124.373 E20.38446
G1 X105.346 Y124.473 E20.41787
G1 X74.563 Y124.471 E21.59210
G1 X73.848 Y124.386 E21.61958
G1 X73.162 Y124.181 E21.64686
G1 X72.518 Y123.860 E21.67434
G1 X71.938 Y123.432 E21.70181
G1 X71.349 Y122.791 E21.73503
G1 X70.905 Y122.041 E21.76825
G1 X70.627 Y121.216 E21.80147
G1 X70.527 Y120.346 E21.83488
G1 X70.529 Y89.563 E23.00911
G1 X70.614 Y88.848 E23.03659
G1 X70.819 Y88.162 E23.06387
G1 X71.140 Y87.518 E23.09135
G1 X71.568 Y86.938 E23.11882
G1 X72.033 Y86.506 E23.14304
; printing object test lidless box 0.4mm walls 0.6mm base 30mm sides.stl id:0 copy 0
G92 E0
G1 E-4.00000 F3600.00000
G1 X74.904 Y89.904 F18000.000
G1 E0.00000 F3600.00000
G1 F0.000
G1 X105.096 Y89.904 E1.15169
G1 X105.096 Y120.096 E2.30337
G1 X74.904 Y120.096 E3.45506
G1 X74.904 Y89.964 E4.60446
G92 E0
G1 E-4.00000 F3600.00000
G1 X104.989 Y90.729 F18000.000
G1 E0.00000 F3600.00000
G1 F0.000
G1 X104.431 Y90.171 E0.02980
G1 X103.928 Y90.171 E0.04876
G1 X104.829 Y91.072 E0.09683
G1 X104.829 Y91.575 E0.11579
G1 X103.425 Y90.171 E0.19069
G1 X102.922 Y90.171 E0.20965
G1 X104.829 Y92.078 E0.31135
G1 X104.829 Y92.581 E0.33031
G1 X102.419 Y90.171 E0.45883
G1 X101.916 Y90.171 E0.47779
G1 X104.829 Y93.084 E0.63312
G1 X104.829 Y93.587 E0.65208
G1 X101.413 Y90.171 E0.83423
G1 X100.910 Y90.171 E0.85319
G1 X104.829 Y94.090 E1.06215
G1 X104.829 Y94.593 E1.08111
G1 X100.407 Y90.171 E1.31688
G1 X99.904 Y90.171 E1.33584
G1 X104.829 Y95.096 E1.59843
G1 X104.829 Y95.599 E1.61739
G1 X99.401 Y90.171 E1.90679
G1 X98.898 Y90.171 E1.92575
G1 X104.829 Y96.102 E2.24197
G1 X104.829 Y96.604 E2.26093
G1 X98.396 Y90.171 E2.60396
G1 X97.893 Y90.171 E2.62292
G1 X104.829 Y97.107 E2.99276
G1 X104.829 Y97.610 E3.01172
G1 X97.390 Y90.171 E3.40837
G1 X96.887 Y90.171 E3.42733
G1 X104.829 Y98.113 E3.85080
G1 X104.829 Y98.616 E3.86976
G1 X96.384 Y90.171 E4.32005
G1 X95.881 Y90.171 E4.33901
G1 X104.829 Y99.119 E4.81610
G1 X104.829 Y99.622 E4.83506
G1 X95.378 Y90.171 E5.33898
G1 X94.875 Y90.171 E5.35794
G1 X104.829 Y100.125 E5.88866
G1 X104.829 Y100.628 E5.90762
G1 X94.372 Y90.171 E6.46516
G1 X93.869 Y90.171 E6.48412
G1 X104.829 Y101.131 E7.06847
G1 X104.829 Y101.634 E7.08743
G1 X93.366 Y90.171 E7.69859
G1 X92.863 Y90.171 E7.71756
G1 X104.829 Y102.137 E8.35553
G1 X104.829 Y102.640 E8.37449
G1 X92.360 Y90.171 E9.03929
G1 X91.858 Y90.171 E9.05825
G1 X104.829 Y103.142 E9.74985
G1 X104.829 Y103.645 E9.76881
G1 X91.355 Y90.171 E10.48723
G1 X90.852 Y90.171 E10.50619
G1 X104.829 Y104.148 E11.25143
G1 X104.829 Y104.651 E11.27039
G1 X90.349 Y90.171 E12.04244
G1 X89.846 Y90.171 E12.06140
G1 X104.829 Y105.154 E12.86026
G1 X104.829 Y105.657 E12.87922
G1 X89.343 Y90.171 E13.70489
G1 X88.840 Y90.171 E13.72385
G1 X104.829 Y106.160 E14.57634
G1 X104.829 Y106.663 E14.59530
G1 X88.337 Y90.171 E15.47460
G1 X87.834 Y90.171 E15.49356
G1 X104.829 Y107.166 E16.39968
G1 X104.829 Y107.669 E16.41864
G1 X87.331 Y90.171 E17.35157
G1 X86.828 Y90.171 E17.37053
G1 X104.829 Y108.172 E18.33027
G1 X104.829 Y108.675 E18.34923
G1 X86.325 Y90.171 E19.33579
G1 X85.823 Y90.171 E19.35475
G1 X104.829 Y109.177 E20.36812
G1 X104.829 Y109.680 E20.38708
G1 X85.320 Y90.171 E21.42727
G1 X84.817 Y90.171 E21.44623
G1 X104.829 Y110.183 E22.51322
G1 X104.829 Y110.686 E22.53218
G1 X84.314 Y90.171 E23.62600
G1 X83.811 Y90.171 E23.64496
G1 X104.829 Y111.189 E24.76558
G1 X104.829 Y111.692 E24.78454
G1 X83.308 Y90.171 E25.93198
G1 X82.805 Y90.171 E25.95094
G1 X104.829 Y112.195 E27.12519
G1 X104.829 Y112.698 E27.14415
G1 X82.302 Y90.171 E28.34522
G1 X81.799 Y90.171 E28.36418
G1 X104.829 Y113.201 E29.59206
G1 X104.829 Y113.704 E29.61102
G1 X81.296 Y90.171 E30.86572
G1 X80.793 Y90.171 E30.88468
G1 X104.829 Y114.207 E32.16618
G1 X104.829 Y114.710 E32.18514
G1 X80.290 Y90.171 E33.49346
G1 X79.787 Y90.171 E33.51242
G1 X104.829 Y115.213 E34.84756
G1 X104.829 Y115.715 E34.86652
G1 X79.285 Y90.171 E36.22847
G1 X78.782 Y90.171 E36.24743
G1 X104.829 Y116.218 E37.63619
G1 X104.829 Y116.721 E37.65515
G1 X78.279 Y90.171 E39.07073
G1 X77.776 Y90.171 E39.08969
G1 X104.829 Y117.224 E40.53208
G1 X104.829 Y117.727 E40.55104
G1 X77.273 Y90.171 E42.02024
G1 X76.770 Y90.171 E42.03920
G1 X104.829 Y118.230 E43.53522
G1 X104.829 Y118.733 E43.55418
G1 X76.267 Y90.171 E45.07701
G1 X75.764 Y90.171 E45.09597
G1 X104.829 Y119.236 E46.64561
G1 X104.829 Y119.739 E46.66457
G1 X75.261 Y90.171 E48.24103
G1 X75.171 Y90.171 E48.24445
G1 X75.171 Y90.583 E48.25999
G1 X104.417 Y119.829 E49.81930
G1 X103.914 Y119.829 E49.83826
G1 X75.171 Y91.086 E51.37075
G1 X75.171 Y91.589 E51.38971
G1 X103.411 Y119.829 E52.89539
G1 X102.908 Y119.829 E52.91435
G1 X75.171 Y92.092 E54.39321
G1 X75.171 Y92.595 E54.41217
G1 X102.405 Y119.829 E55.86422
G1 X101.902 Y119.829 E55.88318
G1 X75.171 Y93.098 E57.30842
G1 X75.171 Y93.600 E57.32738
G1 X101.400 Y119.829 E58.72580
G1 X100.897 Y119.829 E58.74476
G1 X75.171 Y94.103 E60.11637
G1 X75.171 Y94.606 E60.13533
G1 X100.394 Y119.829 E61.48013
G1 X99.891 Y119.829 E61.49909
G1 X75.171 Y95.109 E62.81707
G1 X75.171 Y95.612 E62.83603
G1 X99.388 Y119.829 E64.12719
G1 X98.885 Y119.829 E64.14616
G1 X75.171 Y96.115 E65.41051
G1 X75.171 Y96.618 E65.42947
G1 X98.382 Y119.829 E66.66701
G1 X97.879 Y119.829 E66.68597
G1 X75.171 Y97.121 E67.89670
G1 X75.171 Y97.624 E67.91566
G1 X97.376 Y119.829 E69.09957
G1 X96.873 Y119.829 E69.11853
G1 X75.171 Y98.127 E70.27563
G1 X75.171 Y98.630 E70.29459
G1 X96.370 Y119.829 E71.42488
G1 X95.867 Y119.829 E71.44384
G1 X75.171 Y99.133 E72.54731
G1 X75.171 Y99.635 E72.56627
G1 X95.365 Y119.829 E73.64293
G1 X94.862 Y119.829 E73.66189
G1 X75.171 Y100.138 E74.71173
G1 X75.171 Y100.641 E74.73069
G1 X94.359 Y119.829 E75.75372
G1 X93.856 Y119.829 E75.77268
G1 X75.171 Y101.144 E76.76890
G1 X75.171 Y101.647 E76.78786
G1 X93.353 Y119.829 E77.75726
G1 X92.850 Y119.829 E77.77622
G1 X75.171 Y102.150 E78.71881
G1 X75.171 Y102.653 E78.73777
G1 X92.347 Y119.829 E79.65355
G1 X91.844 Y119.829 E79.67251
G1 X75.171 Y103.156 E80.56147
G1 X75.171 Y103.659 E80.58043
G1 X91.341 Y119.829 E81.44258
G1 X90.838 Y119.829 E81.46154
G1 X75.171 Y104.162 E82.29688
G1 X75.171 Y104.665 E82.31584
G1 X90.335 Y119.829 E83.12436
G1 X89.832 Y119.829 E83.14332
G1 X75.171 Y105.168 E83.92503
G1 X75.171 Y105.671 E83.94399
G1 X89.329 Y119.829 E84.69888
G1 X88.827 Y119.829 E84.71784
G1 X75.171 Y106.173 E85.44592
G1 X75.171 Y106.676 E85.46488
G1 X88.324 Y119.829 E86.16615
G1 X87.821 Y119.829 E86.18511
G1 X75.171 Y107.179 E86.85956
G1 X75.171 Y107.682 E86.87852
G1 X87.318 Y119.829 E87.52616
G1 X86.815 Y119.829 E87.54512
G1 X75.171 Y108.185 E88.16595
G1 X75.171 Y108.688 E88.18491
G1 X86.312 Y119.829 E88.77892
G1 X85.809 Y119.829 E88.79788
G1 X75.171 Y109.191 E89.36508
G1 X75.171 Y109.694 E89.38404
G1 X85.306 Y119.829 E89.92442
G1 X84.803 Y119.829 E89.94338
G1 X75.171 Y110.197 E90.45695
G1 X75.171 Y110.700 E90.47591
G1 X84.300 Y119.829 E90.96267
G1 X83.797 Y119.829 E90.98163
G1 X75.171 Y111.203 E91.44157
G1 X75.171 Y111.706 E91.46053
G1 X83.294 Y119.829 E91.89366
G1 X82.791 Y119.829 E91.91262
G1 X75.171 Y112.209 E92.31894
G1 X75.171 Y112.711 E92.33790
G1 X82.289 Y119.829 E92.71740
G1 X81.786 Y119.829 E92.73636
G1 X75.171 Y113.214 E93.08905
G1 X75.171 Y113.717 E93.10801
G1 X81.283 Y119.829 E93.43389
G1 X80.780 Y119.829 E93.45285
G1 X75.171 Y114.220 E93.75191
G1 X75.171 Y114.723 E93.77087
G1 X80.277 Y119.829 E94.04312
G1 X79.774 Y119.829 E94.06208
G1 X75.171 Y115.226 E94.30751
G1 X75.171 Y115.729 E94.32647
G1 X79.271 Y119.829 E94.54509
G1 X78.768 Y119.829 E94.56405
G1 X75.171 Y116.232 E94.75586
G1 X75.171 Y116.735 E94.77482
G1 X78.265 Y119.829 E94.93981
G1 X77.762 Y119.829 E94.95877
G1 X75.171 Y117.238 E95.09695
G1 X75.171 Y117.741 E95.11591
G1 X77.259 Y119.829 E95.22728
G1 X76.756 Y119.829 E95.24624
G1 X75.171 Y118.244 E95.33079
G1 X75.171 Y118.746 E95.34975
G1 X76.254 Y119.829 E95.40749
G1 X75.751 Y119.829 E95.42645
G1 X75.171 Y119.249 E95.45737
G1 X75.171 Y119.752 E95.47633
G1 X75.408 Y119.989 E95.48897
; stop printing object test lidless box 0.4mm walls 0.6mm base 30mm sides.stl id:0 copy 0
G1 Z0.100000 F18000.000
; printing object test lidless box 0.4mm walls 0.6mm base 30mm sides.stl id:0 copy 0
G1 X75.408 Y120.081
G1 F10385.496
G1 X74.919 Y120.081 E95.50320
G1 X74.919 Y89.919 E96.38123
G1 X105.081 Y89.919 E97.25925
G1 X105.081 Y120.081 E98.13727
G1 X75.468 Y120.081 E98.99932
G92 E0
G1 E-4.00000 F3600.00000
G1 X104.136 Y119.959 F18000.000
G1 E0.00000 F3600.00000
G1 F10373.998
G1 X104.776 Y119.319 E0.02637
G1 X104.776 Y118.744 E0.04314
G1 X103.744 Y119.776 E0.08568
G1 X103.168 Y119.776 E0.10246
G1 X104.776 Y118.168 E0.16873
G1 X104.776 Y117.592 E0.18551
G1 X102.592 Y119.776 E0.27550
G1 X102.017 Y119.776 E0.29228
G1 X104.776 Y117.017 E0.40600
G1 X104.776 Y116.441 E0.42278
G1 X101.441 Y119.776 E0.56022
G1 X100.865 Y119.776 E0.57700
G1 X104.776 Y115.865 E0.73817
G1 X104.776 Y115.289 E0.75495
G1 X100.289 Y119.776 E0.93985
G1 X99.714 Y119.776 E0.95663
G1 X104.776 Y114.714 E1.16526
G1 X104.776 Y114.138 E1.18203
G1 X99.138 Y119.776 E1.41439
G1 X98.562 Y119.776 E1.43116
G1 X104.776 Y113.562 E1.68724
G1 X104.776 Y112.987 E1.70402
G1 X97.987 Y119.776 E1.98382
G1 X97.411 Y119.776 E2.00060
G1 X104.776 Y112.411 E2.30413
G1 X104.776 Y111.835 E2.32091
G1 X96.835 Y119.776 E2.64817
G1 X96.260 Y119.776 E2.66495
G1 X104.776 Y111.260 E3.01593
G1 X104.776 Y110.684 E3.03271
G1 X95.684 Y119.776 E3.40742
G1 X95.108 Y119.776 E3.42420
G1 X104.776 Y110.108 E3.82263
G1 X104.776 Y109.532 E3.83941
G1 X94.532 Y119.776 E4.26158
G1 X93.957 Y119.776 E4.27835
G1 X104.776 Y108.957 E4.72424
G1 X104.776 Y108.381 E4.74102
G1 X93.381 Y119.776 E5.21064
G1 X92.805 Y119.776 E5.22741
G1 X104.776 Y107.805 E5.72076
G1 X104.776 Y107.230 E5.73754
G1 X92.230 Y119.776 E6.25460
G1 X91.654 Y119.776 E6.27138
G1 X104.776 Y106.654 E6.81218
G1 X104.776 Y106.078 E6.82895
G1 X91.078 Y119.776 E7.39348
G1 X90.503 Y119.776 E7.41025
G1 X104.776 Y105.503 E7.99850
G1 X104.776 Y104.927 E8.01528
G1 X89.927 Y119.776 E8.62726
G1 X89.351 Y119.776 E8.64403
G1 X104.776 Y104.351 E9.27973
G1 X104.776 Y103.775 E9.29651
G1 X88.775 Y119.776 E9.95594
G1 X88.200 Y119.776 E9.97272
G1 X104.776 Y103.200 E10.65587
G1 X104.776 Y102.624 E10.67265
G1 X87.624 Y119.776 E11.37953
G1 X87.048 Y119.776 E11.39631
G1 X104.776 Y102.048 E12.12691
G1 X104.776 Y101.473 E12.14369
G1 X86.473 Y119.776 E12.89802
G1 X85.897 Y119.776 E12.91480
G1 X104.776 Y100.897 E13.69286
G1 X104.776 Y100.321 E13.70964
G1 X85.321 Y119.776 E14.51142
G1 X84.746 Y119.776 E14.52820
G1 X104.776 Y99.746 E15.35371
G1 X104.776 Y99.170 E15.37049
G1 X84.170 Y119.776 E16.21973
G1 X83.594 Y119.776 E16.23651
G1 X104.776 Y98.594 E17.10947
G1 X104.776 Y98.019 E17.12625
G1 X83.019 Y119.776 E18.02294
G1 X82.443 Y119.776 E18.03972
G1 X104.776 Y97.443 E18.96014
G1 X104.776 Y96.867 E18.97691
G1 X81.867 Y119.776 E19.92106
G1 X81.291 Y119.776 E19.93784
G1 X104.776 Y96.291 E20.90571
G1 X104.776 Y95.716 E20.92248
G1 X80.716 Y119.776 E21.91408
G1 X80.140 Y119.776 E21.93086
G1 X104.776 Y95.140 E22.94618
G1 X104.776 Y94.564 E22.96296
G1 X79.564 Y119.776 E24.00201
