; generated by SuperSlicer 2.2.53 on 2021-03-10 at 23:20:24 UTC

; 

; external perimeters extrusion width = 0.45mm
; perimeters extrusion width = 0.45mm
; infill extrusion width = 0.45mm
; solid infill extrusion width = 0.45mm
; top infill extrusion width = 0.40mm
; first layer extrusion width = 0.42mm

; object:{"name":"FilamentGuide3","id":"FilamentGuide3.stl id:0 copy 0","object_center":[90.000000,105.000000,0.000000],"boundingbox_center":[90.000000,105.000000,18.204632],"boundingbox_size":[13.000000,16.000000,36.409264]}

M73 P0 R45
M73 Q0 S46
M107
M190 S60 ; set bed temperature and wait for it to be reached
M104 S190 ; set temperature
G28 ; home all axes
G1 Z5 F5000 ; lift nozzle
M109 S190 ; set temperature and wait for it to be reached
G21 ; set units to millimeters
G90 ; use absolute coordinates
M82 ; use absolute distances for extrusion
G92 E0
; Filament gcode
G1 Z0.200000 F7800.000
G1 E-4.00000 F3600.00000
M73 Q0 S46
M73 P0 R45
G1 X81.202 Y94.522 F7800.000
G1 E0.00000 F3600.00000
G1 F1800.000
G1 X81.765 Y94.102 E0.02679
G1 X82.402 Y93.818 E0.05341
G1 X83.091 Y93.679 E0.08020
G1 X96.637 Y93.667 E0.59692
G1 X97.210 Y93.720 E0.61887
G1 X97.760 Y93.874 E0.64065
G1 X98.273 Y94.125 E0.66243
G1 X98.733 Y94.463 E0.68422
G1 X99.125 Y94.878 E0.70600
G1 X99.438 Y95.361 E0.72795
G1 X99.657 Y95.888 E0.74973
G1 X99.779 Y96.451 E0.77167
G1 X99.801 Y113.256 E1.41270
G1 X99.648 Y114.141 E1.44697
G1 X99.252 Y114.948 E1.48125
G1 X98.772 Y115.502 E1.50921
G1 X98.178 Y115.931 E1.53716
G1 X97.505 Y116.210 E1.56495
G1 X96.782 Y116.329 E1.59291
G1 X83.253 Y116.331 E2.10897
G1 X82.377 Y116.174 E2.14292
G1 X81.583 Y115.783 E2.17670
G1 X81.026 Y115.299 E2.20482
G1 X80.596 Y114.701 E2.23294
G1 X80.315 Y114.019 E2.26106
G1 X80.200 Y113.291 E2.28919
G1 X80.199 Y96.740 E2.92051
G1 X80.352 Y95.859 E2.95462
G1 X80.748 Y95.052 E2.98890
G1 X81.163 Y94.568 E3.01324
G1 X81.415 Y94.787 F7800.000
G1 F1800.000
G1 X81.954 Y94.379 E3.03904
G1 X82.529 Y94.128 E3.06295
G1 X83.145 Y94.010 E3.08686
G1 X96.637 Y94.001 E3.60153
G1 X97.649 Y94.190 E3.64082
G1 X98.525 Y94.725 E3.67996
G1 X99.152 Y95.537 E3.71910
G1 X99.451 Y96.523 E3.75839
G1 X99.467 Y113.238 E4.39600
G1 X99.327 Y114.047 E4.42731
G1 X98.963 Y114.778 E4.45846
G1 X98.533 Y115.268 E4.48332
G1 X97.999 Y115.648 E4.50833
G1 X97.395 Y115.894 E4.53319
G1 X96.752 Y115.996 E4.55805
G1 X83.272 Y115.997 E5.07225
G1 X82.476 Y115.855 E5.10309
G1 X81.752 Y115.494 E5.13392
G1 X81.257 Y115.057 E5.15910
G1 X80.879 Y114.522 E5.18411
G1 X80.633 Y113.914 E5.20913
G1 X80.534 Y113.262 E5.23430
G1 X80.533 Y96.758 E5.86384
G1 X80.673 Y95.953 E5.89500
G1 X81.037 Y95.222 E5.92615
G1 X81.376 Y94.833 E5.94584
G1 X81.626 Y95.054 F7800.000
G1 F1800.000
G1 X81.690 Y94.981 E5.94954
G1 X82.139 Y94.658 E5.97066
G1 X82.649 Y94.441 E5.99178
G1 X83.193 Y94.342 E6.01290
G1 X96.637 Y94.336 E6.52569
G1 X97.534 Y94.504 E6.56052
G1 X98.311 Y94.983 E6.59535
G1 X98.865 Y95.709 E6.63018
G1 X99.121 Y96.585 E6.66500
G1 X99.133 Y113.226 E7.29977
G1 X99.008 Y113.947 E7.32769
G1 X98.677 Y114.604 E7.35576
G1 X98.293 Y115.034 E7.37777
G1 X97.823 Y115.363 E7.39963
G1 X97.287 Y115.577 E7.42164
G1 X96.721 Y115.663 E7.44350
G1 X83.289 Y115.663 E7.95585
G1 X82.573 Y115.535 E7.98362
G1 X81.926 Y115.208 E8.01124
G1 X81.494 Y114.820 E8.03340
G1 X81.164 Y114.347 E8.05541
G1 X80.951 Y113.811 E8.07742
G1 X80.867 Y113.240 E8.09943
G1 X80.867 Y96.774 E8.72750
G1 X80.992 Y96.053 E8.75542
G1 X81.323 Y95.396 E8.78349
G1 X81.586 Y95.099 E8.79862
G1 X81.833 Y95.322 F7800.000
G1 F1800.000
G1 X81.928 Y95.217 E8.80400
G1 X82.319 Y94.940 E8.82227
G1 X82.764 Y94.755 E8.84069
G1 X83.237 Y94.674 E8.85896
G1 X96.636 Y94.670 E9.37010
G1 X97.418 Y94.817 E9.40044
G1 X98.097 Y95.239 E9.43093
G1 X98.575 Y95.875 E9.46127
G1 X98.791 Y96.644 E9.49176
G1 X98.799 Y113.211 E10.12368
G1 X98.688 Y113.850 E10.14842
G1 X98.393 Y114.427 E10.17316
G1 X98.061 Y114.793 E10.19198
G1 X97.653 Y115.075 E10.21095
G1 X97.190 Y115.257 E10.22991
G1 X96.698 Y115.329 E10.24888
G1 X83.306 Y115.329 E10.75973
G1 X82.674 Y115.216 E10.78420
G1 X82.104 Y114.924 E10.80866
G1 X81.733 Y114.587 E10.82777
G1 X81.452 Y114.177 E10.84673
G1 X81.270 Y113.710 E10.86583
G1 X81.201 Y113.218 E10.88480
G1 X81.201 Y96.786 E11.51159
G1 X81.312 Y96.150 E11.53620
G1 X81.607 Y95.573 E11.56094
G1 X81.793 Y95.366 E11.57155
G1 X81.543 Y95.116 F7800.000
G1 F1800.000
G1 X81.973 Y94.687 E11.60060
G1 X82.833 Y94.331 E11.64507
G1 X87.983 Y94.331 E11.89122
G1 X88.843 Y94.687 E11.93570
G1 X89.599 Y95.443 E11.98678
G1 X89.955 Y96.302 E12.03125
G1 X89.955 Y113.698 E12.86260
G1 X89.599 Y114.557 E12.90708
G1 X88.843 Y115.313 E12.95816
G1 X87.983 Y115.669 E13.00263
G1 X82.833 Y115.669 E13.24879
G1 X81.973 Y115.313 E13.29326
G1 X81.217 Y114.557 E13.34435
G1 X80.861 Y113.698 E13.38882
G1 X80.861 Y96.302 E14.22017
G1 X81.217 Y95.443 E14.26464
G1 X81.501 Y95.159 E14.28381
G1 X81.737 Y95.395 F7800.000
G1 F1800.000
G1 X82.162 Y94.970 E14.31255
G1 X82.899 Y94.665 E14.35067
G1 X87.917 Y94.665 E14.59047
G1 X88.654 Y94.970 E14.62859
G1 X89.316 Y95.632 E14.67332
G1 X89.621 Y96.369 E14.71144
G1 X89.621 Y113.631 E15.53644
G1 X89.316 Y114.368 E15.57456
G1 X88.654 Y115.030 E15.61929
G1 X87.917 Y115.335 E15.65741
G1 X82.899 Y115.335 E15.89721
G1 X82.162 Y115.030 E15.93533
G1 X81.501 Y114.368 E15.98006
G1 X81.195 Y113.631 E16.01818
G1 X81.195 Y96.369 E16.84318
G1 X81.501 Y95.632 E16.88130
G1 X81.695 Y95.438 E16.89442
G1 X81.931 Y95.674 F7800.000
G1 F1800.000
G1 X82.352 Y95.253 E16.92286
G1 X82.966 Y94.999 E16.95462
G1 X87.851 Y94.999 E17.18807
G1 X88.465 Y95.253 E17.21983
G1 X89.033 Y95.821 E17.25821
G1 X89.287 Y96.435 E17.28998
G1 X89.287 Y113.565 E18.10862
G1 X89.033 Y114.179 E18.14039
G1 X88.465 Y114.747 E18.17877
G1 X87.851 Y115.001 E18.21054
G1 X82.966 Y115.001 E18.44398
G1 X82.352 Y114.747 E18.47575
G1 X81.784 Y114.179 E18.51413
G1 X81.529 Y113.565 E18.54590
G1 X81.529 Y96.435 E19.36454
G1 X81.784 Y95.821 E19.39630
G1 X81.889 Y95.716 E19.40339
G1 X82.125 Y95.953 F7800.000
G1 F1800.000
G1 X82.541 Y95.536 E19.43151
G1 X83.032 Y95.333 E19.45692
G1 X87.784 Y95.333 E19.68401
G1 X88.275 Y95.537 E19.70943
G1 X88.749 Y96.010 E19.74145
G1 X88.953 Y96.502 E19.76687
G1 X88.953 Y113.498 E20.57916
G1 X88.749 Y113.990 E20.60457
G1 X88.275 Y114.463 E20.63660
G1 X87.784 Y114.667 E20.66201
G1 X83.032 Y114.667 E20.88910
G1 X82.541 Y114.464 E20.91452
G1 X82.067 Y113.990 E20.94654
G1 X81.864 Y113.498 E20.97196
G1 X81.864 Y96.502 E21.78425
G1 X82.082 Y95.995 E21.81062
G1 X82.350 Y96.200 F7800.000
G1 F1800.000
G1 X82.730 Y95.820 E21.83629
G1 X83.099 Y95.667 E21.85535
G1 X87.718 Y95.667 E22.07609
G1 X88.086 Y95.820 E22.09515
G1 X88.466 Y96.200 E22.12083
G1 X88.619 Y96.568 E22.13989
G1 X88.619 Y113.432 E22.94582
G1 X88.466 Y113.800 E22.96488
G1 X88.086 Y114.180 E22.99056
G1 X87.718 Y114.333 E23.00962
G1 X83.099 Y114.333 E23.23036
G1 X82.730 Y114.180 E23.24942
G1 X82.350 Y113.800 E23.27509
G1 X82.198 Y113.432 E23.29415
G1 X82.198 Y96.568 E24.10009
G1 X82.327 Y96.255 E24.11628
G1 X82.634 Y96.389 F7800.000
G1 F1800.000
G1 X82.920 Y96.103 E24.13560
G1 X83.165 Y96.001 E24.14831
G1 X87.651 Y96.001 E24.36270
G1 X87.897 Y96.103 E24.37540
G1 X88.183 Y96.389 E24.39472
G1 X88.284 Y96.635 E24.40743
G1 X88.284 Y113.365 E25.20701
G1 X88.183 Y113.611 E25.21972
G1 X87.897 Y113.897 E25.23904
G1 X87.651 Y113.999 E25.25175
G1 X83.165 Y113.999 E25.46613
G1 X82.920 Y113.897 E25.47884
G1 X82.634 Y113.611 E25.49816
G1 X82.532 Y113.365 E25.51087
G1 X82.532 Y96.635 E26.31045
G1 X82.611 Y96.444 E26.32029
G1 X82.917 Y96.578 F7800.000
G1 F1800.000
G1 X83.109 Y96.386 E26.33326
G1 X83.232 Y96.335 E26.33961
G1 X87.585 Y96.335 E26.54765
G1 X87.707 Y96.386 E26.55400
G1 X87.899 Y96.578 E26.56697
G1 X87.950 Y96.701 E26.57332
G1 X87.950 Y113.299 E27.36655
G1 X87.899 Y113.422 E27.37290
G1 X87.707 Y113.614 E27.38587
G1 X87.585 Y113.665 E27.39222
G1 X83.232 Y113.665 E27.60026
G1 X83.109 Y113.614 E27.60661
G1 X82.917 Y113.422 E27.61958
G1 X82.866 Y113.299 E27.62593
G1 X82.866 Y96.701 E28.41916
G1 X82.894 Y96.634 E28.42265
G1 X83.200 Y96.768 F7800.000
G1 F1800.000
G1 X83.298 Y96.670 E28.42926
G1 X87.518 Y96.670 E28.63095
G1 X87.616 Y96.768 E28.63756
G1 X87.616 Y113.232 E29.42444
G1 X87.518 Y113.330 E29.43105
G1 X83.298 Y113.330 E29.63273
G1 X83.200 Y113.232 E29.63935
G1 X83.200 Y96.828 E30.42336
G92 E0
G1 E-4.00000 F3600.00000
G1 X90.045 Y96.828 F7800.000
G1 E0.00000 F3600.00000
G1 F1800.000
G1 X90.045 Y96.302 E0.02510
G1 X90.401 Y95.443 E0.06958
G1 X91.157 Y94.687 E0.12066
G1 X92.017 Y94.331 E0.16514
G1 X97.167 Y94.331 E0.41129
G1 X98.027 Y94.687 E0.45576
G1 X98.783 Y95.443 E0.50685
G1 X99.139 Y96.302 E0.55132
G1 X99.139 Y113.698 E1.38267
G1 X98.783 Y114.557 E1.42714
G1 X98.027 Y115.313 E1.47823
G1 X97.167 Y115.669 E1.52270
G1 X92.017 Y115.669 E1.76885
G1 X91.157 Y115.313 E1.81333
G1 X90.401 Y114.557 E1.86441
G1 X90.045 Y113.698 E1.90889
G1 X90.045 Y96.888 E2.71226
G1 X90.379 Y96.888 F7800.000
G1 F1800.000
G1 X90.379 Y96.369 E2.73706
G1 X90.684 Y95.632 E2.77518
G1 X91.346 Y94.970 E2.81991
G1 X92.083 Y94.665 E2.85803
G1 X97.101 Y94.665 E3.09783
G1 X97.838 Y94.970 E3.13595
G1 X98.499 Y95.632 E3.18068
G1 X98.805 Y96.369 E3.21880
G1 X98.805 Y113.631 E4.04380
G1 X98.499 Y114.368 E4.08192
G1 X97.838 Y115.030 E4.12665
G1 X97.101 Y115.335 E4.16477
G1 X92.083 Y115.335 E4.40457
G1 X91.346 Y115.030 E4.44269
G1 X90.684 Y114.368 E4.48742
G1 X90.379 Y113.631 E4.52554
G1 X90.379 Y96.948 E5.32288
G1 X90.713 Y96.948 F7800.000
G1 F1800.000
G1 X90.713 Y96.435 E5.34736
G1 X90.967 Y95.821 E5.37913
G1 X91.535 Y95.253 E5.41751
G1 X92.149 Y94.999 E5.44927
G1 X97.034 Y94.999 E5.68272
G1 X97.648 Y95.253 E5.71449
G1 X98.216 Y95.821 E5.75287
G1 X98.471 Y96.435 E5.78463
G1 X98.471 Y113.565 E6.60328
G1 X98.216 Y114.179 E6.63504
G1 X97.648 Y114.747 E6.67342
G1 X97.034 Y115.001 E6.70519
G1 X92.149 Y115.001 E6.93864
G1 X91.535 Y114.747 E6.97040
G1 X90.968 Y114.179 E7.00878
G1 X90.713 Y113.565 E7.04055
G1 X90.713 Y97.008 E7.83184
G1 X91.047 Y97.008 F7800.000
G1 F1800.000
G1 X91.047 Y96.502 E7.85601
G1 X91.251 Y96.010 E7.88143
G1 X91.725 Y95.536 E7.91345
G1 X92.216 Y95.333 E7.93887
G1 X96.968 Y95.333 E8.16596
G1 X97.459 Y95.537 E8.19137
G1 X97.933 Y96.010 E8.22340
G1 X98.136 Y96.502 E8.24881
G1 X98.136 Y113.498 E9.06110
G1 X97.933 Y113.990 E9.08652
G1 X97.459 Y114.463 E9.11854
G1 X96.968 Y114.667 E9.14396
G1 X92.216 Y114.667 E9.37105
G1 X91.725 Y114.464 E9.39646
G1 X91.251 Y113.990 E9.42849
G1 X91.047 Y113.498 E9.45390
G1 X91.047 Y97.068 E10.23915
G1 X91.381 Y97.068 F7800.000
G1 F1800.000
G1 X91.381 Y96.568 E10.26302
G1 X91.534 Y96.200 E10.28208
G1 X91.914 Y95.820 E10.30775
G1 X92.282 Y95.667 E10.32681
G1 X96.901 Y95.667 E10.54755
G1 X97.270 Y95.820 E10.56661
G1 X97.650 Y96.200 E10.59228
G1 X97.802 Y96.568 E10.61134
G1 X97.802 Y113.432 E11.41728
G1 X97.650 Y113.800 E11.43634
G1 X97.270 Y114.180 E11.46201
G1 X96.901 Y114.333 E11.48107
G1 X92.282 Y114.333 E11.70181
G1 X91.914 Y114.180 E11.72087
G1 X91.534 Y113.800 E11.74655
G1 X91.381 Y113.432 E11.76561
G1 X91.381 Y97.128 E12.54481
G1 X91.716 Y97.128 F7800.000
G1 F1800.000
G1 X91.716 Y96.635 E12.56837
G1 X91.817 Y96.389 E12.58107
G1 X92.103 Y96.103 E12.60040
G1 X92.349 Y96.001 E12.61310
G1 X96.835 Y96.001 E12.82749
G1 X97.080 Y96.103 E12.84020
G1 X97.366 Y96.389 E12.85952
G1 X97.468 Y96.635 E12.87222
G1 X97.468 Y113.365 E13.67181
G1 X97.366 Y113.611 E13.68451
G1 X97.080 Y113.897 E13.70383
G1 X96.835 Y113.999 E13.71654
G1 X92.349 Y113.999 E13.93093
G1 X92.103 Y113.897 E13.94363
G1 X91.817 Y113.611 E13.96296
G1 X91.716 Y113.365 E13.97566
G1 X91.716 Y97.188 E14.74882
G1 X92.050 Y97.188 F7800.000
G1 F1800.000
G1 X92.050 Y96.701 E14.77207
G1 X92.101 Y96.578 E14.77842
G1 X92.293 Y96.386 E14.79139
G1 X92.415 Y96.335 E14.79774
G1 X96.768 Y96.335 E15.00578
G1 X96.891 Y96.386 E15.01213
G1 X97.083 Y96.578 E15.02510
G1 X97.134 Y96.701 E15.03145
G1 X97.134 Y113.299 E15.82468
G1 X97.083 Y113.422 E15.83103
G1 X96.891 Y113.614 E15.84400
G1 X96.768 Y113.665 E15.85036
G1 X92.415 Y113.665 E16.05839
G1 X92.293 Y113.614 E16.06474
G1 X92.101 Y113.422 E16.07771
G1 X92.050 Y113.299 E16.08406
G1 X92.050 Y97.248 E16.85118
G1 X92.384 Y97.248 F7800.000
G1 F1800.000
G1 X92.384 Y96.768 E16.87412
G1 X92.482 Y96.670 E16.88073
G1 X96.702 Y96.670 E17.08241
G1 X96.800 Y96.768 E17.08903
G1 X96.800 Y113.232 E17.87591
G1 X96.702 Y113.330 E17.88252
G1 X92.482 Y113.330 E18.08420
G1 X92.384 Y113.232 E18.09082
G1 X92.384 Y97.308 E18.85189
; printing object FilamentGuide3.stl id:0 copy 0
G92 E0
G1 E-4.00000 F3600.00000
G1 X87.239 Y112.953 F7800.000
G1 E0.00000 F3600.00000
G1 F900.000
G1 X87.239 Y97.047 E0.60676
G1 X83.577 Y97.047 E0.74643
G1 X83.577 Y112.953 E1.35319
G1 X87.179 Y112.953 E1.49057
G1 X87.039 Y112.607 F7800.000
G1 X86.883 Y112.598
G1 F900.000
G1 X86.883 Y97.402 E2.07020
G1 X83.933 Y97.402 E2.18274
G1 X83.933 Y112.598 E2.76237
G1 X86.823 Y112.598 E2.87262
G1 X86.528 Y112.242 F7800.000
G1 F900.000
G1 X86.528 Y97.758 E3.42512
G1 X84.289 Y97.758 E3.51053
G1 X84.289 Y112.242 E4.06303
G1 X86.468 Y112.242 E4.14615
G92 E0
G1 E-4.00000 F3600.00000
G1 X86.421 Y98.584 F7800.000
G1 E0.00000 F3600.00000
G1 F1200.000
G1 X85.862 Y98.025 E0.02735
G1 X85.359 Y98.025 E0.04475
G1 X86.261 Y98.926 E0.08888
G1 X86.261 Y99.429 E0.10628
G1 X84.856 Y98.025 E0.17502
G1 X84.555 Y98.025 E0.18544
G1 X84.555 Y98.226 E0.19243
G1 X86.261 Y99.932 E0.27590
G1 X86.261 Y100.435 E0.29330
G1 X84.555 Y98.729 E0.37678
G1 X84.555 Y99.232 E0.39418
G1 X86.261 Y100.938 E0.47765
G1 X86.261 Y101.441 E0.49506
G1 X84.555 Y99.735 E0.57853
G1 X84.555 Y100.238 E0.59593
G1 X86.261 Y101.944 E0.67941
G1 X86.261 Y102.447 E0.69681
G1 X84.555 Y100.741 E0.78029
G1 X84.555 Y101.244 E0.79769
G1 X86.261 Y102.950 E0.88116
G1 X86.261 Y103.453 E0.89857
G1 X84.555 Y101.747 E0.98204
G1 X84.555 Y102.250 E0.99944
G1 X86.261 Y103.956 E1.08292
G1 X86.261 Y104.459 E1.10032
G1 X84.555 Y102.753 E1.18379
G1 X84.555 Y103.256 E1.20120
G1 X86.261 Y104.961 E1.28467
G1 X86.261 Y105.464 E1.30207
G1 X84.555 Y103.759 E1.38555
G1 X84.555 Y104.262 E1.40295
G1 X86.261 Y105.967 E1.48643
G1 X86.261 Y106.470 E1.50383
G1 X84.555 Y104.764 E1.58730
G1 X84.555 Y105.267 E1.60471
G1 X86.261 Y106.973 E1.68818
G1 X86.261 Y107.476 E1.70558
G1 X84.555 Y105.770 E1.78906
G1 X84.555 Y106.273 E1.80646
G1 X86.261 Y107.979 E1.88993
G1 X86.261 Y108.482 E1.90734
G1 X84.555 Y106.776 E1.99081
G1 X84.555 Y107.279 E2.00821
G1 X86.261 Y108.985 E2.09169
G1 X86.261 Y109.488 E2.10909
G1 X84.555 Y107.782 E2.19257
G1 X84.555 Y108.285 E2.20997
G1 X86.261 Y109.991 E2.29344
G1 X86.261 Y110.494 E2.31084
G1 X84.555 Y108.788 E2.39432
G1 X84.555 Y109.291 E2.41172
G1 X86.261 Y110.997 E2.49520
G1 X86.261 Y111.499 E2.51260
G1 X84.555 Y109.794 E2.59607
G1 X84.555 Y110.297 E2.61348
G1 X86.234 Y111.975 E2.69563
G1 X85.731 Y111.975 E2.71303
G1 X84.555 Y110.800 E2.77057
G1 X84.555 Y111.302 E2.78797
G1 X85.228 Y111.975 E2.82090
G1 X84.725 Y111.975 E2.83830
G1 X84.395 Y111.645 E2.85445
G92 E0
G1 E-4.00000 F3600.00000
G1 X96.423 Y112.953 F7800.000
G1 E0.00000 F3600.00000
G1 F900.000
G1 X96.423 Y97.047 E0.60676
G1 X92.761 Y97.047 E0.74643
G1 X92.761 Y112.953 E1.35319
G1 X96.363 Y112.953 E1.49057
G1 X96.223 Y112.607 F7800.000
G1 X96.067 Y112.598
G1 F900.000
G1 X96.067 Y97.402 E2.07020
G1 X93.117 Y97.402 E2.18274
G1 X93.117 Y112.598 E2.76237
G1 X96.007 Y112.598 E2.87262
G1 X95.711 Y112.242 F7800.000
G1 F900.000
G1 X95.711 Y97.758 E3.42512
G1 X93.472 Y97.758 E3.51053
G1 X93.472 Y112.242 E4.06303
G1 X95.651 Y112.242 E4.14615
G92 E0
G1 E-4.00000 F3600.00000
G1 X95.605 Y98.584 F7800.000
G1 E0.00000 F3600.00000
G1 F1200.000
G1 X95.046 Y98.025 E0.02735
G1 X94.543 Y98.025 E0.04475
G1 X95.445 Y98.926 E0.08888
G1 X95.445 Y99.429 E0.10628
G1 X94.040 Y98.025 E0.17502
G1 X93.739 Y98.025 E0.18544
G1 X93.739 Y98.226 E0.19243
G1 X95.445 Y99.932 E0.27590
G1 X95.445 Y100.435 E0.29330
G1 X93.739 Y98.729 E0.37678
M73 Q2 S45
G1 X93.739 Y99.232 E0.39418
G1 X95.445 Y100.938 E0.47765
G1 X95.445 Y101.441 E0.49506
G1 X93.739 Y99.735 E0.57853
G1 X93.739 Y100.238 E0.59593
G1 X95.445 Y101.944 E0.67941
G1 X95.445 Y102.447 E0.69681
G1 X93.739 Y100.741 E0.78029
