; generated by SuperSlicer 2.2.53 on 2021-03-10 at 19:44:05 UTC

; 

; external perimeters extrusion width = 0.45mm
; perimeters extrusion width = 0.45mm
; infill extrusion width = 0.45mm
; solid infill extrusion width = 0.45mm
; top infill extrusion width = 0.40mm
; first layer extrusion width = 0.42mm

; object:{"name":"FilamentGuide2","id":"FilamentGuide2.stl id:0 copy 0","object_center":[90.000000,105.000000,0.000000],"boundingbox_center":[90.000000,105.000000,8.009750],"boundingbox_size":[13.000000,37.493262,16.019499]}

M73 P0 R23
M73 Q0 S24
M107
M190 S60 ; set bed temperature and wait for it to be reached
M104 S190 ; set temperature
G28 ; home all axes
G1 Z5 F5000 ; lift nozzle
M109 S190 ; set temperature and wait for it to be reached
G21 ; set units to millimeters
G90 ; use absolute coordinates
M82 ; use absolute distances for extrusion
G92 E0
; Filament gcode
G1 Z0.100000 F7800.000
G1 E-4.00000 F3600.00000
M73 Q0 S24
M73 P0 R23
G1 X87.558 Y90.384 F7800.000
G1 E0.00000 F3600.00000
G1 F1800.000
G1 X88.357 Y89.838 E0.03690
G1 X89.214 Y89.542 E0.07151
G1 X90.196 Y89.486 E0.10902
G1 X91.077 Y89.612 E0.14297
G1 X91.904 Y89.982 E0.17752
G1 X92.549 Y90.489 E0.20881
G1 X93.111 Y91.213 E0.24376
G1 X99.490 Y104.383 E0.80197
G1 X99.692 Y104.926 E0.82409
G1 X99.802 Y105.743 E0.85554
G1 X99.802 Y124.130 E1.55689
G1 X99.743 Y124.733 E1.58000
G1 X99.411 Y125.647 E1.61710
G1 X98.817 Y126.417 E1.65420
G1 X98.022 Y126.970 E1.69113
G1 X97.093 Y127.257 E1.72823
G1 X83.363 Y127.290 E2.25196
G1 X82.755 Y127.231 E2.27524
G1 X81.818 Y126.886 E2.31333
G1 X81.038 Y126.270 E2.35126
G1 X80.485 Y125.438 E2.38936
G1 X80.218 Y124.476 E2.42745
G1 X80.198 Y105.745 E3.14196
G1 X80.257 Y105.142 E3.16508
G1 X80.507 Y104.388 E3.19537
G1 X86.913 Y91.175 E3.75547
G1 X87.521 Y90.431 E3.79214
G1 X87.777 Y90.638 F7800.000
G1 F1800.000
G1 X88.511 Y90.134 E3.82611
G1 X89.288 Y89.868 E3.85742
G1 X90.196 Y89.820 E3.89211
G1 X90.996 Y89.936 E3.92295
G1 X91.747 Y90.278 E3.95443
G1 X92.325 Y90.738 E3.98260
G1 X92.838 Y91.408 E4.01480
G1 X99.189 Y104.528 E4.57080
G1 X99.374 Y105.030 E4.59124
G1 X99.468 Y105.746 E4.61878
G1 X99.468 Y124.129 E5.31999
G1 X99.413 Y124.675 E5.34091
G1 X99.110 Y125.499 E5.37441
G1 X98.573 Y126.188 E5.40776
G1 X97.851 Y126.681 E5.44111
G1 X97.009 Y126.931 E5.47462
G1 X83.363 Y126.956 E5.99512
G1 X82.813 Y126.902 E6.01619
G1 X81.971 Y126.588 E6.05048
G1 X81.269 Y126.027 E6.08477
G1 X80.777 Y125.274 E6.11906
G1 X80.547 Y124.410 E6.15319
G1 X80.532 Y105.749 E6.86501
G1 X80.587 Y105.200 E6.88608
G1 X80.808 Y104.534 E6.91283
G1 X87.185 Y91.370 E7.47079
G1 X87.739 Y90.685 E7.50442
G1 X87.997 Y90.890 F7800.000
G1 F1800.000
G1 X88.662 Y90.432 E7.53526
G1 X89.363 Y90.194 E7.56347
G1 X90.196 Y90.154 E7.59528
G1 X90.912 Y90.260 E7.62291
G1 X91.589 Y90.573 E7.65137
G1 X92.101 Y90.987 E7.67648
G1 X92.563 Y91.598 E7.70569
G1 X99.054 Y105.127 E8.27808
G1 X99.134 Y105.749 E8.30201
G1 X99.085 Y124.614 E9.02160
G1 X98.815 Y125.344 E9.05129
G1 X98.330 Y125.958 E9.08112
G1 X97.680 Y126.392 E9.11096
G1 X96.931 Y126.604 E9.14065
G1 X82.874 Y126.573 E9.67684
G1 X82.128 Y126.293 E9.70727
G1 X81.507 Y125.792 E9.73769
G1 X81.075 Y125.122 E9.76811
G1 X80.877 Y124.349 E9.79853
G1 X80.915 Y105.260 E10.52668
G1 X81.110 Y104.676 E10.55017
G1 X87.459 Y91.562 E11.10596
G1 X87.959 Y90.937 E11.13648
G1 X88.218 Y91.142 F7800.000
G1 F1800.000
G1 X88.817 Y90.728 E11.16428
G1 X89.436 Y90.520 E11.18915
G1 X90.195 Y90.488 E11.21816
G1 X90.830 Y90.584 E11.24262
G1 X91.429 Y90.867 E11.26793
G1 X91.872 Y91.231 E11.28978
G1 X92.286 Y91.787 E11.31623
G1 X98.734 Y105.224 E11.88473
G1 X98.800 Y105.749 E11.90493
G1 X98.757 Y124.551 E12.62212
G1 X98.518 Y125.189 E12.64809
G1 X98.094 Y125.721 E12.67406
G1 X97.525 Y126.095 E12.70004
G1 X96.865 Y126.275 E12.72615
G1 X82.937 Y126.245 E13.25741
G1 X82.287 Y125.999 E13.28393
G1 X81.745 Y125.558 E13.31059
G1 X81.374 Y124.970 E13.33711
G1 X81.207 Y124.295 E13.36363
G1 X81.243 Y105.323 E14.08731
G1 X81.413 Y104.818 E14.10765
G1 X87.733 Y91.754 E14.66122
G1 X88.181 Y91.189 E14.68872
G1 X87.924 Y90.951 F7800.000
G1 F1800.000
G1 X88.168 Y90.731 E14.70440
G1 X88.365 Y90.591 E14.71596
G1 X88.730 Y90.386 E14.73596
G1 X89.008 Y90.274 E14.75029
G1 X89.340 Y90.187 E14.76666
G1 X89.637 Y90.149 E14.78099
G1 X90.363 Y90.149 E14.81569
G1 X90.660 Y90.187 E14.83002
G1 X90.992 Y90.274 E14.84640
G1 X91.270 Y90.386 E14.86072
G1 X91.635 Y90.591 E14.88072
G1 X91.832 Y90.731 E14.89228
G1 X92.041 Y90.913 E14.90550
G1 X92.205 Y91.090 E14.91707
G1 X92.466 Y91.436 E14.93778
G1 X92.639 Y91.723 E14.95377
G1 X92.960 Y92.502 E14.99405
G1 X93.036 Y92.749 E15.00642
G1 X93.187 Y93.622 E15.04875
G1 X93.196 Y93.907 E15.06238
G1 X93.151 Y94.704 E15.10050
G1 X93.112 Y94.991 E15.11435
G1 X93.015 Y95.441 E15.13635
G1 X92.889 Y95.805 E15.15479
G1 X92.812 Y95.968 E15.16339
G1 X92.450 Y96.598 E15.19813
G1 X92.300 Y96.804 E15.21031
G1 X92.103 Y97.020 E15.22424
G1 X91.912 Y97.188 E15.23643
G1 X91.736 Y97.312 E15.24672
G1 X98.591 Y104.168 E15.71004
G1 X98.847 Y104.551 E15.73206
G1 X99.049 Y105.038 E15.75726
G1 X99.139 Y105.490 E15.77928
G1 X99.139 Y124.655 E16.69522
G1 X98.783 Y125.515 E16.73969
G1 X98.027 Y126.271 E16.79078
G1 X97.167 Y126.627 E16.83525
G1 X92.017 Y126.627 E17.08140
G1 X91.157 Y126.271 E17.12587
G1 X90.401 Y125.515 E17.17696
G1 X90.045 Y124.655 E17.22143
G1 X90.045 Y108.260 E18.00500
G1 X89.955 Y108.260 E18.00928
G1 X89.955 Y124.655 E18.79284
G1 X89.599 Y125.515 E18.83732
G1 X88.843 Y126.271 E18.88840
G1 X87.983 Y126.627 E18.93288
G1 X82.833 Y126.627 E19.17903
G1 X81.973 Y126.271 E19.22350
G1 X81.217 Y125.515 E19.27459
G1 X80.861 Y124.655 E19.31906
G1 X80.861 Y105.490 E20.23500
G1 X80.951 Y105.038 E20.25702
G1 X81.153 Y104.551 E20.28221
G1 X81.409 Y104.168 E20.30423
G1 X88.264 Y97.312 E20.76756
G1 X88.088 Y97.188 E20.77785
G1 X87.897 Y97.020 E20.79003
G1 X87.700 Y96.804 E20.80396
G1 X87.550 Y96.598 E20.81615
G1 X87.188 Y95.968 E20.85088
G1 X87.111 Y95.805 E20.85949
G1 X86.985 Y95.441 E20.87792
G1 X86.888 Y94.991 E20.89993
G1 X86.849 Y94.704 E20.91378
G1 X86.804 Y93.907 E20.95189
G1 X86.813 Y93.622 E20.96552
G1 X86.964 Y92.749 E21.00786
G1 X87.040 Y92.502 E21.02023
G1 X87.361 Y91.723 E21.06051
G1 X87.534 Y91.436 E21.07650
G1 X87.883 Y90.995 E21.10341
G1 X88.128 Y91.222 F7800.000
G1 F1800.000
G1 X88.375 Y90.994 E21.11947
G1 X88.544 Y90.874 E21.12938
G1 X88.875 Y90.688 E21.14754
G1 X89.113 Y90.592 E21.15981
G1 X89.403 Y90.516 E21.17414
G1 X89.658 Y90.483 E21.18642
G1 X90.342 Y90.483 E21.21908
G1 X90.597 Y90.516 E21.23136
G1 X90.887 Y90.592 E21.24569
G1 X91.125 Y90.688 E21.25797
G1 X91.456 Y90.874 E21.27612
G1 X91.625 Y90.994 E21.28603
G1 X91.949 Y91.305 E21.30748
G1 X92.192 Y91.628 E21.32683
G1 X92.342 Y91.877 E21.34069
G1 X92.646 Y92.617 E21.37896
G1 X92.712 Y92.832 E21.38968
G1 X92.840 Y93.538 E21.42397
G1 X92.861 Y93.784 E21.43579
G1 X92.810 Y94.757 E21.48235
G1 X92.691 Y95.357 E21.51161
G1 X92.582 Y95.673 E21.52758
G1 X92.169 Y96.416 E21.56819
G1 X92.040 Y96.593 E21.57863
G1 X91.868 Y96.781 E21.59082
G1 X91.705 Y96.926 E21.60127
G1 X91.219 Y97.268 E21.62966
G1 X98.332 Y104.381 E22.11038
G1 X98.551 Y104.709 E22.12926
G1 X98.728 Y105.135 E22.15131
G1 X98.805 Y105.523 E22.17019
G1 X98.805 Y124.589 E23.08137
G1 X98.499 Y125.326 E23.11949
G1 X97.838 Y125.988 E23.16422
G1 X97.101 Y126.293 E23.20234
G1 X92.083 Y126.293 E23.44214
G1 X91.346 Y125.988 E23.48026
G1 X90.684 Y125.326 E23.52500
G1 X90.379 Y124.589 E23.56312
G1 X90.379 Y107.925 E24.35947
G1 X89.621 Y107.925 E24.39570
G1 X89.621 Y124.589 E25.19205
G1 X89.316 Y125.326 E25.23017
G1 X88.654 Y125.988 E25.27491
G1 X87.917 Y126.293 E25.31303
G1 X82.899 Y126.293 E25.55283
G1 X82.162 Y125.988 E25.59094
G1 X81.501 Y125.326 E25.63568
G1 X81.195 Y124.589 E25.67380
G1 X81.195 Y105.523 E26.58499
G1 X81.272 Y105.135 E26.60386
G1 X81.449 Y104.709 E26.62591
G1 X81.668 Y104.381 E26.64479
G1 X88.781 Y97.268 E27.12551
G1 X88.295 Y96.926 E27.15390
G1 X88.132 Y96.781 E27.16435
G1 X87.960 Y96.593 E27.17654
G1 X87.831 Y96.416 E27.18698
G1 X87.418 Y95.673 E27.22759
G1 X87.309 Y95.357 E27.24356
G1 X87.190 Y94.757 E27.27282
G1 X87.139 Y93.784 E27.31938
G1 X87.160 Y93.538 E27.33120
G1 X87.288 Y92.832 E27.36549
G1 X87.354 Y92.617 E27.37621
G1 X87.658 Y91.877 E27.41448
G1 X87.808 Y91.628 E27.42834
G1 X88.087 Y91.266 E27.45021
G1 X88.332 Y91.494 F7800.000
G1 F1800.000
G1 X88.582 Y91.257 E27.46666
G1 X88.723 Y91.157 E27.47492
G1 X89.020 Y90.990 E27.49122
G1 X89.219 Y90.910 E27.50145
G1 X89.467 Y90.845 E27.51373
G1 X89.680 Y90.817 E27.52397
G1 X90.320 Y90.817 E27.55458
G1 X90.533 Y90.845 E27.56481
G1 X90.781 Y90.910 E27.57710
G1 X90.980 Y90.990 E27.58733
G1 X91.418 Y91.257 E27.61186
G1 X91.692 Y91.520 E27.63001
G1 X91.919 Y91.820 E27.64800
G1 X92.093 Y92.131 E27.66505
G1 X92.389 Y92.914 E27.70503
G1 X92.521 Y93.680 E27.74217
G1 X92.527 Y93.889 E27.75216
G1 X92.478 Y94.719 E27.79188
G1 X92.367 Y95.274 E27.81895
G1 X92.219 Y95.658 E27.83859
G1 X91.888 Y96.234 E27.87035
G1 X91.781 Y96.381 E27.87906
G1 X91.497 Y96.663 E27.89818
G1 X91.030 Y96.992 E27.92548
G1 X90.800 Y97.106 E27.93775
G1 X90.506 Y97.199 E27.95250
G1 X90.252 Y97.239 E27.96478
G1 X89.748 Y97.239 E27.98887
G1 X89.494 Y97.199 E28.00115
G1 X89.200 Y97.106 E28.01590
G1 X88.970 Y96.992 E28.02818
G1 X88.503 Y96.663 E28.05548
G1 X88.219 Y96.381 E28.07460
G1 X88.112 Y96.234 E28.08331
G1 X87.725 Y95.541 E28.12120
G1 X87.633 Y95.274 E28.13472
G1 X87.522 Y94.719 E28.16179
G1 X87.473 Y93.889 E28.20151
G1 X87.490 Y93.585 E28.21604
G1 X87.592 Y92.998 E28.24451
G1 X87.667 Y92.733 E28.25770
G1 X87.955 Y92.031 E28.29396
G1 X88.081 Y91.820 E28.30569
G1 X88.293 Y91.539 E28.32252
G1 X88.560 Y91.740 F7800.000
G1 F1800.000
G1 X88.658 Y91.633 E28.32946
G1 X88.902 Y91.440 E28.34431
G1 X89.165 Y91.292 E28.35877
G1 X89.324 Y91.227 E28.36695
G1 X89.701 Y91.151 E28.38534
G1 X90.299 Y91.151 E28.41391
G1 X90.469 Y91.173 E28.42209
G1 X90.835 Y91.292 E28.44048
G1 X91.211 Y91.520 E28.46151
G1 X91.436 Y91.735 E28.47637
G1 X91.645 Y92.013 E28.49300
G1 X91.787 Y92.265 E28.50685
G1 X92.065 Y92.997 E28.54424
G1 X92.187 Y93.709 E28.57878
G1 X92.193 Y93.880 E28.58695
G1 X92.146 Y94.680 E28.62528
G1 X92.043 Y95.191 E28.65015
G1 X91.923 Y95.502 E28.66611
G1 X91.608 Y96.052 E28.69639
G1 X91.522 Y96.169 E28.70335
G1 X91.290 Y96.400 E28.71900
G1 X90.859 Y96.704 E28.74420
G1 X90.675 Y96.795 E28.75402
G1 X90.429 Y96.873 E28.76631
G1 X90.226 Y96.905 E28.77614
G1 X89.774 Y96.905 E28.79777
G1 X89.571 Y96.873 E28.80760
G1 X89.325 Y96.795 E28.81989
G1 X89.141 Y96.704 E28.82971
G1 X88.710 Y96.400 E28.85491
G1 X88.478 Y96.169 E28.87056
G1 X88.392 Y96.052 E28.87752
G1 X88.033 Y95.409 E28.91271
G1 X87.957 Y95.191 E28.92377
G1 X87.854 Y94.680 E28.94864
G1 X87.807 Y93.880 E28.98697
G1 X87.821 Y93.633 E28.99877
G1 X87.920 Y93.064 E29.02638
G1 X87.981 Y92.848 E29.03710
G1 X88.251 Y92.185 E29.07134
G1 X88.524 Y91.788 E29.09434
G1 X88.791 Y91.989 F7800.000
G1 F1800.000
G1 X88.891 Y91.874 E29.10167
G1 X89.080 Y91.723 E29.11322
G1 X89.310 Y91.593 E29.12582
G1 X89.595 Y91.502 E29.14012
G1 X89.723 Y91.486 E29.14626
G1 X90.277 Y91.486 E29.17279
G1 X90.571 Y91.545 E29.18709
G1 X90.920 Y91.723 E29.20580
G1 X91.179 Y91.949 E29.22227
G1 X91.452 Y92.339 E29.24498
G1 X91.705 Y92.964 E29.27721
G1 X91.752 Y93.130 E29.28546
G1 X91.848 Y93.681 E29.31220
G1 X91.859 Y93.871 E29.32128
G1 X91.814 Y94.642 E29.35821
G1 X91.697 Y95.181 E29.38457
G1 X91.627 Y95.347 E29.39317
G1 X91.263 Y95.958 E29.42716
G1 X91.082 Y96.138 E29.43934
G1 X90.687 Y96.416 E29.46243
G1 X90.549 Y96.485 E29.46980
G1 X90.353 Y96.547 E29.47964
G1 X90.201 Y96.570 E29.48701
G1 X89.799 Y96.570 E29.50619
G1 X89.647 Y96.547 E29.51355
G1 X89.451 Y96.485 E29.52339
G1 X89.313 Y96.416 E29.53076
G1 X88.918 Y96.138 E29.55386
G1 X88.737 Y95.958 E29.56603
G1 X88.340 Y95.277 E29.60369
G1 X88.281 Y95.107 E29.61230
G1 X88.186 Y94.642 E29.63499
G1 X88.141 Y93.871 E29.67191
G1 X88.152 Y93.681 E29.68099
G1 X88.248 Y93.130 E29.70773
G1 X88.295 Y92.964 E29.71598
G1 X88.548 Y92.339 E29.74821
G1 X88.755 Y92.037 E29.76568
G1 X89.022 Y92.238 F7800.000
G1 F1800.000
G1 X89.124 Y92.114 E29.77340
G1 X89.259 Y92.005 E29.78165
G1 X89.455 Y91.895 E29.79240
G1 X89.659 Y91.831 E29.80262
G1 X90.256 Y91.820 E29.83116
G1 X90.465 Y91.863 E29.84138
G1 X90.741 Y92.005 E29.85621
G1 X90.923 Y92.164 E29.86774
G1 X91.155 Y92.493 E29.88696
G1 X91.392 Y93.079 E29.91719
G1 X91.517 Y93.729 E29.94881
G1 X91.525 Y93.862 E29.95516
G1 X91.482 Y94.604 E29.99069
G1 X91.381 Y95.073 E30.01364
G1 X91.331 Y95.192 E30.01979
G1 X91.003 Y95.746 E30.05056
G1 X90.875 Y95.875 E30.05926
G1 X90.516 Y96.128 E30.08026
G1 X90.424 Y96.174 E30.08517
G1 X90.175 Y96.236 E30.09743
G1 X89.825 Y96.236 E30.11415
G1 X89.723 Y96.221 E30.11906
G1 X89.484 Y96.128 E30.13132
G1 X89.125 Y95.875 E30.15232
G1 X88.997 Y95.746 E30.16102
G1 X88.669 Y95.192 E30.19179
G1 X88.619 Y95.073 E30.19793
G1 X88.518 Y94.604 E30.22089
G1 X88.475 Y93.862 E30.25641
G1 X88.483 Y93.729 E30.26277
G1 X88.608 Y93.079 E30.29439
G1 X88.826 Y92.533 E30.32249
G1 X88.986 Y92.286 E30.33654
G1 X89.252 Y92.487 F7800.000
G1 F1800.000
G1 X89.357 Y92.354 E30.34465
G1 X89.438 Y92.288 E30.34960
G1 X89.600 Y92.197 E30.35851
G1 X89.723 Y92.159 E30.36464
G1 X90.235 Y92.154 E30.38910
G1 X90.400 Y92.197 E30.39726
G1 X90.643 Y92.354 E30.41108
G1 X90.824 Y92.589 E30.42528
G1 X91.093 Y93.244 E30.45912
G1 X91.191 Y93.853 E30.48856
G1 X91.150 Y94.565 E30.52269
G1 X91.064 Y94.965 E30.54223
G1 X90.766 Y95.505 E30.57171
G1 X90.695 Y95.588 E30.57693
G1 X90.344 Y95.840 E30.59757
G1 X90.200 Y95.894 E30.60493
G1 X89.851 Y95.902 E30.62163
G1 X89.702 Y95.863 E30.62899
G1 X89.332 Y95.612 E30.65032
G1 X89.234 Y95.505 E30.65727
G1 X88.965 Y95.036 E30.68309
G1 X88.928 Y94.941 E30.68801
G1 X88.850 Y94.565 E30.70632
G1 X88.814 Y93.777 E30.74406
G1 X88.917 Y93.211 E30.77153
G1 X89.132 Y92.667 E30.79951
G1 X89.216 Y92.535 E30.80698
G1 X89.483 Y92.736 F7800.000
G1 F1800.000
G1 X89.590 Y92.594 E30.81548
G1 X89.745 Y92.499 E30.82417
G1 X90.255 Y92.499 E30.84853
G1 X90.410 Y92.594 E30.85721
G1 X90.551 Y92.781 E30.86841
G1 X90.769 Y93.327 E30.89649
G1 X90.856 Y93.843 E30.92153
G1 X90.818 Y94.527 E30.95426
G1 X90.748 Y94.857 E30.97039
G1 X90.485 Y95.323 E30.99594
G1 X90.173 Y95.552 E31.01446
G1 X90.124 Y95.568 E31.01693
G1 X89.876 Y95.568 E31.02874
G1 X89.827 Y95.552 E31.03121
G1 X89.540 Y95.350 E31.04801
G1 X89.252 Y94.857 E31.07527
G1 X89.182 Y94.527 E31.09140
G1 X89.145 Y93.824 E31.12503
G1 X89.236 Y93.310 E31.14999
G1 X89.448 Y92.784 E31.17708
G92 E0
G1 E-4.00000 F3600.00000
G1 X89.598 Y97.283 F7800.000
G1 E0.00000 F3600.00000
G1 F1800.000
G1 X90.402 Y97.283 E0.03838
G1 X91.016 Y97.537 E0.07015
G1 X98.072 Y104.594 E0.54707
G1 X98.255 Y104.867 E0.56280
G1 X98.406 Y105.233 E0.58170
G1 X98.471 Y105.556 E0.59743
G1 X98.471 Y124.522 E1.50387
G1 X98.216 Y125.136 E1.53564
G1 X97.648 Y125.704 E1.57402
G1 X97.034 Y125.959 E1.60578
G1 X92.149 Y125.959 E1.83923
G1 X91.535 Y125.704 E1.87100
G1 X90.968 Y125.136 E1.90938
G1 X90.713 Y124.522 E1.94114
G1 X90.713 Y107.591 E2.75029
G1 X89.287 Y107.591 E2.81846
G1 X89.287 Y124.522 E3.62761
G1 X89.033 Y125.136 E3.65937
G1 X88.465 Y125.704 E3.69775
G1 X87.851 Y125.959 E3.72952
G1 X82.966 Y125.959 E3.96296
G1 X82.352 Y125.704 E3.99473
G1 X81.784 Y125.136 E4.03311
G1 X81.529 Y124.522 E4.06488
G1 X81.529 Y105.556 E4.97132
G1 X81.594 Y105.233 E4.98704
G1 X81.745 Y104.867 E5.00595
G1 X81.928 Y104.594 E5.02168
G1 X88.984 Y97.537 E5.49860
G1 X89.543 Y97.306 E5.52750
G1 X89.665 Y97.617 F7800.000
G1 F1800.000
G1 X90.335 Y97.617 E5.55953
G1 X90.826 Y97.821 E5.58494
G1 X97.813 Y104.807 E6.05711
G1 X97.959 Y105.026 E6.06970
G1 X98.085 Y105.330 E6.08546
G1 X98.136 Y105.589 E6.09804
G1 X98.136 Y124.456 E6.99973
G1 X97.933 Y124.947 E7.02514
G1 X97.459 Y125.421 E7.05717
G1 X96.968 Y125.624 E7.08258
G1 X92.216 Y125.624 E7.30967
G1 X91.725 Y125.421 E7.33509
G1 X91.251 Y124.947 E7.36711
G1 X91.047 Y124.456 E7.39253
G1 X91.047 Y107.257 E8.21447
G1 X88.953 Y107.257 E8.31457
G1 X88.953 Y124.456 E9.13652
G1 X88.749 Y124.947 E9.16193
G1 X88.275 Y125.421 E9.19396
G1 X87.784 Y125.624 E9.21937
