; generated by Slic3r 1.2.9 on 2021-03-08 at 12:09:13

; external perimeters extrusion width = 0.40mm
; perimeters extrusion width = 0.67mm
; infill extrusion width = 0.67mm
; solid infill extrusion width = 0.67mm
; top infill extrusion width = 0.67mm

M107
M190 S55 ; set bed temperature
M104 S205 ; set temperature
G28 ; home all axes
G29
G1 Z5 F5000 ; lift nozzle

M109 S205 ; wait for temperature to be reached
G21 ; set units to millimeters
G90 ; use absolute coordinates
M82 ; use absolute distances for extrusion
G92 E0
G1 Z0.350 F24000.000
G1 E-6.00000 F7200.00000
G92 E0
G1 X84.915 Y85.753 F24000.000
G1 E6.00000 F7200.00000
G1 X86.668 Y84.274 E6.25025 F1800.000
G1 X88.820 Y83.481 E6.50050
G1 X90.000 Y83.375 E6.62975
G1 X110.000 Y83.375 E8.81206
G1 X112.259 Y83.772 E9.06231
G1 X114.247 Y84.915 E9.31256 F1800.000
G1 X115.726 Y86.668 E9.56282
G1 X116.519 Y88.820 E9.81307
G1 X116.625 Y90.000 E9.94232
G1 X116.625 Y110.000 E12.12463
G1 X116.228 Y112.259 E12.37488
G1 X115.085 Y114.247 E12.62513
G1 X113.332 Y115.726 E12.87538
G1 X111.180 Y116.519 E13.12563
G1 X110.000 Y116.625 E13.25488
G1 X90.000 Y116.625 E15.43719
G1 X87.741 Y116.228 E15.68744
G1 X85.753 Y115.085 E15.93769
G1 X84.274 Y113.332 E16.18794
G1 X83.481 Y111.180 E16.43819
G1 X83.375 Y110.000 E16.56744
G1 X83.375 Y90.000 E18.74975
G1 X83.772 Y87.741 E19.00001
G1 X84.886 Y85.805 E19.24371
G1 E13.24371 F7200.00000
G92 E0
G1 X89.688 Y89.871 F24000.000
G1 E6.00000 F7200.00000
G1 X89.871 Y89.688 E6.02824 F1800.000
G1 X110.129 Y89.688 E8.23880
G1 X110.312 Y89.871 E8.26704
G1 X110.312 Y110.129 E10.47759 F1800.000
G1 X110.129 Y110.312 E10.50584
G1 X89.871 Y110.312 E12.71639
G1 X89.688 Y110.129 E12.74463
G1 X89.688 Y89.931 E14.94864
G1 X90.350 Y90.350 F24000.000
G1 X109.650 Y90.350 E17.05457 F1800.000
G1 X109.650 Y109.650 E19.16050
G1 X90.350 Y109.650 E21.26643 F1800.000
G1 X90.350 Y90.410 E23.36581
G1 X90.696 Y90.550 F24000.000
G1 X90.975 Y90.975 F24000.000
G1 X109.025 Y90.975 E25.33537 F1800.000
G1 X109.025 Y109.025 E27.30493
G1 X90.975 Y109.025 E29.27448 F1800.000
G1 X90.975 Y91.035 E31.23750
G1 E25.23750 F7200.00000
G92 E0
G1 X97.777 Y91.600 F24000.000
G1 E6.00000 F7200.00000
G1 X108.400 Y91.600 E7.15920 F1800.000
G1 X108.400 Y108.400 E8.99239
G1 X91.600 Y108.400 E10.82558 F1800.000
G1 X91.600 Y91.600 E12.65876
G1 X97.717 Y91.600 E13.32621
G1 E7.32621 F7200.00000
G92 E0
G1 X108.022 Y92.283 F24000.000
G1 E6.00000 F7200.00000
G1 X107.717 Y91.978 E6.04791 F1800.000
G1 X106.817 Y91.978 E6.14778
G1 X108.022 Y93.183 E6.33692
G1 X108.022 Y94.082 E6.43678
G1 X105.918 Y91.978 E6.76715
G1 X105.019 Y91.978 E6.86701
G1 X108.022 Y94.981 E7.33860
G1 X108.022 Y95.881 E7.43847
G1 X104.119 Y91.978 E8.05129
G1 X103.220 Y91.978 E8.15115
G1 X108.022 Y96.780 E8.90520
G1 X108.022 Y97.679 E9.00506
G1 X102.321 Y91.978 E9.90033
G1 X101.421 Y91.978 E10.00020
G1 X108.022 Y98.579 E11.03670
G1 X108.022 Y99.478 E11.13656
G1 X100.522 Y91.978 E12.31428
G1 X99.623 Y91.978 E12.41415
G1 X108.022 Y100.377 E13.73310
G1 X108.022 Y101.277 E13.83296
G1 X98.723 Y91.978 E15.29314
G1 X97.824 Y91.978 E15.39301
G1 X108.022 Y102.176 E16.99441
G1 X108.022 Y103.075 E17.09427
G1 X96.925 Y91.978 E18.83691
G1 X96.025 Y91.978 E18.93677
G1 X108.022 Y103.975 E20.82063
G1 X108.022 Y104.874 E20.92049
G1 X95.126 Y91.978 E22.94558
G1 X94.227 Y91.978 E23.04544
G1 X108.022 Y105.773 E25.21175
G1 X108.022 Y106.673 E25.31161
G1 X93.327 Y91.978 E27.61915
G1 X92.428 Y91.978 E27.71902
G1 X108.022 Y107.572 E30.16778
G1 X107.572 Y108.022 E30.23839
G1 X91.978 Y92.428 E32.68716
G1 X91.978 Y93.327 E32.78702
G1 X106.673 Y108.022 E35.09456
G1 X105.773 Y108.022 E35.19442
G1 X91.978 Y94.227 E37.36073
G1 X91.978 Y95.126 E37.46059
G1 X104.874 Y108.022 E39.48567
G1 X103.975 Y108.022 E39.58554
G1 X91.978 Y96.025 E41.46939
G1 X91.978 Y96.925 E41.56926
G1 X103.075 Y108.022 E43.31189
G1 X102.176 Y108.022 E43.41175
G1 X91.978 Y97.824 E45.01315
G1 X91.978 Y98.723 E45.11301
G1 X101.277 Y108.022 E46.57319
G1 X100.377 Y108.022 E46.67305
G1 X91.978 Y99.623 E47.99200
G1 X91.978 Y100.522 E48.09187
G1 X99.478 Y108.022 E49.26959
G1 X98.579 Y108.022 E49.36945
G1 X91.978 Y101.421 E50.40595
G1 X91.978 Y102.321 E50.50581
G1 X97.679 Y108.022 E51.40108
G1 X96.780 Y108.022 E51.50094
G1 X91.978 Y103.220 E52.25499
G1 X91.978 Y104.119 E52.35485
G1 X95.881 Y108.022 E52.96767
G1 X94.981 Y108.022 E53.06753
G1 X91.978 Y105.019 E53.53912
G1 X91.978 Y105.918 E53.63898
G1 X94.082 Y108.022 E53.96935
G1 X93.183 Y108.022 E54.06921
G1 X91.978 Y106.817 E54.25835
G1 X91.978 Y107.717 E54.35821
G1 X92.283 Y108.022 E54.40612
G1 E48.40612 F7200.00000
G92 E0
M104 S0 ; turn off temperature
G28 X0  ; home X axis
M84     ; disable motors

; filament used = 94.2mm (0.2cm3)

; avoid_crossing_perimeters = 0
; bed_shape = 0x0,200x0,200x200,0x200
; bed_temperature = 55
; before_layer_gcode = 
; bridge_acceleration = 0
; bridge_fan_speed = 100
; brim_width = 1
; complete_objects = 0
; cooling = 1
; default_acceleration = 0
; disable_fan_first_layers = 3
; duplicate_distance = 6
; end_gcode = M104 S0 ; turn off temperature\nG28 X0  ; home X axis\nM84     ; disable motors\n
; extruder_clearance_height = 20
; extruder_clearance_radius = 20
; extruder_offset = 0x0
; extrusion_axis = E
; extrusion_multiplier = 1.2
; fan_always_on = 0
; fan_below_layer_time = 60
; filament_colour = #C0C0C0
; filament_diameter = 1.75
; first_layer_acceleration = 0
; first_layer_bed_temperature = 55
; first_layer_extrusion_width = 200%
; first_layer_speed = 30
; first_layer_temperature = 205
; gcode_arcs = 0
; gcode_comments = 0
; gcode_flavor = reprap
; infill_acceleration = 0
; infill_first = 0
; layer_gcode = 
; max_fan_speed = 100
; max_print_speed = 80
; max_volumetric_speed = 0
; min_fan_speed = 35
; min_print_speed = 10
; min_skirt_length = 0
; notes = 
; nozzle_diameter = 0.4
; only_retract_when_crossing_perimeters = 1
; ooze_prevention = 0
; output_filename_format = [input_filename_base].gcode
; perimeter_acceleration = 0
; post_process = 
; pressure_advance = 0
; resolution = 0
; retract_before_travel = 2
; retract_layer_change = 0
; retract_length = 6
; retract_length_toolchange = 10
; retract_lift = 0
; retract_restart_extra = 0
; retract_restart_extra_toolchange = 0
; retract_speed = 120
; skirt_distance = 6
; skirt_height = 1
; skirts = 1
; slowdown_below_layer_time = 5
; spiral_vase = 0
; standby_temperature_delta = -5
; start_gcode = G28 ; home all axes\nG29\nG1 Z5 F5000 ; lift nozzle\n
; temperature = 195
; threads = 2
; toolchange_gcode = 
; travel_speed = 400
; use_firmware_retraction = 0
; use_relative_e_distances = 0
; use_volumetric_e = 0
; vibration_limit = 0
; wipe = 0
; z_offset = 0
; dont_support_bridges = 1
; extrusion_width = 0
; first_layer_height = 0.35
; infill_only_where_needed = 0
; interface_shells = 0
; layer_height = 0.2
; raft_layers = 0
; seam_position = random
; support_material = 0
; support_material_angle = 0
; support_material_contact_distance = 0.2
; support_material_enforce_layers = 0
; support_material_extruder = 1
; support_material_extrusion_width = 0
; support_material_interface_extruder = 1
; support_material_interface_layers = 3
; support_material_interface_spacing = 0
; support_material_interface_speed = 100%
; support_material_pattern = pillars
; support_material_spacing = 2.5
; support_material_speed = 60
; support_material_threshold = 0
; xy_size_compensation = 0
; bottom_solid_layers = 3
; bridge_flow_ratio = 1
; bridge_speed = 60
; external_fill_pattern = rectilinear
; external_perimeter_extrusion_width = 0
; external_perimeter_speed = 50%
; external_perimeters_first = 0
; extra_perimeters = 1
; fill_angle = 45
; fill_density = 25%
; fill_pattern = archimedeanchords
; gap_fill_speed = 20
; infill_every_layers = 1
; infill_extruder = 1
; infill_extrusion_width = 0
; infill_overlap = 15%
; infill_speed = 100
; overhangs = 1
; perimeter_extruder = 1
; perimeter_extrusion_width = 0
; perimeter_speed = 100
; perimeters = 3
; small_perimeter_speed = 15
; solid_infill_below_area = 70
; solid_infill_every_layers = 0
; solid_infill_extruder = 1
; solid_infill_extrusion_width = 0
; solid_infill_speed = 20
; thin_walls = 1
; top_infill_extrusion_width = 0
; top_solid_infill_speed = 15
; top_solid_layers = 3
