; generated by SuperSlicer 2.2.53 on 2021-03-10 at 01:53:23 UTC

; 

; external perimeters extrusion width = 0.45mm
; perimeters extrusion width = 0.45mm
; infill extrusion width = 0.45mm
; solid infill extrusion width = 0.45mm
; top infill extrusion width = 0.40mm
; first layer extrusion width = 0.42mm

; object:{"name":"LM8LUU","id":"LM8LUU.stl id:0 copy 0","object_center":[90.000000,105.000000,0.000000],"boundingbox_center":[90.000000,105.000000,22.500000],"boundingbox_size":[15.000000,15.000000,45.000000]}

M73 P0 R42
M73 Q0 S44
M107
M190 S65 ; set bed temperature and wait for it to be reached
M104 S190 ; set temperature
G28 ; home all axes
G1 Z5 F5000 ; lift nozzle
M109 S190 ; set temperature and wait for it to be reached
G21 ; set units to millimeters
G90 ; use absolute coordinates
M82 ; use absolute distances for extrusion
G92 E0
; Filament gcode
G1 Z0.000000 F7800.000
G1 E-4.00000 F3600.00000
M73 Q0 S44
M73 P0 R42
G1 X80.868 Y94.656 F7800.000
G1 E0.00000 F3600.00000
G1 F1800.000
G1 X81.903 Y93.823 E0.04715
G1 X83.614 Y92.754 E0.11875
G1 X84.490 Y92.340 E0.15311
G1 X87.028 Y91.504 E0.24794
G1 X90.007 Y91.180 E0.35429
G1 X93.047 Y91.520 E0.46280
G1 X95.870 Y92.489 E0.56872
G1 X98.487 Y94.094 E0.67766
G1 X100.344 Y95.868 E0.76878
G1 X101.177 Y96.903 E0.81593
G1 X102.243 Y98.609 E0.88731
G1 X102.658 Y99.484 E0.92167
G1 X103.496 Y102.028 E1.01672
G1 X103.820 Y105.001 E1.12285
G1 X103.480 Y108.047 E1.23158
G1 X102.513 Y110.864 E1.33728
G1 X100.906 Y113.487 E1.44644
G1 X99.132 Y115.344 E1.53756
G1 X98.097 Y116.177 E1.58471
G1 X96.391 Y117.243 E1.65609
G1 X95.516 Y117.658 E1.69045
G1 X92.972 Y118.496 E1.78550
G1 X89.999 Y118.820 E1.89163
G1 X86.953 Y118.480 E2.00036
G1 X84.136 Y117.513 E2.10606
G1 X81.513 Y115.906 E2.21521
G1 X79.656 Y114.132 E2.30633
G1 X78.823 Y113.097 E2.35348
G1 X77.757 Y111.391 E2.42486
G1 X77.342 Y110.516 E2.45922
G1 X76.504 Y107.972 E2.55427
G1 X76.180 Y104.999 E2.66041
G1 X76.520 Y101.953 E2.76914
G1 X77.487 Y99.136 E2.87483
G1 X79.094 Y96.513 E2.98399
G1 X80.826 Y94.699 E3.07298
G1 X79.868 Y93.744 F7800.000
G1 F1800.000
G1 X80.204 Y93.407 E3.09410
G1 X80.849 Y92.892 E3.13081
G1 X83.029 Y91.518 E3.24537
G1 X83.773 Y91.159 E3.28207
G1 X86.204 Y90.305 E3.39663
G1 X87.009 Y90.120 E3.43334
G1 X89.569 Y89.829 E3.54790
G1 X90.395 Y89.828 E3.58461
G1 X92.956 Y90.113 E3.69917
G1 X93.761 Y90.296 E3.73587
G1 X96.194 Y91.144 E3.85043
G1 X96.939 Y91.502 E3.88714
G1 X99.122 Y92.870 E4.00170
G1 X99.768 Y93.384 E4.03841
G1 X101.593 Y95.204 E4.15297
G1 X102.108 Y95.849 E4.18968
G1 X103.482 Y98.029 E4.30423
G1 X103.841 Y98.773 E4.34094
G1 X104.695 Y101.204 E4.45550
G1 X104.880 Y102.009 E4.49221
G1 X105.171 Y104.569 E4.60677
G1 X105.172 Y105.395 E4.64348
G1 X104.887 Y107.956 E4.75803
G1 X104.704 Y108.761 E4.79474
G1 X103.856 Y111.194 E4.90930
G1 X103.498 Y111.939 E4.94601
G1 X102.130 Y114.122 E5.06057
G1 X101.616 Y114.768 E5.09728
G1 X99.796 Y116.593 E5.21184
G1 X99.151 Y117.108 E5.24854
G1 X96.971 Y118.482 E5.36310
G1 X96.227 Y118.841 E5.39981
G1 X93.796 Y119.695 E5.51437
G1 X92.991 Y119.880 E5.55108
G1 X90.431 Y120.171 E5.66564
G1 X89.605 Y120.172 E5.70234
G1 X87.044 Y119.887 E5.81690
G1 X86.239 Y119.704 E5.85361
G1 X83.806 Y118.856 E5.96817
G1 X83.061 Y118.498 E6.00488
G1 X80.878 Y117.130 E6.11944
G1 X80.232 Y116.616 E6.15614
G1 X78.407 Y114.796 E6.27070
G1 X77.892 Y114.151 E6.30741
G1 X76.518 Y111.971 E6.42197
G1 X76.159 Y111.227 E6.45868
G1 X75.305 Y108.796 E6.57324
G1 X75.120 Y107.991 E6.60995
G1 X74.829 Y105.431 E6.72450
G1 X74.828 Y104.605 E6.76121
G1 X75.113 Y102.044 E6.87577
G1 X75.296 Y101.239 E6.91248
G1 X76.144 Y98.806 E7.02704
G1 X76.502 Y98.061 E7.06375
G1 X77.870 Y95.878 E7.17830
G1 X78.384 Y95.232 E7.21501
G1 X79.826 Y93.786 E7.30579
G1 X80.063 Y94.022 F7800.000
G1 F1800.000
G1 X80.427 Y93.657 E7.32874
G1 X81.043 Y93.165 E7.36378
G1 X83.191 Y91.811 E7.47667
G1 X83.901 Y91.468 E7.51171
G1 X86.297 Y90.627 E7.62460
G1 X87.065 Y90.450 E7.65964
G1 X89.588 Y90.163 E7.77253
G1 X90.376 Y90.162 E7.80757
G1 X92.900 Y90.443 E7.92046
G1 X93.669 Y90.618 E7.95550
G1 X96.066 Y91.454 E8.06839
G1 X96.777 Y91.795 E8.10343
G1 X98.929 Y93.143 E8.21632
G1 X99.546 Y93.634 E8.25136
G1 X101.343 Y95.427 E8.36425
G1 X101.835 Y96.043 E8.39929
G1 X103.189 Y98.191 E8.51218
G1 X103.532 Y98.901 E8.54722
G1 X104.373 Y101.297 E8.66011
G1 X104.550 Y102.065 E8.69515
G1 X104.837 Y104.588 E8.80804
G1 X104.838 Y105.376 E8.84307
G1 X104.557 Y107.900 E8.95596
G1 X104.382 Y108.669 E8.99100
G1 X103.546 Y111.066 E9.10389
G1 X103.205 Y111.777 E9.13893
G1 X101.857 Y113.929 E9.25182
G1 X101.366 Y114.546 E9.28686
G1 X99.573 Y116.343 E9.39975
G1 X98.957 Y116.835 E9.43479
G1 X96.809 Y118.189 E9.54768
G1 X96.099 Y118.532 E9.58272
G1 X93.703 Y119.373 E9.69561
G1 X92.935 Y119.550 E9.73065
G1 X90.412 Y119.837 E9.84354
G1 X89.624 Y119.838 E9.87858
G1 X87.100 Y119.557 E9.99147
G1 X86.331 Y119.382 E10.02651
G1 X83.934 Y118.546 E10.13940
G1 X83.223 Y118.205 E10.17444
G1 X81.071 Y116.857 E10.28733
G1 X80.454 Y116.366 E10.32237
G1 X78.657 Y114.573 E10.43526
G1 X78.165 Y113.957 E10.47030
G1 X76.811 Y111.809 E10.58319
G1 X76.468 Y111.099 E10.61823
G1 X75.627 Y108.703 E10.73112
G1 X75.450 Y107.935 E10.76616
G1 X75.163 Y105.412 E10.87905
G1 X75.162 Y104.624 E10.91409
G1 X75.443 Y102.100 E11.02698
G1 X75.618 Y101.331 E11.06202
G1 X76.454 Y98.934 E11.17491
G1 X76.795 Y98.223 E11.20995
G1 X78.143 Y96.071 E11.32284
G1 X78.634 Y95.454 E11.35788
G1 X80.020 Y94.065 E11.44515
G1 X80.257 Y94.301 F7800.000
G1 F1800.000
G1 X80.651 Y93.906 E11.46994
G1 X81.237 Y93.437 E11.50331
G1 X83.354 Y92.104 E11.61453
G1 X84.030 Y91.777 E11.64790
G1 X86.390 Y90.948 E11.75912
G1 X87.122 Y90.780 E11.79249
G1 X89.607 Y90.497 E11.90372
G1 X90.358 Y90.496 E11.93709
G1 X92.844 Y90.773 E12.04831
G1 X93.576 Y90.940 E12.08168
G1 X95.939 Y91.763 E12.19290
G1 X96.615 Y92.088 E12.22627
G1 X98.735 Y93.416 E12.33749
G1 X99.323 Y93.884 E12.37086
G1 X101.094 Y95.651 E12.48209
G1 X101.563 Y96.237 E12.51546
G1 X102.896 Y98.354 E12.62668
G1 X103.223 Y99.030 E12.66005
G1 X104.052 Y101.390 E12.77127
G1 X104.220 Y102.122 E12.80464
G1 X104.503 Y104.607 E12.91586
G1 X104.504 Y105.358 E12.94923
G1 X104.227 Y107.844 E13.06046
G1 X104.060 Y108.576 E13.09383
G1 X103.237 Y110.939 E13.20505
G1 X102.912 Y111.615 E13.23842
G1 X101.584 Y113.735 E13.34964
G1 X101.116 Y114.323 E13.38301
G1 X99.349 Y116.094 E13.49423
G1 X98.763 Y116.563 E13.52761
G1 X96.646 Y117.896 E13.63883
G1 X95.970 Y118.223 E13.67220
G1 X93.610 Y119.052 E13.78342
G1 X92.878 Y119.220 E13.81679
G1 X90.393 Y119.503 E13.92801
G1 X89.642 Y119.504 E13.96138
G1 X87.156 Y119.227 E14.07261
G1 X86.424 Y119.060 E14.10598
G1 X84.061 Y118.237 E14.21720
G1 X83.385 Y117.912 E14.25057
G1 X81.265 Y116.584 E14.36179
G1 X80.677 Y116.116 E14.39516
G1 X78.906 Y114.349 E14.50638
G1 X78.437 Y113.763 E14.53975
G1 X77.104 Y111.646 E14.65098
G1 X76.777 Y110.970 E14.68435
G1 X75.948 Y108.610 E14.79557
G1 X75.780 Y107.878 E14.82894
G1 X75.497 Y105.393 E14.94016
G1 X75.496 Y104.642 E14.97353
G1 X75.773 Y102.156 E15.08475
G1 X75.940 Y101.424 E15.11813
G1 X76.763 Y99.061 E15.22935
G1 X77.088 Y98.385 E15.26272
G1 X78.416 Y96.265 E15.37394
G1 X78.884 Y95.677 E15.40731
G1 X80.214 Y94.343 E15.49108
G1 X80.451 Y94.579 F7800.000
G1 F1800.000
G1 X80.874 Y94.155 E15.51770
G1 X81.431 Y93.710 E15.54940
G1 X83.516 Y92.396 E15.65895
G1 X84.158 Y92.086 E15.69066
G1 X86.483 Y91.270 E15.80021
G1 X87.178 Y91.110 E15.83191
G1 X89.626 Y90.831 E15.94146
G1 X90.340 Y90.830 E15.97317
G1 X92.789 Y91.103 E16.08272
G1 X93.484 Y91.261 E16.11442
G1 X95.811 Y92.072 E16.22398
G1 X96.454 Y92.381 E16.25568
G1 X98.542 Y93.690 E16.36523
G1 X99.100 Y94.133 E16.39693
G1 X100.845 Y95.874 E16.50649
G1 X101.290 Y96.431 E16.53819
G1 X102.604 Y98.516 E16.64774
G1 X102.914 Y99.158 E16.67945
G1 X103.730 Y101.483 E16.78900
G1 X103.890 Y102.178 E16.82070
G1 X104.169 Y104.626 E16.93025
G1 X104.170 Y105.340 E16.96196
G1 X103.897 Y107.789 E17.07151
G1 X103.739 Y108.484 E17.10321
G1 X102.928 Y110.811 E17.21277
G1 X102.619 Y111.454 E17.24447
G1 X101.310 Y113.542 E17.35402
G1 X100.867 Y114.100 E17.38572
G1 X99.126 Y115.845 E17.49528
G1 X98.569 Y116.290 E17.52698
G1 X96.484 Y117.604 E17.63653
G1 X95.842 Y117.914 E17.66823
G1 X93.517 Y118.730 E17.77779
G1 X92.822 Y118.890 E17.80949
G1 X90.374 Y119.169 E17.91904
G1 X89.660 Y119.170 E17.95075
G1 X87.211 Y118.897 E18.06030
G1 X86.516 Y118.739 E18.09200
G1 X84.189 Y117.928 E18.20155
G1 X83.546 Y117.619 E18.23326
G1 X81.458 Y116.310 E18.34281
G1 X80.900 Y115.867 E18.37451
G1 X79.155 Y114.126 E18.48407
G1 X78.710 Y113.569 E18.51577
G1 X77.396 Y111.484 E18.62532
G1 X77.086 Y110.842 E18.65702
G1 X76.270 Y108.517 E18.76658
G1 X76.110 Y107.822 E18.79828
G1 X75.831 Y105.374 E18.90783
G1 X75.830 Y104.660 E18.93953
G1 X76.103 Y102.211 E19.04909
G1 X76.261 Y101.516 E19.08079
G1 X77.072 Y99.189 E19.19034
G1 X77.381 Y98.546 E19.22205
G1 X78.690 Y96.458 E19.33160
G1 X79.133 Y95.900 E19.36330
G1 X80.409 Y94.622 E19.44357
G1 X80.645 Y94.858 F7800.000
G1 F1800.000
G1 X81.097 Y94.405 E19.47202
G1 X81.625 Y93.983 E19.50205
G1 X83.678 Y92.689 E19.60994
G1 X84.286 Y92.395 E19.63997
G1 X86.576 Y91.591 E19.74786
G1 X87.234 Y91.440 E19.77789
G1 X89.646 Y91.165 E19.88578
G1 X90.321 Y91.165 E19.91581
G1 X92.733 Y91.433 E20.02369
G1 X93.392 Y91.583 E20.05373
G1 X95.683 Y92.382 E20.16161
G1 X96.292 Y92.674 E20.19165
G1 X98.349 Y93.963 E20.29953
G1 X98.877 Y94.383 E20.32957
G1 X100.595 Y96.097 E20.43745
G1 X101.017 Y96.625 E20.46748
G1 X102.311 Y98.678 E20.57537
G1 X102.605 Y99.286 E20.60540
G1 X103.409 Y101.576 E20.71329
G1 X103.560 Y102.234 E20.74332
G1 X103.835 Y104.646 E20.85121
G1 X103.835 Y105.321 E20.88124
G1 X103.567 Y107.733 E20.98912
G1 X103.417 Y108.392 E21.01916
G1 X102.618 Y110.683 E21.12704
G1 X102.326 Y111.292 E21.15708
G1 X101.037 Y113.349 E21.26496
G1 X100.617 Y113.877 E21.29499
G1 X98.903 Y115.595 E21.40288
G1 X98.375 Y116.017 E21.43291
G1 X96.322 Y117.311 E21.54080
G1 X95.714 Y117.605 E21.57083
G1 X93.424 Y118.409 E21.67872
G1 X92.766 Y118.560 E21.70875
G1 X90.354 Y118.835 E21.81664
G1 X89.679 Y118.835 E21.84667
G1 X87.267 Y118.567 E21.95455
G1 X86.608 Y118.417 E21.98459
G1 X84.317 Y117.618 E22.09247
G1 X83.708 Y117.326 E22.12251
G1 X81.651 Y116.037 E22.23039
G1 X81.123 Y115.617 E22.26042
G1 X79.405 Y113.903 E22.36831
G1 X78.983 Y113.375 E22.39834
G1 X77.689 Y111.322 E22.50623
G1 X77.395 Y110.714 E22.53626
G1 X76.591 Y108.424 E22.64415
G1 X76.440 Y107.766 E22.67418
G1 X76.165 Y105.354 E22.78206
G1 X76.165 Y104.679 E22.81210
G1 X76.433 Y102.267 E22.91998
G1 X76.583 Y101.608 E22.95002
G1 X77.382 Y99.317 E23.05790
G1 X77.674 Y98.708 E23.08794
G1 X78.963 Y96.651 E23.19582
G1 X79.383 Y96.123 E23.22585
G1 X80.603 Y94.900 E23.30262
G1 X80.839 Y95.136 F7800.000
G1 F1800.000
G1 X81.321 Y94.654 E23.33290
G1 X81.819 Y94.256 E23.36127
G1 X83.840 Y92.982 E23.46749
G1 X84.415 Y92.704 E23.49585
G1 X86.669 Y91.913 E23.60207
G1 X87.291 Y91.770 E23.63043
G1 X89.665 Y91.500 E23.73665
G1 X90.303 Y91.499 E23.76501
G1 X92.677 Y91.763 E23.87123
G1 X93.300 Y91.905 E23.89960
G1 X95.556 Y92.691 E24.00581
G1 X96.131 Y92.967 E24.03418
G1 X98.155 Y94.236 E24.14039
G1 X98.655 Y94.633 E24.16876
G1 X100.346 Y96.321 E24.27497
G1 X100.744 Y96.819 E24.30334
G1 X102.018 Y98.840 E24.40956
G1 X102.296 Y99.415 E24.43792
G1 X103.087 Y101.669 E24.54414
G1 X103.230 Y102.291 E24.57250
G1 X103.500 Y104.665 E24.67872
G1 X103.501 Y105.303 E24.70708
G1 X103.237 Y107.677 E24.81330
G1 X103.095 Y108.300 E24.84166
G1 X102.309 Y110.556 E24.94788
G1 X102.033 Y111.131 E24.97625
G1 X100.764 Y113.155 E25.08246
G1 X100.367 Y113.655 E25.11083
G1 X98.679 Y115.346 E25.21704
G1 X98.181 Y115.744 E25.24541
G1 X96.160 Y117.018 E25.35163
G1 X95.585 Y117.296 E25.37999
G1 X93.331 Y118.087 E25.48621
G1 X92.709 Y118.230 E25.51457
G1 X90.335 Y118.500 E25.62079
G1 X89.697 Y118.501 E25.64915
G1 X87.323 Y118.237 E25.75537
G1 X86.700 Y118.095 E25.78373
G1 X84.444 Y117.309 E25.88995
G1 X83.869 Y117.033 E25.91832
G1 X81.845 Y115.764 E26.02453
G1 X81.345 Y115.367 E26.05290
G1 X79.654 Y113.679 E26.15911
G1 X79.256 Y113.181 E26.18748
G1 X77.982 Y111.160 E26.29370
G1 X77.704 Y110.585 E26.32206
G1 X76.913 Y108.331 E26.42828
G1 X76.770 Y107.709 E26.45664
G1 X76.500 Y105.335 E26.56286
G1 X76.499 Y104.697 E26.59122
G1 X76.763 Y102.323 E26.69744
G1 X76.905 Y101.700 E26.72580
G1 X77.691 Y99.444 E26.83202
G1 X77.967 Y98.869 E26.86039
G1 X79.236 Y96.845 E26.96660
G1 X79.633 Y96.345 E26.99497
G1 X80.797 Y95.179 E27.06823
G1 X81.034 Y95.415 F7800.000
G1 F1800.000
G1 X81.544 Y94.903 E27.10035
G1 X82.013 Y94.528 E27.12705
G1 X84.003 Y93.275 E27.23159
G1 X84.543 Y93.013 E27.25829
G1 X86.762 Y92.234 E27.36284
G1 X87.347 Y92.100 E27.38953
G1 X89.684 Y91.834 E27.49408
G1 X90.284 Y91.833 E27.52078
G1 X92.622 Y92.093 E27.62533
G1 X93.207 Y92.226 E27.65202
G1 X95.428 Y93.000 E27.75657
G1 X95.969 Y93.260 E27.78327
G1 X97.962 Y94.509 E27.88782
G1 X98.432 Y94.883 E27.91451
G1 X100.097 Y96.544 E28.01906
G1 X100.472 Y97.013 E28.04576
G1 X101.725 Y99.003 E28.15030
G1 X101.987 Y99.543 E28.17700
G1 X102.766 Y101.762 E28.28155
G1 X102.900 Y102.347 E28.30824
G1 X103.166 Y104.684 E28.41279
G1 X103.167 Y105.284 E28.43949
G1 X102.907 Y107.622 E28.54404
G1 X102.774 Y108.207 E28.57073
G1 X102.000 Y110.428 E28.67528
G1 X101.740 Y110.969 E28.70198
G1 X100.491 Y112.962 E28.80653
G1 X100.117 Y113.432 E28.83322
G1 X98.456 Y115.097 E28.93777
G1 X97.987 Y115.472 E28.96447
G1 X95.997 Y116.725 E29.06901
G1 X95.457 Y116.987 E29.09571
G1 X93.238 Y117.766 E29.20026
G1 X92.653 Y117.900 E29.22696
G1 X90.316 Y118.166 E29.33150
G1 X89.716 Y118.167 E29.35820
G1 X87.378 Y117.907 E29.46275
G1 X86.793 Y117.774 E29.48944
G1 X84.572 Y117.000 E29.59399
G1 X84.031 Y116.740 E29.62069
G1 X82.038 Y115.491 E29.72524
G1 X81.568 Y115.117 E29.75193
G1 X79.903 Y113.456 E29.85648
G1 X79.528 Y112.987 E29.88318
G1 X78.275 Y110.997 E29.98772
G1 X78.013 Y110.457 E30.01442
G1 X77.234 Y108.238 E30.11897
G1 X77.100 Y107.653 E30.14567
G1 X76.834 Y105.316 E30.25021
G1 X76.833 Y104.716 E30.27691
G1 X77.093 Y102.378 E30.38146
G1 X77.226 Y101.793 E30.40815
G1 X78.000 Y99.572 E30.51270
G1 X78.260 Y99.031 E30.53940
G1 X79.509 Y97.038 E30.64395
G1 X79.883 Y96.568 E30.67064
G1 X80.991 Y95.457 E30.74041
G1 X81.228 Y95.693 F7800.000
G1 F1800.000
G1 X81.767 Y95.152 E30.77436
G1 X82.207 Y94.801 E30.79938
G1 X84.165 Y93.567 E30.90226
G1 X84.672 Y93.323 E30.92729
G1 X86.855 Y92.556 E31.03017
G1 X87.404 Y92.430 E31.05520
G1 X89.703 Y92.168 E31.15808
G1 X90.266 Y92.167 E31.18311
G1 X92.566 Y92.423 E31.28598
G1 X93.115 Y92.548 E31.31101
G1 X95.300 Y93.310 E31.41389
G1 X95.808 Y93.553 E31.43892
G1 X97.769 Y94.782 E31.54180
G1 X98.209 Y95.133 E31.56683
G1 X99.848 Y96.767 E31.66971
G1 X100.199 Y97.207 E31.69473
G1 X101.433 Y99.165 E31.79761
G1 X101.677 Y99.672 E31.82264
G1 X102.444 Y101.855 E31.92552
G1 X102.570 Y102.404 E31.95055
G1 X102.832 Y104.703 E32.05343
G1 X102.833 Y105.266 E32.07846
G1 X102.577 Y107.566 E32.18134
G1 X102.452 Y108.115 E32.20636
G1 X101.690 Y110.300 E32.30924
G1 X101.447 Y110.808 E32.33427
G1 X100.218 Y112.769 E32.43715
G1 X99.867 Y113.209 E32.46218
G1 X98.233 Y114.848 E32.56506
G1 X97.793 Y115.199 E32.59009
G1 X95.835 Y116.433 E32.69296
G1 X95.328 Y116.677 E32.71799
G1 X93.145 Y117.444 E32.82087
G1 X92.596 Y117.570 E32.84590
G1 X90.297 Y117.832 E32.94878
G1 X89.734 Y117.833 E32.97381
G1 X87.434 Y117.577 E33.07669
G1 X86.885 Y117.452 E33.10171
G1 X84.700 Y116.690 E33.20459
G1 X84.192 Y116.447 E33.22962
G1 X82.231 Y115.218 E33.33250
G1 X81.791 Y114.867 E33.35753
G1 X80.152 Y113.233 E33.46041
G1 X79.801 Y112.793 E33.48544
G1 X78.567 Y110.835 E33.58831
G1 X78.323 Y110.328 E33.61334
G1 X77.556 Y108.145 E33.71622
G1 X77.430 Y107.596 E33.74125
G1 X77.168 Y105.297 E33.84413
G1 X77.167 Y104.734 E33.86916
G1 X77.423 Y102.434 E33.97204
G1 X77.548 Y101.885 E33.99706
G1 X78.310 Y99.700 E34.09994
G1 X78.553 Y99.192 E34.12497
G1 X79.782 Y97.231 E34.22785
G1 X80.133 Y96.791 E34.25288
G1 X81.185 Y95.736 E34.31914
G1 X81.422 Y95.972 F7800.000
G1 F1800.000
G1 X81.990 Y95.402 E34.35492
G1 X82.401 Y95.074 E34.37828
