; Postprocessed by [ArcWelder](https://github.com/FormerLurker/ArcWelderLib)
; Copyright(C) 2020 - Brad Hochgesang
; resolution=0.05mm
; path_tolerance=5%
; max_radius=1000000.00mm
; default_xyz_precision=3
; default_e_precision=5

; generated by SuperSlicer 2.2.53 on 2021-03-14 at 16:00:32 UTC

; 

; external perimeters extrusion width = 0.45mm
; perimeters extrusion width = 0.45mm
; infill extrusion width = 0.45mm
; solid infill extrusion width = 0.45mm
; top infill extrusion width = 0.40mm
; first layer extrusion width = 0.42mm

; object:{"name":"ProbeAndFanHolder","id":"ProbeAndFanHolder.stl id:0 copy 0","object_center":[90.000000,105.000000,0.000000],"boundingbox_center":[90.000000,105.000000,13.000000],"boundingbox_size":[74.000000,65.999725,26.000000]}

M73 P0 R57
M73 Q0 S63
M107
M190 S60 ; set bed temperature and wait for it to be reached
M104 S190 ; set temperature
G28 ; home all axes
G1 Z5 F5000 ; lift nozzle
M109 S190 ; set temperature and wait for it to be reached
G21 ; set units to millimeters
G90 ; use absolute coordinates
M82 ; use absolute distances for extrusion
G92 E0
; Filament gcode
G1 Z-0.200000 F18000.000
G1 E-4.00000 F3600.00000
M73 Q0 S63
M73 P0 R57
G1 X62.964 Y67.585 F18000.000
G1 E0.00000 F3600.00000
G1 F1800.000
G3 X66.420 Y66.158 I3.567 J3.740 E0.14571
G1 X127.761 Y66.157 E2.48557
G3 X132.763 Y70.045 I-0.007 J5.170 E2.74540
G1 X132.924 Y71.256 E2.79200
G1 X132.922 Y81.694 E3.19015
G1 X132.751 Y82.858 E3.23505
G1 X132.324 Y83.949 E3.27974
G1 X131.836 Y84.705 E3.31406
G1 X88.975 Y139.811 E5.97705
G3 X85.661 Y141.746 I-4.077 J-3.177 E6.12690
G1 X68.388 Y143.754 E6.79020
G3 X52.519 Y137.885 I-1.860 J-19.360 E7.45763
G1 X51.196 Y136.359 E7.53468
G1 X49.706 Y134.155 E7.63618
G1 X48.774 Y132.338 E7.71408
G1 X48.061 Y130.502 E7.78920
G1 X47.524 Y128.537 E7.86688
G1 X47.135 Y125.894 E7.96881
G1 X47.083 Y123.851 E8.04676
G1 X47.247 Y121.817 E8.12461
G1 X47.805 Y119.112 E8.22996
G1 X61.566 Y69.886 E10.17966
G1 X62.114 Y68.640 E10.23158
G1 X62.926 Y67.631 E10.28099
G1 X63.185 Y67.841 F18000.000
G1 F1800.000
G3 X66.430 Y66.492 I3.339 J3.456 E10.41802
G1 X127.761 Y66.491 E12.75747
G3 X132.451 Y70.175 I-0.007 J4.836 E13.00234
G1 X132.590 Y71.272 E13.04452
G1 X132.588 Y81.683 E13.44166
G1 X132.426 Y82.782 E13.48404
G1 X132.014 Y83.820 E13.52664
G1 X131.572 Y84.499 E13.55756
G1 X88.711 Y139.606 E16.22055
G3 X85.595 Y141.418 I-3.812 J-2.969 E16.36133
G1 X68.352 Y143.422 E17.02350
G3 X51.461 Y136.156 I-1.819 J-19.038 E17.75490
G1 X49.989 Y133.977 E17.85521
G1 X49.077 Y132.197 E17.93150
G1 X48.377 Y130.393 E18.00531
G1 X47.852 Y128.475 E18.08119
G1 X47.467 Y125.862 E18.18192
G1 X47.417 Y123.856 E18.25846
G1 X47.578 Y121.858 E18.33492
G1 X48.126 Y119.203 E18.43834
G1 X61.886 Y69.983 E20.38782
G1 X62.400 Y68.813 E20.43658
G1 X63.147 Y67.887 E20.48196
G1 X63.406 Y68.096 F18000.000
G1 F1800.000
G3 X66.442 Y66.826 I3.114 J3.180 E20.61038
G1 X127.760 Y66.825 E22.94937
G3 X132.137 Y70.298 I-0.006 J4.503 E23.17903
G1 X132.256 Y71.280 E23.21674
G1 X132.254 Y81.677 E23.61336
G1 X132.099 Y82.712 E23.65326
G1 X131.709 Y83.682 E23.69316
G1 X131.308 Y84.294 E23.72106
G1 X88.448 Y139.400 E26.38404
G3 X85.537 Y141.088 I-3.550 J-2.767 E26.51547
G1 X68.321 Y143.089 E27.17659
G3 X51.727 Y135.953 I-1.789 J-18.702 E27.89512
G1 X50.275 Y133.804 E27.99403
G1 X49.382 Y132.062 E28.06873
G1 X48.695 Y130.290 E28.14122
G1 X48.179 Y128.406 E28.21572
G1 X47.800 Y125.830 E28.31503
G1 X47.751 Y123.867 E28.38996
G1 X47.909 Y121.905 E28.46501
G1 X48.449 Y119.289 E28.56692
G1 X62.206 Y70.080 E30.51599
G1 X62.687 Y68.984 E30.56164
G1 X63.368 Y68.143 E30.60291
G1 X63.626 Y68.353 F18000.000
G1 F1800.000
G1 X63.679 Y68.288 E30.60612
G3 X66.457 Y67.160 I2.854 J3.045 E30.72291
G1 X127.760 Y67.160 E33.06135
G3 X131.922 Y71.292 I-0.004 J4.166 E33.30919
G1 X131.920 Y81.662 E33.70476
G1 X131.774 Y82.632 E33.74218
G1 X131.403 Y83.546 E33.77980
G1 X131.044 Y84.089 E33.80463
G1 X88.184 Y139.195 E36.46761
G1 X87.749 Y139.671 E36.49221
G1 X86.701 Y140.390 E36.54069
G1 X85.480 Y140.759 E36.58936
G1 X68.290 Y142.756 E37.24948
G3 X51.995 Y135.754 I-1.759 J-18.367 E37.95495
G1 X50.561 Y133.632 E38.05265
G3 X49.012 Y130.186 I16.027 J-9.275 E38.19693
G1 X48.506 Y128.338 E38.27004
G1 X48.133 Y125.799 E38.36793
G1 X48.085 Y123.872 E38.44145
G1 X48.241 Y121.948 E38.51509
G1 X48.772 Y119.375 E38.61529
G1 X62.526 Y70.176 E40.56396
G1 X62.975 Y69.154 E40.60654
G1 X63.588 Y68.400 E40.64362
; printing object ProbeAndFanHolder.stl id:0 copy 0
G92 E0
G1 E-4.00000 F3600.00000
G1 X65.974 Y113.276 F18000.000
G1 E0.00000 F3600.00000
G1 F1800.000
G2 X66.539 Y113.262 I0.558 J11.112 E2.64434
G1 X66.034 Y113.275 E2.66364
G1 X66.043 Y113.630 F18000.000
G1 F1800.000
G2 X67.584 Y113.669 I0.499 J10.757 E5.18543
G2 X66.103 Y113.629 I-1.010 J9.963 E5.24200
G1 X66.111 Y113.984 F18000.000
G1 F1800.000
G2 X67.549 Y114.024 I0.430 J10.404 E7.68248
G2 X66.171 Y113.983 I-0.965 J9.264 E7.73508
G1 X65.893 Y113.649 F18000.000
G92 E0
G1 E-4.00000 F3600.00000
G1 X83.977 Y80.610 F18000.000
G1 E0.00000 F3600.00000
G1 F1800.000
G1 X83.977 Y135.712 E2.10188
G1 X73.646 Y135.712 E2.49595
G3 X65.863 Y111.040 I-7.110 J-11.321 E4.35778
G1 X67.452 Y111.001 E4.41842
G1 X67.452 Y72.248 E5.89665
G1 X126.834 Y72.248 E8.16178
G1 X126.834 Y80.610 E8.48074
G1 X84.037 Y80.610 E10.11324
G1 X84.332 Y80.965 F18000.000
G1 F1800.000
G1 X84.332 Y136.067 E12.21511
G1 X73.740 Y136.067 E12.61918
G3 X65.845 Y110.685 I-7.207 J-11.677 E14.52638
G1 X67.096 Y110.654 E14.57412
G1 X67.096 Y71.892 E16.05268
G1 X127.189 Y71.892 E18.34495
M73 Q1 S62
M73 P1 R56
G1 X127.189 Y80.965 E18.69103
G1 X84.392 Y80.965 E20.32354
G1 X84.688 Y81.321 F18000.000
G1 F1800.000
G1 X84.688 Y136.423 E22.42541
G1 X73.833 Y136.423 E22.83946
G3 X66.741 Y110.307 I-7.300 J-12.039 E24.82688
G1 X66.741 Y71.537 E26.30578
G1 X127.545 Y71.537 E28.62517
G1 X127.545 Y81.321 E28.99839
G1 X84.748 Y81.321 E30.63089
G1 X84.288 Y81.321 F18000.000
G92 E0
G1 E-4.00000 F3600.00000
G1 X71.236 Y114.028 F18000.000
G1 E0.00000 F3600.00000
G1 F1800.000
G1 X71.012 Y113.919 E0.00930
G1 X67.719 Y110.626 E0.18331
G1 X67.719 Y111.129 E0.20210
G1 X70.207 Y113.617 E0.33359
G1 X69.483 Y113.396 E0.36187
G1 X67.357 Y111.270 E0.47422
G1 X66.866 Y111.282 E0.49255
G1 X68.812 Y113.228 E0.59538
G1 X68.215 Y113.133 E0.61799
G1 X66.376 Y111.294 E0.71516
G1 X65.885 Y111.307 E0.73350
G1 X67.626 Y113.048 E0.82551
G1 X67.098 Y113.022 E0.84529
G1 X65.417 Y111.341 E0.93411
G1 X64.961 Y111.389 E0.95121
G1 X66.569 Y112.996 E1.03615
G1 X66.076 Y113.007 E1.05456
G1 X64.517 Y111.448 E1.13694
G1 X64.089 Y111.523 E1.15316
G1 X65.603 Y113.037 E1.23314
G1 X65.147 Y113.083 E1.25027
G1 X63.674 Y111.610 E1.32812
G1 X63.266 Y111.705 E1.34377
G1 X64.706 Y113.145 E1.41987
G1 X64.278 Y113.220 E1.43609
G1 X62.873 Y111.815 E1.51034
G2 X62.488 Y111.934 I0.916 J3.647 E1.52537
G1 X63.869 Y113.314 E1.59830
G1 X63.470 Y113.418 E1.61369
G1 X62.112 Y112.060 E1.68546
G2 X61.748 Y112.199 I0.909 J2.925 E1.70001
G1 X63.081 Y113.532 E1.77044
G1 X62.705 Y113.659 E1.78528
G1 X61.390 Y112.343 E1.85478
G1 X61.043 Y112.500 E1.86899
G1 X62.341 Y113.798 E1.93757
G1 X61.985 Y113.945 E1.95196
G1 X60.702 Y112.662 E2.01972
G1 X60.370 Y112.832 E2.03368
G1 X61.638 Y114.101 E2.10070
G1 X61.304 Y114.269 E2.11469
G1 X60.047 Y113.012 E2.18110
G1 X59.728 Y113.196 E2.19486
G1 X60.976 Y114.444 E2.26080
G1 X60.657 Y114.628 E2.27456
G1 X59.421 Y113.393 E2.33984
G1 X59.118 Y113.592 E2.35341
G1 X60.349 Y114.823 E2.41845
G1 X60.046 Y115.023 E2.43201
G1 X58.825 Y113.802 E2.49655
G1 X58.536 Y114.017 E2.50997
G1 X59.753 Y115.234 E2.57428
G1 X59.469 Y115.452 E2.58768
G1 X58.256 Y114.239 E2.65177
G1 X57.983 Y114.469 E2.66511
G1 X59.190 Y115.676 E2.72891
G1 X58.923 Y115.912 E2.74222
G1 X57.715 Y114.704 E2.80604
G1 X57.457 Y114.949 E2.81933
G1 X58.662 Y116.154 E2.88301
G1 X58.407 Y116.402 E2.89629
G1 X57.202 Y115.196 E2.95999
G1 X56.958 Y115.455 E2.97328
G1 X58.164 Y116.661 E3.03701
G1 X57.925 Y116.926 E3.05031
G1 X56.716 Y115.716 E3.11421
G1 X56.486 Y115.989 E3.12755
G1 X57.696 Y117.199 E3.19147
G1 X57.475 Y117.481 E3.20486
G1 X56.259 Y116.265 E3.26912
G1 X56.041 Y116.551 E3.28253
G1 X57.260 Y117.769 E3.34690
G1 X57.056 Y118.068 E3.36042
G1 X55.829 Y116.842 E3.42521
G1 X55.625 Y117.140 E3.43873
G1 X56.859 Y118.374 E3.50392
G1 X56.668 Y118.686 E3.51758
G1 X55.428 Y117.446 E3.58309
G1 X55.237 Y117.758 E3.59675
G1 X56.490 Y119.011 E3.66298
G1 X56.319 Y119.343 E3.67692
G1 X55.057 Y118.081 E3.74364
G1 X54.880 Y118.406 E3.75750
G1 X56.156 Y119.683 E3.82493
G1 X56.006 Y120.036 E3.83926
G1 X54.715 Y118.745 E3.90744
G1 X54.556 Y119.089 E3.92159
G1 X55.864 Y120.396 E3.99069
G1 X55.730 Y120.765 E4.00535
G1 X54.406 Y119.442 E4.07529
G1 X54.266 Y119.804 E4.08981
G1 X55.611 Y121.150 E4.16090
G1 X55.503 Y121.544 E4.17618
G1 X54.131 Y120.172 E4.24867
G1 X54.011 Y120.555 E4.26366
G1 X55.405 Y121.949 E4.33731
G1 X55.320 Y122.367 E4.35325
G1 X53.897 Y120.944 E4.42843
G1 X53.794 Y121.344 E4.44386
G1 X55.252 Y122.802 E4.52090
G1 X55.199 Y123.252 E4.53781
G1 X53.704 Y121.757 E4.61677
G2 X53.623 Y122.179 I4.264 J1.037 E4.63282
G1 X55.161 Y123.717 E4.71408
G1 X55.142 Y124.201 E4.73217
G1 X53.556 Y122.615 E4.81596
G2 X53.504 Y123.066 I4.547 J0.753 E4.83292
G1 X55.144 Y124.705 E4.91954
G1 X55.170 Y125.235 E4.93934
G1 X53.464 Y123.529 E5.02944
G1 X53.439 Y124.007 E5.04731
G1 X55.225 Y125.793 E5.14169
G1 X55.315 Y126.386 E5.16409
G1 X53.437 Y124.507 E5.26335
G2 X53.453 Y125.026 I4.822 J0.111 E5.28275
G1 X55.449 Y127.023 E5.38825
G1 X55.639 Y127.715 E5.41505
G1 X53.490 Y125.567 E5.52855
G1 X53.553 Y126.132 E5.54981
G1 X55.900 Y128.480 E5.67383
G1 X56.291 Y129.373 E5.71026
G1 X53.647 Y126.729 E5.84997
G1 X53.778 Y127.363 E5.87418
G1 X56.925 Y130.511 E6.04046
G1 X55.256 Y131.356 F18000.000
G1 F1800.000
G1 X59.004 Y135.103 E6.23845
G1 X59.215 Y135.234 E6.24774
G1 X60.318 Y135.915 F18000.000
G1 F1800.000
G1 X55.007 Y130.604 E6.52836
G1 X54.898 Y130.381 E6.53766
G1 X54.526 Y129.621 F18000.000
G1 F1800.000
G1 X61.299 Y136.393 E6.89549
G1 X62.129 Y136.720 E6.92883
G1 X54.200 Y128.791 E7.34780
G1 X53.958 Y128.046 E7.37706
G1 X63.105 Y137.193 E7.86036
G92 E0
G1 E-4.00000 F3600.00000
G1 X60.402 Y133.987 F18000.000
G1 E0.00000 F3600.00000
G1 F1800.000
G1 X63.553 Y137.138 E0.16648
G1 X64.187 Y137.270 E0.19069
G1 X61.551 Y134.633 E0.33000
G1 X62.436 Y135.015 E0.36603
G1 X64.785 Y137.364 E0.49015
G1 X65.352 Y137.429 E0.51147
G1 X63.207 Y135.284 E0.62478
G1 X63.894 Y135.468 E0.65135
G1 X65.894 Y137.468 E0.75701
G1 X66.413 Y137.484 E0.77642
G1 X64.529 Y135.599 E0.87599
G1 X65.121 Y135.689 E0.89839
G1 X66.909 Y137.476 E0.99282
G1 X67.388 Y137.453 E1.01076
G1 X65.680 Y135.745 E1.10101
G1 X66.210 Y135.772 E1.12085
G1 X67.854 Y137.416 E1.20770
G1 X68.304 Y137.363 E1.22461
G1 X66.713 Y135.772 E1.30864
G1 X67.193 Y135.749 E1.32657
G1 X68.738 Y137.294 E1.40820
G2 X69.162 Y137.216 I-0.678 J-4.877 E1.42434
G1 X67.670 Y135.723 E1.50319
G1 X68.108 Y135.658 E1.51974
G1 X69.574 Y137.125 E1.59722
G1 X69.973 Y137.021 E1.61262
G1 X68.546 Y135.593 E1.68803
G1 X68.965 Y135.509 E1.70400
G1 X70.365 Y136.910 E1.77799
G1 X70.744 Y136.785 E1.79288
G1 X69.367 Y135.409 E1.86562
G1 X69.769 Y135.308 E1.88111
G1 X71.115 Y136.653 E1.95219
G1 X71.478 Y136.514 E1.96673
G1 X70.145 Y135.181 E2.03715
G1 X70.516 Y135.048 E2.05185
G1 X71.829 Y136.361 E2.12123
G2 X72.175 Y136.205 I-1.209 J-3.144 E2.13544
G1 X70.886 Y134.916 E2.20355
G1 X71.228 Y134.755 E2.21767
G1 X72.510 Y136.037 E2.28541
G2 X72.839 Y135.863 I-1.704 J-3.621 E2.29932
G1 X71.569 Y134.593 E2.36640
G1 X71.910 Y134.431 E2.38050
G1 X73.160 Y135.681 E2.44653
G1 X73.481 Y135.499 E2.46031
G1 X72.224 Y134.242 E2.52669
G1 X72.539 Y134.054 E2.54038
G1 X73.930 Y135.445 E2.61387
G1 X74.433 Y135.445 E2.63266
G1 X72.853 Y133.866 E2.71610
G1 X73.143 Y133.652 E2.72954
G1 X74.935 Y135.445 E2.82427
G1 X75.438 Y135.445 E2.84305
G1 X73.431 Y133.438 E2.94910
G1 X73.720 Y133.224 E2.96253
G1 X75.941 Y135.445 E3.07989
G1 X76.444 Y135.445 E3.09868
G1 X73.987 Y132.988 E3.22849
G1 X74.251 Y132.749 E3.24180
G1 X76.947 Y135.445 E3.38425
G1 X77.450 Y135.445 E3.40304
G1 X74.515 Y132.510 E3.55812
G1 X74.761 Y132.253 E3.57141
G1 X77.953 Y135.445 E3.74007
G1 X78.456 Y135.445 E3.75886
G1 X75.000 Y131.989 E3.94147
G1 X75.239 Y131.725 E3.95477
G1 X78.959 Y135.445 E4.15131
G1 X79.462 Y135.445 E4.17010
G1 X75.463 Y131.446 E4.38136
G1 X75.678 Y131.158 E4.39479
G1 X79.965 Y135.445 E4.62130
G1 X80.468 Y135.445 E4.64009
G1 X75.892 Y130.869 E4.88185
G1 X76.094 Y130.568 E4.89540
G1 X80.971 Y135.445 E5.15307
G1 X81.473 Y135.445 E5.17186
G1 X76.282 Y130.254 E5.44614
G1 X76.471 Y129.939 E5.45984
G1 X81.976 Y135.445 E5.75074
G1 X82.479 Y135.445 E5.76953
G1 X76.648 Y129.613 E6.07765
G1 X76.809 Y129.272 E6.09176
G1 X82.982 Y135.445 E6.41792
G1 X83.485 Y135.445 E6.43671
G1 X76.971 Y128.930 E6.78091
G1 X77.119 Y128.575 E6.79528
G1 X83.710 Y135.167 E7.14354
G1 X83.710 Y134.664 E7.16233
G1 X77.251 Y128.205 E7.50359
G1 X77.384 Y127.835 E7.51829
G1 X83.710 Y134.161 E7.85255
G1 X83.710 Y133.658 E7.87134
G1 X77.496 Y127.444 E8.19964
G1 X77.597 Y127.042 E8.21513
G1 X83.710 Y133.155 E8.53811
G1 X83.710 Y132.652 E8.55690
G1 X77.698 Y126.640 E8.87456
G1 X77.765 Y126.205 E8.89102
G1 X83.710 Y132.149 E9.20511
G1 X83.710 Y131.646 E9.22390
G1 X77.830 Y125.767 E9.53456
G1 X77.879 Y125.312 E9.55164
G1 X83.710 Y131.143 E9.85974
G1 X83.710 Y130.641 E9.87853
G1 X77.902 Y124.833 E10.18539
G1 X77.922 Y124.350 E10.20345
G1 X83.710 Y130.138 E10.50925
G1 X83.710 Y129.635 E10.52804
G1 X77.896 Y123.821 E10.83521
G1 X77.870 Y123.292 E10.85500
G1 X83.710 Y129.132 E11.16355
G1 X83.710 Y128.629 E11.18234
G1 X77.785 Y122.704 E11.49539
G1 X77.690 Y122.106 E11.51799
G1 X83.710 Y128.126 E11.83604
G1 X83.710 Y127.623 E11.85483
G1 X77.522 Y121.435 E12.18176
G1 X77.301 Y120.711 E12.21003
G1 X83.710 Y127.120 E12.54863
G1 X83.710 Y126.617 E12.56742
G1 X76.999 Y119.907 E12.92198
G1 X76.891 Y119.683 E12.93128
G1 X76.528 Y118.932 F18000.000
G1 F1800.000
G1 X83.870 Y126.274 E13.31921
G92 E0
G1 E-4.00000 F3600.00000
G1 X71.987 Y114.391 F18000.000
G1 E0.00000 F3600.00000
G1 F1800.000
G1 X67.719 Y110.123 E0.22552
G1 X67.719 Y109.620 E0.24431
G1 X83.710 Y125.611 E1.08922
G1 X83.710 Y125.108 E1.10801
G1 X67.719 Y109.117 E1.95293
G1 X67.719 Y108.614 E1.97172
G1 X83.710 Y124.605 E2.81663
G1 X83.710 Y124.103 E2.83542
G1 X67.719 Y108.111 E3.68034
G1 X67.719 Y107.608 E3.69913
G1 X83.710 Y123.600 E4.54405
G1 X83.710 Y123.097 E4.56284
G1 X67.719 Y107.105 E5.40775
G1 X67.719 Y106.602 E5.42654
G1 X83.710 Y122.594 E6.27146
G1 X83.710 Y122.091 E6.29025
G1 X67.719 Y106.099 E7.13517
G1 X67.719 Y105.596 E7.15395
G1 X83.710 Y121.588 E7.99887
G1 X83.710 Y121.085 E8.01766
G1 X67.719 Y105.094 E8.86258
G1 X67.719 Y104.591 E8.88137
G1 X83.710 Y120.582 E9.72628
G1 X83.710 Y120.079 E9.74507
G1 X67.719 Y104.088 E10.58999
G1 X67.719 Y103.585 E10.60878
G1 X83.710 Y119.576 E11.45370
G1 X83.710 Y119.073 E11.47249
G1 X67.719 Y103.082 E12.31740
G1 X67.719 Y102.579 E12.33619
G1 X83.710 Y118.570 E13.18111
G1 X83.710 Y118.068 E13.19990
G1 X67.719 Y102.076 E14.04481
G1 X67.719 Y101.573 E14.06360
G1 X83.710 Y117.565 E14.90852
G1 X83.710 Y117.062 E14.92731
G1 X67.719 Y101.070 E15.77223
G1 X67.719 Y100.567 E15.79102
G1 X83.710 Y116.559 E16.63593
G1 X83.710 Y116.056 E16.65472
G1 X67.719 Y100.064 E17.49964
G1 X67.719 Y99.561 E17.51843
G1 X83.710 Y115.553 E18.36334
G1 X83.710 Y115.050 E18.38213
G1 X67.719 Y99.058 E19.22705
G1 X67.719 Y98.556 E19.24584
G1 X83.710 Y114.547 E20.09076
G1 X83.710 Y114.044 E20.10955
G1 X67.719 Y98.053 E20.95446
G1 X67.719 Y97.550 E20.97325
G1 X83.710 Y113.541 E21.81817
G1 X83.710 Y113.038 E21.83696
G1 X67.719 Y97.047 E22.68187
G1 X67.719 Y96.544 E22.70066
G1 X83.710 Y112.535 E23.54558
G1 X83.710 Y112.032 E23.56437
G1 X67.719 Y96.041 E24.40929
G1 X67.719 Y95.538 E24.42808
G1 X83.710 Y111.530 E25.27299
G1 X83.710 Y111.027 E25.29178
G1 X67.719 Y95.035 E26.13670
G1 X67.719 Y94.532 E26.15549
G1 X83.710 Y110.524 E27.00041
G1 X83.710 Y110.021 E27.01919
G1 X67.719 Y94.029 E27.86411
G1 X67.719 Y93.526 E27.88290
G1 X83.710 Y109.518 E28.72782
