; generated by SuperSlicer 2.2.53 on 2021-03-14 at 16:00:32 UTC

; 

; external perimeters extrusion width = 0.45mm
; perimeters extrusion width = 0.45mm
; infill extrusion width = 0.45mm
; solid infill extrusion width = 0.45mm
; top infill extrusion width = 0.40mm
; first layer extrusion width = 0.42mm

; object:{"name":"ProbeAndFanHolder","id":"ProbeAndFanHolder.stl id:0 copy 0","object_center":[90.000000,105.000000,0.000000],"boundingbox_center":[90.000000,105.000000,13.000000],"boundingbox_size":[74.000000,65.999725,26.000000]}

M73 P0 R57
M73 Q0 S63
M107
M190 S60 ; set bed temperature and wait for it to be reached
M104 S190 ; set temperature
G28 ; home all axes
G1 Z5 F5000 ; lift nozzle
M109 S190 ; set temperature and wait for it to be reached
G21 ; set units to millimeters
G90 ; use absolute coordinates
M82 ; use absolute distances for extrusion
G92 E0
; Filament gcode
G1 Z-0.200000 F18000.000
G1 E-4.00000 F3600.00000
M73 Q0 S63
M73 P0 R57
G1 X62.964 Y67.585 F18000.000
G1 E0.00000 F3600.00000
G1 F1800.000
G1 X63.712 Y66.993 E0.03637
G1 X64.556 Y66.549 E0.07275
G1 X65.472 Y66.267 E0.10933
G1 X66.420 Y66.158 E0.14571
G1 X127.761 Y66.157 E2.48557
G1 X128.611 Y66.228 E2.51810
G1 X129.432 Y66.437 E2.55042
G1 X130.213 Y66.779 E2.58295
G1 X130.927 Y67.245 E2.61549
G1 X131.555 Y67.822 E2.64802
G1 X132.080 Y68.494 E2.68055
G1 X132.487 Y69.244 E2.71308
G1 X132.763 Y70.045 E2.74540
G1 X132.924 Y71.256 E2.79200
G1 X132.922 Y81.694 E3.19015
G1 X132.751 Y82.858 E3.23505
G1 X132.324 Y83.949 E3.27974
G1 X131.836 Y84.705 E3.31406
G1 X88.975 Y139.811 E5.97705
G1 X88.467 Y140.373 E6.00596
G1 X87.854 Y140.874 E6.03614
G1 X87.167 Y141.278 E6.06653
G1 X86.432 Y141.570 E6.09672
G1 X85.661 Y141.746 E6.12690
G1 X68.388 Y143.754 E6.79020
G1 X66.536 Y143.842 E6.86093
G1 X65.377 Y143.809 E6.90514
G1 X63.514 Y143.608 E6.97662
G1 X61.630 Y143.216 E7.05003
G1 X59.794 Y142.640 E7.12344
G1 X58.105 Y141.923 E7.19342
G1 X56.414 Y141.005 E7.26682
G1 X55.396 Y140.341 E7.31317
G1 X53.942 Y139.222 E7.38315
G1 X52.519 Y137.885 E7.45763
G1 X51.196 Y136.359 E7.53468
G1 X49.706 Y134.155 E7.63618
G1 X48.774 Y132.338 E7.71408
G1 X48.061 Y130.502 E7.78920
G1 X47.524 Y128.537 E7.86688
G1 X47.135 Y125.894 E7.96881
G1 X47.083 Y123.851 E8.04676
G1 X47.247 Y121.817 E8.12461
G1 X47.805 Y119.112 E8.22996
G1 X61.566 Y69.886 E10.17966
G1 X62.114 Y68.640 E10.23158
G1 X62.926 Y67.631 E10.28099
G1 X63.185 Y67.841 F18000.000
G1 F1800.000
G1 X63.902 Y67.268 E10.31600
G1 X64.690 Y66.855 E10.34993
G1 X65.541 Y66.594 E10.38387
G1 X66.430 Y66.492 E10.41802
G1 X127.761 Y66.491 E12.75747
G1 X128.561 Y66.559 E12.78811
G1 X129.339 Y66.758 E12.81874
G1 X130.068 Y67.081 E12.84917
G1 X130.739 Y67.522 E12.87980
G1 X131.328 Y68.068 E12.91044
G1 X131.818 Y68.705 E12.94107
G1 X132.196 Y69.413 E12.97171
G1 X132.451 Y70.175 E13.00234
G1 X132.590 Y71.272 E13.04452
G1 X132.588 Y81.683 E13.44166
G1 X132.426 Y82.782 E13.48404
G1 X132.014 Y83.820 E13.52664
G1 X131.572 Y84.499 E13.55756
G1 X88.711 Y139.606 E16.22055
G1 X88.226 Y140.140 E16.24808
G1 X87.654 Y140.606 E16.27624
G1 X87.012 Y140.982 E16.30460
G1 X86.320 Y141.254 E16.33296
G1 X85.595 Y141.418 E16.36133
G1 X68.352 Y143.422 E17.02350
G1 X66.530 Y143.508 E17.09307
G1 X65.394 Y143.475 E17.13641
G1 X63.562 Y143.277 E17.20670
G1 X61.710 Y142.891 E17.27885
G1 X59.906 Y142.325 E17.35101
G1 X58.240 Y141.617 E17.42006
G1 X56.583 Y140.716 E17.49200
G1 X55.590 Y140.069 E17.53720
G1 X54.156 Y138.964 E17.60625
G1 X52.750 Y137.643 E17.67985
G1 X51.461 Y136.156 E17.75490
G1 X49.989 Y133.977 E17.85521
G1 X49.077 Y132.197 E17.93150
G1 X48.377 Y130.393 E18.00531
G1 X47.852 Y128.475 E18.08119
G1 X47.467 Y125.862 E18.18192
G1 X47.417 Y123.856 E18.25846
G1 X47.578 Y121.858 E18.33492
G1 X48.126 Y119.203 E18.43834
G1 X61.886 Y69.983 E20.38782
G1 X62.400 Y68.813 E20.43658
G1 X63.147 Y67.887 E20.48196
G1 X63.406 Y68.096 F18000.000
G1 F1800.000
G1 X64.091 Y67.544 E20.51555
G1 X64.829 Y67.159 E20.54729
G1 X65.620 Y66.918 E20.57884
G1 X66.442 Y66.826 E20.61038
G1 X127.760 Y66.825 E22.94937
G1 X128.506 Y66.889 E22.97793
G1 X129.237 Y67.076 E23.00669
G1 X129.925 Y67.383 E23.03544
G1 X130.553 Y67.801 E23.06420
G1 X131.102 Y68.317 E23.09296
G1 X131.558 Y68.918 E23.12171
G1 X131.906 Y69.586 E23.15047
G1 X132.137 Y70.298 E23.17903
G1 X132.256 Y71.280 E23.21674
G1 X132.254 Y81.677 E23.61336
G1 X132.099 Y82.712 E23.65326
G1 X131.709 Y83.682 E23.69316
G1 X131.308 Y84.294 E23.72106
G1 X88.448 Y139.400 E26.38404
G1 X87.990 Y139.904 E26.41001
G1 X87.453 Y140.339 E26.43637
G1 X86.855 Y140.686 E26.46274
G1 X86.211 Y140.938 E26.48911
G1 X85.537 Y141.088 E26.51547
G1 X68.321 Y143.089 E27.17659
G1 X66.524 Y143.174 E27.24522
G1 X65.411 Y143.141 E27.28768
G1 X63.615 Y142.947 E27.35658
G1 X61.796 Y142.568 E27.42748
G1 X60.022 Y142.011 E27.49838
G1 X58.379 Y141.313 E27.56648
G1 X56.751 Y140.428 E27.63718
G1 X55.784 Y139.796 E27.68123
G1 X54.373 Y138.711 E27.74913
G1 X52.985 Y137.405 E27.82183
G1 X51.727 Y135.953 E27.89512
G1 X50.275 Y133.804 E27.99403
G1 X49.382 Y132.062 E28.06873
G1 X48.695 Y130.290 E28.14122
G1 X48.179 Y128.406 E28.21572
G1 X47.800 Y125.830 E28.31503
G1 X47.751 Y123.867 E28.38996
G1 X47.909 Y121.905 E28.46501
G1 X48.449 Y119.289 E28.56692
G1 X62.206 Y70.080 E30.51599
G1 X62.687 Y68.984 E30.56164
G1 X63.368 Y68.143 E30.60291
G1 X63.626 Y68.353 F18000.000
G1 F1800.000
G1 X63.679 Y68.288 E30.60612
G1 X64.283 Y67.818 E30.63532
G1 X64.963 Y67.466 E30.66451
G1 X65.696 Y67.244 E30.69371
G1 X66.457 Y67.160 E30.72291
G1 X127.760 Y67.160 E33.06135
G1 X128.463 Y67.220 E33.08825
G1 X129.140 Y67.397 E33.11496
G1 X129.779 Y67.684 E33.14166
G1 X130.364 Y68.077 E33.16856
G1 X130.875 Y68.564 E33.19546
G1 X131.293 Y69.125 E33.22217
G1 X131.612 Y69.749 E33.24888
G1 X131.823 Y70.422 E33.27578
G1 X131.922 Y71.292 E33.30919
G1 X131.920 Y81.662 E33.70476
G1 X131.774 Y82.632 E33.74218
G1 X131.403 Y83.546 E33.77980
G1 X131.044 Y84.089 E33.80463
G1 X88.184 Y139.195 E36.46761
G1 X87.749 Y139.671 E36.49221
G1 X86.701 Y140.390 E36.54069
G1 X85.480 Y140.759 E36.58936
G1 X68.290 Y142.756 E37.24948
G1 X66.518 Y142.840 E37.31715
G1 X65.433 Y142.808 E37.35853
G1 X63.668 Y142.617 E37.42625
G1 X61.881 Y142.245 E37.49590
G1 X60.134 Y141.696 E37.56574
G1 X58.519 Y141.010 E37.63269
G1 X56.920 Y140.139 E37.70214
G1 X55.982 Y139.527 E37.74486
G1 X54.590 Y138.457 E37.81182
G1 X53.224 Y137.171 E37.88338
G1 X51.995 Y135.754 E37.95495
G1 X50.561 Y133.632 E38.05265
G1 X49.686 Y131.921 E38.12594
G1 X49.012 Y130.186 E38.19693
G1 X48.506 Y128.338 E38.27004
G1 X48.133 Y125.799 E38.36793
G1 X48.085 Y123.872 E38.44145
G1 X48.241 Y121.948 E38.51509
G1 X48.772 Y119.375 E38.61529
G1 X62.526 Y70.176 E40.56396
G1 X62.975 Y69.154 E40.60654
G1 X63.588 Y68.400 E40.64362
; printing object ProbeAndFanHolder.stl id:0 copy 0
G92 E0
G1 E-4.00000 F3600.00000
G1 X65.974 Y113.276 F18000.000
G1 E0.00000 F3600.00000
G1 F1800.000
G1 X65.421 Y113.318 E0.02116
G1 X64.875 Y113.386 E0.04214
G1 X64.329 Y113.482 E0.06329
G1 X63.788 Y113.606 E0.08446
G1 X63.254 Y113.756 E0.10562
G1 X62.728 Y113.932 E0.12678
G1 X62.211 Y114.135 E0.14794
G1 X61.706 Y114.363 E0.16910
G1 X61.212 Y114.616 E0.19026
G1 X60.731 Y114.893 E0.21142
G1 X60.265 Y115.194 E0.23258
G1 X59.815 Y115.518 E0.25374
G1 X59.381 Y115.864 E0.27490
G1 X58.965 Y116.231 E0.29606
G1 X58.568 Y116.618 E0.31722
G1 X58.190 Y117.024 E0.33838
G1 X57.834 Y117.449 E0.35954
G1 X57.499 Y117.891 E0.38070
G1 X57.186 Y118.350 E0.40186
G1 X56.897 Y118.823 E0.42302
G1 X56.631 Y119.310 E0.44418
G1 X56.391 Y119.810 E0.46534
G1 X56.175 Y120.321 E0.48651
G1 X55.984 Y120.847 E0.50784
G1 X55.821 Y121.372 E0.52883
G1 X55.685 Y121.910 E0.54999
G1 X55.574 Y122.454 E0.57115
G1 X55.492 Y123.002 E0.59231
G1 X55.436 Y123.554 E0.61347
G1 X55.409 Y124.108 E0.63463
G1 X55.408 Y124.663 E0.65579
G1 X55.436 Y125.217 E0.67695
G1 X55.491 Y125.769 E0.69811
G1 X55.574 Y126.317 E0.71927
G1 X55.683 Y126.861 E0.74043
G1 X55.821 Y127.403 E0.76177
G1 X55.984 Y127.929 E0.78276
G1 X56.175 Y128.455 E0.80410
G1 X56.391 Y128.966 E0.82526
G1 X56.631 Y129.466 E0.84642
G1 X56.897 Y129.953 E0.86758
G1 X57.186 Y130.426 E0.88874
G1 X57.499 Y130.884 E0.90990
G1 X57.834 Y131.326 E0.93106
G1 X58.190 Y131.751 E0.95222
G1 X58.568 Y132.158 E0.97338
G1 X58.965 Y132.545 E0.99454
G1 X59.381 Y132.912 E1.01570
G1 X59.815 Y133.258 E1.03686
G1 X60.265 Y133.582 E1.05803
G1 X60.731 Y133.883 E1.07919
G1 X61.212 Y134.160 E1.10035
G1 X61.706 Y134.413 E1.12151
G1 X62.211 Y134.641 E1.14267
G1 X62.728 Y134.843 E1.16383
G1 X63.254 Y135.020 E1.18499
G1 X63.788 Y135.170 E1.20615
G1 X64.329 Y135.293 E1.22731
G1 X64.875 Y135.390 E1.24847
G1 X65.425 Y135.458 E1.26963
G1 X65.978 Y135.500 E1.29079
G1 X66.544 Y135.514 E1.31237
G1 X67.619 Y135.461 E1.35342
G1 X68.699 Y135.301 E1.39508
G1 X69.759 Y135.036 E1.43673
G1 X70.787 Y134.668 E1.47839
G1 X71.774 Y134.201 E1.52005
G1 X72.711 Y133.640 E1.56170
G1 X73.588 Y132.990 E1.60336
G1 X74.397 Y132.256 E1.64501
G1 X75.131 Y131.447 E1.68667
G1 X75.781 Y130.570 E1.72833
G1 X76.343 Y129.634 E1.76998
G1 X76.810 Y128.646 E1.81164
G1 X77.178 Y127.618 E1.85330
G1 X77.443 Y126.559 E1.89495
G1 X77.603 Y125.479 E1.93661
G1 X77.657 Y124.388 E1.97827
G1 X77.603 Y123.297 E2.01992
G1 X77.443 Y122.217 E2.06158
G1 X77.178 Y121.158 E2.10323
G1 X76.810 Y120.129 E2.14489
G1 X76.343 Y119.142 E2.18655
G1 X75.781 Y118.206 E2.22820
G1 X75.131 Y117.329 E2.26986
G1 X74.397 Y116.519 E2.31152
G1 X73.588 Y115.786 E2.35317
G1 X72.711 Y115.136 E2.39483
G1 X71.774 Y114.574 E2.43649
G1 X70.787 Y114.108 E2.47814
G1 X69.759 Y113.740 E2.51980
G1 X68.699 Y113.475 E2.56145
G1 X67.619 Y113.315 E2.60311
G1 X66.539 Y113.262 E2.64434
G1 X66.034 Y113.275 E2.66364
G1 X66.043 Y113.630 F18000.000
G1 F1800.000
G1 X65.456 Y113.672 E2.68607
G1 X64.928 Y113.738 E2.70638
G1 X64.399 Y113.831 E2.72686
G1 X63.875 Y113.950 E2.74734
G1 X63.358 Y114.096 E2.76783
G1 X62.849 Y114.267 E2.78831
G1 X62.349 Y114.463 E2.80879
G1 X61.860 Y114.684 E2.82928
G1 X61.382 Y114.928 E2.84976
G1 X60.917 Y115.197 E2.87025
G1 X60.466 Y115.488 E2.89073
G1 X60.030 Y115.801 E2.91121
G1 X59.610 Y116.136 E2.93170
G1 X59.207 Y116.491 E2.95218
G1 X58.822 Y116.866 E2.97266
G1 X58.457 Y117.260 E2.99315
G1 X58.112 Y117.671 E3.01363
G1 X57.788 Y118.099 E3.03412
G1 X57.485 Y118.543 E3.05460
G1 X57.205 Y119.001 E3.07508
G1 X56.948 Y119.472 E3.09557
G1 X56.715 Y119.956 E3.11605
G1 X56.506 Y120.451 E3.13654
G1 X56.321 Y120.960 E3.15720
G1 X56.164 Y121.469 E3.17751
G1 X56.031 Y121.989 E3.19799
G1 X55.925 Y122.515 E3.21847
G1 X55.845 Y123.046 E3.23896
G1 X55.791 Y123.581 E3.25944
G1 X55.764 Y124.117 E3.27992
G1 X55.764 Y124.654 E3.30041
G1 X55.791 Y125.190 E3.32089
G1 X55.844 Y125.725 E3.34138
G1 X55.924 Y126.256 E3.36186
G1 X56.030 Y126.782 E3.38235
G1 X56.164 Y127.307 E3.40300
G1 X56.321 Y127.816 E3.42332
G1 X56.506 Y128.325 E3.44397
G1 X56.715 Y128.820 E3.46446
G1 X56.948 Y129.303 E3.48494
G1 X57.205 Y129.775 E3.50543
G1 X57.485 Y130.233 E3.52591
G1 X57.788 Y130.677 E3.54640
G1 X58.112 Y131.105 E3.56688
G1 X58.457 Y131.516 E3.58736
G1 X58.822 Y131.909 E3.60785
G1 X59.207 Y132.284 E3.62833
G1 X59.610 Y132.640 E3.64882
G1 X60.030 Y132.974 E3.66930
G1 X60.466 Y133.288 E3.68978
G1 X60.917 Y133.579 E3.71027
G1 X61.382 Y133.847 E3.73075
G1 X61.860 Y134.092 E3.75123
G1 X62.349 Y134.313 E3.77172
G1 X62.849 Y134.509 E3.79220
G1 X63.358 Y134.680 E3.81269
G1 X63.875 Y134.825 E3.83317
G1 X64.399 Y134.945 E3.85365
G1 X64.928 Y135.038 E3.87414
G1 X65.461 Y135.104 E3.89462
G1 X65.996 Y135.144 E3.91511
G1 X66.540 Y135.158 E3.93585
G1 X67.584 Y135.107 E3.97573
G1 X68.630 Y134.952 E4.01606
G1 X69.655 Y134.695 E4.05638
G1 X70.651 Y134.339 E4.09670
G1 X71.606 Y133.887 E4.13703
G1 X72.513 Y133.344 E4.17735
G1 X73.362 Y132.714 E4.21767
G1 X74.146 Y132.005 E4.25800
G1 X74.856 Y131.221 E4.29832
G1 X75.485 Y130.372 E4.33864
G1 X76.029 Y129.466 E4.37897
G1 X76.481 Y128.510 E4.41929
G1 X76.837 Y127.515 E4.45961
G1 X77.094 Y126.489 E4.49994
G1 X77.249 Y125.444 E4.54026
G1 X77.301 Y124.388 E4.58058
G1 X77.249 Y123.332 E4.62091
G1 X77.094 Y122.286 E4.66123
G1 X76.837 Y121.261 E4.70155
G1 X76.481 Y120.266 E4.74188
G1 X76.029 Y119.310 E4.78220
G1 X75.485 Y118.403 E4.82252
G1 X74.856 Y117.554 E4.86285
G1 X74.146 Y116.771 E4.90317
G1 X73.362 Y116.061 E4.94349
G1 X72.513 Y115.432 E4.98382
G1 X71.606 Y114.889 E5.02414
G1 X70.651 Y114.437 E5.06446
G1 X69.655 Y114.081 E5.10479
G1 X68.630 Y113.824 E5.14511
G1 X67.584 Y113.669 E5.18543
G1 X66.535 Y113.618 E5.22549
G1 X66.103 Y113.629 E5.24200
G1 X66.111 Y113.984 F18000.000
G1 F1800.000
G1 X65.491 Y114.026 E5.26570
G1 X64.981 Y114.090 E5.28534
G1 X64.469 Y114.180 E5.30514
G1 X63.963 Y114.295 E5.32495
G1 X63.463 Y114.436 E5.34476
G1 X62.971 Y114.601 E5.36457
G1 X62.488 Y114.791 E5.38437
G1 X62.014 Y115.004 E5.40418
G1 X61.552 Y115.241 E5.42399
G1 X61.102 Y115.500 E5.44380
G1 X60.666 Y115.782 E5.46360
G1 X60.244 Y116.085 E5.48341
G1 X59.838 Y116.409 E5.50322
G1 X59.449 Y116.752 E5.52302
G1 X59.077 Y117.115 E5.54283
G1 X58.724 Y117.495 E5.56264
G1 X58.390 Y117.893 E5.58245
G1 X58.076 Y118.307 E5.60225
G1 X57.784 Y118.736 E5.62206
G1 X57.513 Y119.179 E5.64187
G1 X57.264 Y119.635 E5.66168
G1 X57.039 Y120.103 E5.68148
G1 X56.837 Y120.581 E5.70129
G1 X56.658 Y121.073 E5.72127
G1 X56.506 Y121.565 E5.74091
G1 X56.378 Y122.068 E5.76071
G1 X56.275 Y122.577 E5.78052
G1 X56.198 Y123.091 E5.80033
G1 X56.146 Y123.607 E5.82013
G1 X56.120 Y124.126 E5.83994
G1 X56.120 Y124.645 E5.85975
G1 X56.145 Y125.164 E5.87956
G1 X56.197 Y125.681 E5.89936
G1 X56.274 Y126.194 E5.91917
G1 X56.377 Y126.703 E5.93898
G1 X56.506 Y127.211 E5.95896
G1 X56.658 Y127.703 E5.97859
G1 X56.837 Y128.195 E5.99857
G1 X57.039 Y128.673 E6.01838
G1 X57.264 Y129.141 E6.03819
G1 X57.513 Y129.597 E6.05800
G1 X57.784 Y130.040 E6.07780
G1 X58.076 Y130.469 E6.09761
G1 X58.390 Y130.883 E6.11742
G1 X58.724 Y131.280 E6.13723
G1 X59.077 Y131.661 E6.15703
G1 X59.449 Y132.024 E6.17684
G1 X59.838 Y132.367 E6.19665
G1 X60.244 Y132.691 E6.21646
G1 X60.666 Y132.994 E6.23626
G1 X61.102 Y133.275 E6.25607
G1 X61.552 Y133.535 E6.27588
G1 X62.014 Y133.772 E6.29569
G1 X62.488 Y133.985 E6.31549
G1 X62.971 Y134.175 E6.33530
G1 X63.463 Y134.340 E6.35511
G1 X63.963 Y134.481 E6.37491
G1 X64.469 Y134.596 E6.39472
G1 X64.981 Y134.686 E6.41453
G1 X65.496 Y134.750 E6.43434
G1 X66.014 Y134.789 E6.45414
G1 X66.535 Y134.802 E6.47405
G1 X67.549 Y134.752 E6.51277
G1 X68.560 Y134.602 E6.55176
G1 X69.552 Y134.354 E6.59075
G1 X70.514 Y134.010 E6.62974
G1 X71.438 Y133.573 E6.66873
G1 X72.315 Y133.048 E6.70772
G1 X73.136 Y132.439 E6.74671
G1 X73.894 Y131.753 E6.78570
G1 X74.580 Y130.995 E6.82469
G1 X75.189 Y130.175 E6.86368
G1 X75.715 Y129.298 E6.90267
G1 X76.152 Y128.374 E6.94166
G1 X76.496 Y127.411 E6.98065
G1 X76.745 Y126.420 E7.01964
G1 X76.895 Y125.409 E7.05863
G1 X76.945 Y124.388 E7.09762
G1 X76.895 Y123.367 E7.13661
G1 X76.745 Y122.356 E7.17560
G1 X76.496 Y121.364 E7.21459
G1 X76.152 Y120.402 E7.25358
G1 X75.715 Y119.478 E7.29257
G1 X75.189 Y118.601 E7.33156
G1 X74.580 Y117.780 E7.37055
G1 X73.894 Y117.023 E7.40954
G1 X73.136 Y116.337 E7.44853
G1 X72.315 Y115.728 E7.48752
G1 X71.438 Y115.203 E7.52651
G1 X70.514 Y114.766 E7.56551
G1 X69.552 Y114.421 E7.60450
G1 X68.560 Y114.173 E7.64349
G1 X67.549 Y114.024 E7.68248
G1 X66.531 Y113.974 E7.72137
G1 X66.171 Y113.983 E7.73508
G1 X65.893 Y113.649 F18000.000
G92 E0
G1 E-4.00000 F3600.00000
G1 X83.977 Y80.610 F18000.000
G1 E0.00000 F3600.00000
G1 F1800.000
G1 X83.977 Y135.712 E2.10188
G1 X73.646 Y135.712 E2.49595
G1 X72.834 Y136.172 E2.53155
G1 X72.240 Y136.471 E2.55692
G1 X71.632 Y136.740 E2.58229
G1 X71.017 Y136.977 E2.60742
G1 X70.379 Y137.186 E2.63303
G1 X69.738 Y137.362 E2.65839
G1 X69.088 Y137.505 E2.68376
G1 X68.433 Y137.616 E2.70913
G1 X67.778 Y137.694 E2.73426
G1 X67.109 Y137.740 E2.75986
G1 X66.444 Y137.752 E2.78523
G1 X65.779 Y137.731 E2.81059
G1 X65.116 Y137.677 E2.83596
G1 X64.463 Y137.591 E2.86110
G1 X63.803 Y137.471 E2.88670
G1 X63.155 Y137.319 E2.91206
G1 X62.516 Y137.135 E2.93743
G1 X61.887 Y136.919 E2.96280
G1 X61.269 Y136.673 E2.98817
G1 X60.665 Y136.396 E3.01353
G1 X60.075 Y136.089 E3.03890
