; generated by SuperSlicer 2.2.53 on 2021-03-27 at 21:39:29 UTC

; 

; external perimeters extrusion width = 0.45mm
; perimeters extrusion width = 0.45mm
; infill extrusion width = 0.45mm
; solid infill extrusion width = 0.45mm
; top infill extrusion width = 0.40mm
; support material extrusion width = 0.35mm
; first layer extrusion width = 0.42mm

; object:{"name":"Sphere10mmRad","id":"Sphere10mmRad.stl id:0 copy 0","object_center":[90.000000,105.000000,0.000000],"boundingbox_center":[90.000000,105.000000,10.000000],"boundingbox_size":[20.000000,20.000000,20.000000]}

M73 P0 R59
M73 Q0 S59
M107
M190 S65 ; set bed temperature and wait for it to be reached
M104 S205 ; set temperature
G28 ; home all axes
G1 Z5 F5000 ; lift nozzle
M109 S205 ; set temperature and wait for it to be reached
G21 ; set units to millimeters
G90 ; use absolute coordinates
M82 ; use absolute distances for extrusion
G92 E0
; Filament gcode
G1 Z0.300000 F7800.000
G1 E-4.00000 F3600.00000
M73 Q0 S59
M73 P0 R59
G1 X83.645 Y94.005 F7800.000
G1 E0.00000 F3600.00000
G1 F1800.000
G1 X84.103 Y93.648 E0.02212
G1 X84.613 Y93.383 E0.04406
G1 X85.163 Y93.214 E0.06601
G1 X85.735 Y93.148 E0.08796
G1 X94.190 Y93.147 E0.41049
G1 X94.755 Y93.198 E0.43211
G1 X95.297 Y93.348 E0.45355
G1 X95.804 Y93.591 E0.47500
G1 X96.263 Y93.922 E0.49661
G1 X100.986 Y98.636 E0.75115
G1 X101.595 Y99.561 E0.79338
G1 X101.788 Y100.172 E0.81783
G1 X101.853 Y100.805 E0.84212
G1 X101.852 Y109.265 E1.16482
G1 X101.787 Y109.832 E1.18660
G1 X101.619 Y110.383 E1.20855
G1 X101.352 Y110.897 E1.23066
G1 X100.998 Y111.351 E1.25261
G1 X96.415 Y115.937 E1.49994
G1 X95.882 Y116.361 E1.52590
G1 X95.276 Y116.660 E1.55169
G1 X94.252 Y116.853 E1.59144
G1 X85.801 Y116.853 E1.91380
G1 X85.198 Y116.793 E1.93692
G1 X84.617 Y116.619 E1.96003
G1 X84.103 Y116.352 E1.98215
G1 X83.649 Y115.998 E2.00410
G1 X79.063 Y111.415 E2.25143
G1 X78.639 Y110.882 E2.27738
G1 X78.340 Y110.276 E2.30317
G1 X78.147 Y109.252 E2.34292
G1 X78.147 Y100.801 E2.66528
G1 X78.207 Y100.198 E2.68840
G1 X78.381 Y99.617 E2.71152
G1 X78.677 Y99.059 E2.73564
G1 X79.075 Y98.573 E2.75959
G1 X83.603 Y94.047 E3.00379
G1 X83.815 Y94.306 F7800.000
G1 F1800.000
G1 X84.250 Y93.951 E3.02522
G1 X84.753 Y93.687 E3.04692
G1 X85.750 Y93.482 E3.08575
G1 X94.190 Y93.481 E3.40768
G1 X95.187 Y93.663 E3.44635
G1 X96.056 Y94.185 E3.48502
G1 X100.741 Y98.863 E3.73754
G1 X101.294 Y99.707 E3.77605
G1 X101.463 Y100.251 E3.79775
G1 X101.519 Y100.814 E3.81935
G1 X101.518 Y109.252 E4.14124
G1 X101.303 Y110.272 E4.18100
G1 X100.745 Y111.133 E4.22013
G1 X96.179 Y115.700 E4.46647
G1 X95.705 Y116.078 E4.48959
G1 X95.157 Y116.348 E4.51288
G1 X94.237 Y116.519 E4.54857
G1 X85.802 Y116.519 E4.87035
G1 X85.252 Y116.463 E4.89142
G1 X84.728 Y116.303 E4.91234
G1 X83.867 Y115.745 E4.95147
G1 X79.300 Y111.179 E5.19781
G1 X78.922 Y110.705 E5.22093
G1 X78.652 Y110.157 E5.24421
G1 X78.481 Y109.237 E5.27991
G1 X78.481 Y100.802 E5.60169
G1 X78.537 Y100.252 E5.62276
G1 X78.697 Y99.728 E5.64368
G1 X79.255 Y98.867 E5.68281
G1 X83.772 Y94.349 E5.92651
G1 X84.008 Y94.585 F7800.000
G1 F1800.000
G1 X84.445 Y94.223 E5.94814
G1 X84.892 Y93.991 E5.96733
G1 X85.768 Y93.815 E6.00143
G1 X94.190 Y93.815 E6.32268
G1 X95.076 Y93.979 E6.35707
G1 X95.847 Y94.446 E6.39146
G1 X100.496 Y99.090 E6.64211
G1 X100.993 Y99.852 E6.67679
G1 X101.185 Y100.764 E6.71235
G1 X101.185 Y109.186 E7.03360
G1 X100.989 Y110.156 E7.07136
G1 X100.495 Y110.910 E7.10575
G1 X95.943 Y115.463 E7.35133
G1 X95.519 Y115.800 E7.37201
G1 X95.035 Y116.036 E7.39253
G1 X94.224 Y116.185 E7.42399
G1 X85.802 Y116.185 E7.74524
G1 X84.844 Y115.989 E7.78256
G1 X84.090 Y115.495 E7.81694
G1 X79.537 Y110.943 E8.06253
G1 X79.200 Y110.519 E8.08321
G1 X78.964 Y110.035 E8.10373
G1 X78.815 Y109.224 E8.13519
G1 X78.815 Y100.802 E8.45644
G1 X79.011 Y99.844 E8.49375
G1 X79.505 Y99.090 E8.52814
G1 X83.966 Y94.627 E8.76884
G1 X84.202 Y94.863 F7800.000
G1 F1800.000
G1 X84.287 Y94.779 E8.77341
G1 X85.025 Y94.298 E8.80702
G1 X85.778 Y94.149 E8.83628
G1 X94.190 Y94.149 E9.15715
G1 X94.961 Y94.293 E9.18709
G1 X95.634 Y94.704 E9.21716
G1 X100.249 Y99.315 E9.46604
G1 X100.690 Y99.995 E9.49693
G1 X100.851 Y100.778 E9.52741
G1 X100.851 Y109.190 E9.84829
G1 X100.676 Y110.039 E9.88136
G1 X100.249 Y110.685 E9.91088
G1 X95.708 Y115.226 E10.15588
G1 X95.341 Y115.517 E10.17374
G1 X94.917 Y115.724 E10.19174
G1 X94.215 Y115.851 E10.21894
G1 X85.803 Y115.851 E10.53982
G1 X84.961 Y115.676 E10.57261
G1 X84.315 Y115.249 E10.60214
G1 X79.774 Y110.708 E10.84714
G1 X79.483 Y110.341 E10.86500
G1 X79.276 Y109.917 E10.88300
G1 X79.149 Y109.215 E10.91020
G1 X79.149 Y100.803 E11.23107
G1 X79.324 Y99.961 E11.26387
G1 X79.751 Y99.315 E11.29340
G1 X84.160 Y94.906 E11.53126
; printing object Sphere10mmRad.stl id:0 copy 0
G92 E0
G1 E-4.00000 F3600.00000
G1 X85.692 Y96.438 F7800.000
G1 E0.00000 F3600.00000
G1 F1800.000
G1 X85.814 Y96.316 E0.00658
G1 X94.186 Y96.316 E0.32593
G1 X95.839 Y97.969 E0.41511
G1 X95.839 Y99.161 E0.46056
G1 X97.031 Y99.161 E0.50601
G1 X98.684 Y100.814 E0.59519
G1 X98.684 Y109.186 E0.91454
G1 X97.031 Y110.839 E1.00372
G1 X95.839 Y110.839 E1.04917
G1 X95.839 Y112.031 E1.09461
G1 X94.186 Y113.684 E1.18380
G1 X85.814 Y113.684 E1.50314
G1 X84.161 Y112.031 E1.59233
G1 X84.161 Y110.839 E1.63777
G1 X82.969 Y110.839 E1.68322
G1 X81.316 Y109.186 E1.77240
G1 X81.316 Y100.814 E2.09175
G1 X82.969 Y99.161 E2.18093
G1 X84.161 Y99.161 E2.22638
G1 X84.161 Y97.969 E2.27183
G1 X85.650 Y96.481 E2.35214
G92 E0
G1 E-4.00000 F3600.00000
G1 X94.488 Y96.643 F7800.000
G1 E0.00000 F3600.00000
G1 F1800.000
G1 X85.739 Y96.643 E0.33373
G1 X85.383 Y96.999 E0.35291
G1 X94.617 Y96.999 E0.70513
G1 X94.972 Y97.354 E0.72432
G1 X85.027 Y97.354 E1.10367
G1 X84.672 Y97.710 E1.12286
G1 X95.328 Y97.710 E1.52934
G1 X95.661 Y98.065 E1.54793
G1 X84.339 Y98.065 E1.97983
G1 X84.339 Y98.421 E1.99340
G1 X95.661 Y98.421 E2.42530
G1 X95.661 Y98.777 E2.43887
G1 X84.339 Y98.777 E2.87077
G1 X84.339 Y99.132 E2.88434
G1 X95.661 Y99.132 E3.31624
G1 X95.661 Y99.339 E3.32412
G1 X96.957 Y99.339 E3.37354
G1 X97.106 Y99.488 E3.38159
G1 X82.894 Y99.488 E3.92373
G1 X82.538 Y99.844 E3.94291
G1 X97.462 Y99.844 E4.51217
G1 X97.817 Y100.199 E4.53136
G1 X82.183 Y100.199 E5.12776
G1 X81.827 Y100.555 E5.14694
G1 X98.173 Y100.555 E5.77047
G1 X98.506 Y100.910 E5.78905
G1 X81.494 Y100.910 E6.43797
G1 X81.494 Y101.266 E6.45153
G1 X98.506 Y101.266 E7.10046
G1 X98.506 Y101.622 E7.11402
G1 X81.494 Y101.622 E7.76295
G1 X81.494 Y101.977 E7.77651
G1 X98.506 Y101.977 E8.42543
G1 X98.506 Y102.333 E8.43900
G1 X81.494 Y102.333 E9.08792
G1 X81.494 Y102.689 E9.10149
G1 X98.506 Y102.689 E9.75041
G1 X98.506 Y103.044 E9.76397
G1 X81.494 Y103.044 E10.41290
G1 X81.494 Y103.400 E10.42646
G1 X98.506 Y103.400 E11.07539
G1 X98.506 Y103.755 E11.08895
G1 X81.494 Y103.755 E11.73787
G1 X81.494 Y104.111 E11.75144
G1 X98.506 Y104.111 E12.40036
G1 X98.506 Y104.467 E12.41393
G1 X81.494 Y104.467 E13.06285
G1 X81.494 Y104.822 E13.07642
G1 X98.506 Y104.822 E13.72534
G1 X98.506 Y105.178 E13.73890
G1 X81.494 Y105.178 E14.38783
G1 X81.494 Y105.533 E14.40139
G1 X98.506 Y105.533 E15.05031
G1 X98.506 Y105.889 E15.06388
G1 X81.494 Y105.889 E15.71280
G1 X81.494 Y106.245 E15.72637
G1 X98.506 Y106.245 E16.37529
G1 X98.506 Y106.600 E16.38886
G1 X81.494 Y106.600 E17.03778
G1 X81.494 Y106.956 E17.05134
G1 X98.506 Y106.956 E17.70027
G1 X98.506 Y107.312 E17.71383
G1 X81.494 Y107.312 E18.36275
G1 X81.494 Y107.667 E18.37632
G1 X98.506 Y107.667 E19.02524
G1 X98.506 Y108.023 E19.03881
G1 X81.494 Y108.023 E19.68773
G1 X81.494 Y108.378 E19.70130
G1 X98.506 Y108.378 E20.35022
G1 X98.506 Y108.734 E20.36378
G1 X81.494 Y108.734 E21.01271
G1 X81.494 Y109.090 E21.02627
G1 X98.506 Y109.090 E21.67519
G1 X98.173 Y109.445 E21.69378
G1 X81.827 Y109.445 E22.31730
G1 X82.183 Y109.801 E22.33648
G1 X97.817 Y109.801 E22.93287
G1 X97.462 Y110.157 E22.95205
G1 X82.538 Y110.157 E23.52131
G1 X82.894 Y110.512 E23.54050
G1 X97.106 Y110.512 E24.08262
G1 X96.957 Y110.661 E24.09067
G1 X95.661 Y110.661 E24.14009
G1 X95.661 Y110.868 E24.14797
G1 X84.339 Y110.868 E24.57987
G1 X84.339 Y111.223 E24.59344
G1 X95.661 Y111.223 E25.02534
G1 X95.661 Y111.579 E25.03891
G1 X84.339 Y111.579 E25.47081
G1 X84.339 Y111.935 E25.48438
G1 X95.661 Y111.935 E25.91628
G1 X95.328 Y112.290 E25.93487
G1 X84.672 Y112.290 E26.34135
G1 X85.028 Y112.646 E26.36054
G1 X94.972 Y112.646 E26.73988
G1 X94.617 Y113.001 E26.75907
G1 X85.383 Y113.001 E27.11128
G1 X85.739 Y113.357 E27.13047
G1 X94.487 Y113.357 E27.46418
; stop printing object Sphere10mmRad.stl id:0 copy 0
G1 Z0.600000 F7800.000
; printing object Sphere10mmRad.stl id:0 copy 0
G92 E0
G1 E-4.00000 F3600.00000
G1 X96.031 Y108.500 F7800.000
G1 E0.00000 F3600.00000
G1 X96.031 Y101.689 E0.20865
G1 X95.686 Y101.655 E0.21926
G1 X95.686 Y108.345 E0.42420
G1 X95.342 Y108.345 E0.43476
G1 X95.342 Y101.655 E0.63970
G1 X94.997 Y101.655 E0.65025
G1 X94.997 Y108.345 E0.85519
G1 X94.653 Y108.345 E0.86575
G1 X94.653 Y101.655 E1.07069
G1 X94.308 Y101.655 E1.08125
G1 X94.308 Y108.345 E1.28618
G1 X93.963 Y108.345 E1.29674
G1 X93.963 Y101.655 E1.50168
G1 X93.619 Y101.655 E1.51224
G1 X93.619 Y108.345 E1.71717
G1 X93.345 Y108.345 E1.72557
G1 X93.345 Y110.997 E1.80684
G1 X93.274 Y111.068 E1.80990
G1 X93.274 Y98.932 E2.18170
G1 X93.153 Y98.811 E2.18696
G1 X92.929 Y98.811 E2.19380
G1 X92.929 Y111.189 E2.57304
G1 X92.585 Y111.189 E2.58360
G1 X92.585 Y98.811 E2.96283
G1 X92.240 Y98.811 E2.97339
G1 X92.240 Y111.189 E3.35263
G1 X91.895 Y111.189 E3.36319
G1 X91.895 Y98.811 E3.74243
G1 X91.551 Y98.811 E3.75298
G1 X91.551 Y111.189 E4.13222
G1 X91.206 Y111.189 E4.14278
G1 X91.206 Y98.811 E4.52202
G1 X90.862 Y98.811 E4.53258
G1 X90.862 Y111.189 E4.91181
G1 X90.517 Y111.189 E4.92237
G1 X90.517 Y98.811 E5.30161
G1 X90.172 Y98.811 E5.31217
G1 X90.172 Y111.189 E5.69141
G1 X89.828 Y111.189 E5.70196
G1 X89.828 Y98.811 E6.08120
G1 X89.483 Y98.811 E6.09176
G1 X89.483 Y111.189 E6.47100
G1 X89.138 Y111.189 E6.48156
G1 X89.138 Y98.811 E6.86079
G1 X88.794 Y98.811 E6.87135
G1 X88.794 Y111.189 E7.25059
G1 X88.449 Y111.189 E7.26115
G1 X88.449 Y98.811 E7.64038
G1 X88.104 Y98.811 E7.65094
G1 X88.104 Y111.189 E8.03018
G1 X87.760 Y111.189 E8.04074
G1 X87.760 Y98.811 E8.41998
G1 X87.415 Y98.811 E8.43053
G1 X87.415 Y111.189 E8.80977
G1 X87.071 Y111.189 E8.82033
G1 X87.071 Y98.811 E9.19957
G1 X86.847 Y98.811 E9.20641
G1 X86.726 Y98.932 E9.21167
G1 X86.726 Y111.068 E9.58347
G1 X86.655 Y110.997 E9.58653
G1 X86.655 Y108.345 E9.66779
G1 X86.381 Y108.345 E9.67619
G1 X86.381 Y101.655 E9.88113
G1 X86.037 Y101.655 E9.89169
G1 X86.037 Y108.345 E10.09662
G1 X85.692 Y108.345 E10.10718
G1 X85.692 Y101.655 E10.31212
G1 X85.347 Y101.655 E10.32268
G1 X85.347 Y108.345 E10.52761
G1 X85.003 Y108.345 E10.53817
G1 X85.003 Y101.655 E10.74311
G1 X84.658 Y101.655 E10.75367
G1 X84.658 Y108.345 E10.95861
G1 X84.313 Y108.345 E10.96916
G1 X84.313 Y101.655 E11.17410
G1 X83.969 Y101.689 E11.18471
G1 X83.969 Y108.500 E11.39336
; stop printing object Sphere10mmRad.stl id:0 copy 0
G1 Z0.900000 F7800.000
; printing object Sphere10mmRad.stl id:0 copy 0
G92 E0
G1 E-4.00000 F3600.00000
G1 X95.686 Y108.000 F7800.000
G1 E0.00000 F3600.00000
G1 X95.686 Y102.155 E0.17905
G1 X95.342 Y102.155 E0.18961
G1 X95.342 Y107.845 E0.36391
G1 X94.997 Y107.845 E0.37447
G1 X94.997 Y102.155 E0.54877
G1 X94.653 Y102.155 E0.55933
G1 X94.653 Y107.845 E0.73363
G1 X94.308 Y107.845 E0.74419
G1 X94.308 Y102.155 E0.91849
G1 X93.963 Y102.155 E0.92905
G1 X93.963 Y107.845 E1.10335
G1 X93.619 Y107.845 E1.11391
G1 X93.619 Y102.155 E1.28821
G1 X93.274 Y102.155 E1.29877
G1 X93.274 Y107.845 E1.47307
G1 X92.929 Y107.845 E1.48363
G1 X92.929 Y102.155 E1.65793
G1 X92.845 Y102.155 E1.66052
G1 X92.845 Y99.311 E1.74767
G1 X92.585 Y99.311 E1.75564
G1 X92.585 Y110.689 E2.10424
G1 X92.240 Y110.689 E2.11480
G1 X92.240 Y99.311 E2.46340
G1 X91.895 Y99.311 E2.47396
G1 X91.895 Y110.689 E2.82256
G1 X91.551 Y110.689 E2.83312
G1 X91.551 Y99.311 E3.18172
G1 X91.206 Y99.311 E3.19228
G1 X91.206 Y110.689 E3.54088
G1 X90.862 Y110.689 E3.55144
G1 X90.862 Y99.311 E3.90004
G1 X90.517 Y99.311 E3.91060
G1 X90.517 Y110.689 E4.25920
G1 X90.172 Y110.689 E4.26976
G1 X90.172 Y99.311 E4.61836
G1 X89.828 Y99.311 E4.62892
G1 X89.828 Y110.689 E4.97752
G1 X89.483 Y110.689 E4.98808
G1 X89.483 Y99.311 E5.33668
G1 X89.138 Y99.311 E5.34724
G1 X89.138 Y110.689 E5.69584
G1 X88.794 Y110.689 E5.70639
G1 X88.794 Y99.311 E6.05500
G1 X88.449 Y99.311 E6.06555
G1 X88.449 Y110.689 E6.41416
G1 X88.104 Y110.689 E6.42471
G1 X88.104 Y99.311 E6.77332
G1 X87.760 Y99.311 E6.78387
G1 X87.760 Y110.689 E7.13248
G1 X87.415 Y110.689 E7.14303
G1 X87.415 Y99.311 E7.49164
G1 X87.155 Y99.311 E7.49960
G1 X87.155 Y102.155 E7.58675
G1 X87.071 Y102.155 E7.58934
G1 X87.071 Y107.845 E7.76364
G1 X86.726 Y107.845 E7.77420
G1 X86.726 Y102.155 E7.94850
G1 X86.381 Y102.155 E7.95906
G1 X86.381 Y107.845 E8.13336
G1 X86.037 Y107.845 E8.14392
G1 X86.037 Y102.155 E8.31822
G1 X85.692 Y102.155 E8.32878
G1 X85.692 Y107.845 E8.50308
G1 X85.347 Y107.845 E8.51364
G1 X85.347 Y102.155 E8.68794
G1 X85.003 Y102.155 E8.69850
G1 X85.003 Y107.845 E8.87280
G1 X84.658 Y107.845 E8.88336
G1 X84.658 Y102.155 E9.05766
G1 X84.313 Y102.155 E9.06822
G1 X84.313 Y108.000 E9.24727
; stop printing object Sphere10mmRad.stl id:0 copy 0
M106 S255
G1 Z1.500000 F7800.000
; printing object Sphere10mmRad.stl id:0 copy 0
G92 E0
G1 E-4.00000 F3600.00000
G1 X88.418 Y105.840 F7800.000
G1 E0.00000 F3600.00000
G1 F900.000
G1 X88.285 Y105.515 E0.01577
G1 X88.217 Y105.171 E0.03155
G1 X88.218 Y104.820 E0.04732
G1 X88.288 Y104.476 E0.06309
G1 X88.423 Y104.152 E0.07887
G1 X88.619 Y103.860 E0.09464
G1 X88.868 Y103.613 E0.11041
G1 X89.160 Y103.418 E0.12619
G1 X89.485 Y103.285 E0.14196
G1 X89.829 Y103.217 E0.15773
G1 X90.180 Y103.218 E0.17351
G1 X90.524 Y103.288 E0.18928
G1 X90.848 Y103.423 E0.20505
G1 X91.140 Y103.619 E0.22082
G1 X91.387 Y103.868 E0.23660
G1 X91.582 Y104.160 E0.25237
G1 X91.715 Y104.485 E0.26814
G1 X91.783 Y104.829 E0.28392
G1 X91.782 Y105.180 E0.29969
G1 X91.712 Y105.524 E0.31546
G1 X91.577 Y105.848 E0.33124
G1 X91.381 Y106.140 E0.34701
G1 X91.132 Y106.387 E0.36278
G1 X90.840 Y106.582 E0.37856
G1 X90.515 Y106.715 E0.39433
G1 X90.171 Y106.783 E0.41010
G1 X89.820 Y106.782 E0.42588
G1 X89.476 Y106.712 E0.44165
G1 X89.152 Y106.577 E0.45742
G1 X88.860 Y106.381 E0.47320
G1 X88.613 Y106.132 E0.48897
G1 X88.452 Y105.890 E0.50205
G1 X89.780 Y106.658 F7800.000
G1 F3600.000
G1 X91.466 Y104.971 E0.60921
G1 X91.357 Y104.444 E0.63339
G1 X89.444 Y106.357 E0.75491
G1 X89.045 Y106.119 E0.77577
G1 X91.119 Y104.046 E0.90752
G1 X90.774 Y103.754 E0.92780
G1 X88.754 Y105.774 E1.05618
G1 X88.569 Y105.323 E1.07810
G1 X90.323 Y103.569 E1.18951
G1 X89.689 Y103.567 E1.21799
G1 X88.332 Y104.924 E1.30423
; stop printing object Sphere10mmRad.stl id:0 copy 0
G1 Z1.525000 F7800.000
; printing object Sphere10mmRad.stl id:0 copy 0
G1 X87.504 Y104.843
G1 F900.000
G1 X87.568 Y104.406 E1.32407
G1 X87.731 Y103.943 E1.34612
G1 X87.981 Y103.520 E1.36817
G1 X88.308 Y103.155 E1.39022
G1 X88.701 Y102.860 E1.41227
G1 X89.143 Y102.648 E1.43432
G1 X89.618 Y102.526 E1.45637
G1 X90.109 Y102.499 E1.47842
G1 X90.594 Y102.568 E1.50047
G1 X91.057 Y102.731 E1.52252
G1 X91.480 Y102.981 E1.54457
G1 X91.845 Y103.308 E1.56662
G1 X92.140 Y103.701 E1.58867
G1 X92.352 Y104.143 E1.61072
G1 X92.474 Y104.617 E1.63270
G1 X92.506 Y105.000 E1.64997
G1 X92.474 Y105.383 E1.66724
G1 X92.432 Y105.594 E1.67692
G1 X92.269 Y106.057 E1.69897
G1 X92.019 Y106.480 E1.72102
G1 X91.692 Y106.845 E1.74307
G1 X91.299 Y107.140 E1.76512
G1 X90.857 Y107.352 E1.78717
G1 X90.382 Y107.474 E1.80922
G1 X89.891 Y107.501 E1.83127
G1 X89.406 Y107.432 E1.85332
G1 X88.943 Y107.269 E1.87537
G1 X88.520 Y107.019 E1.89742
G1 X88.155 Y106.692 E1.91947
G1 X87.860 Y106.299 E1.94152
G1 X87.648 Y105.857 E1.96357
G1 X87.526 Y105.382 E1.98562
G1 X87.499 Y104.902 E2.00719
G92 E0
G1 E-4.00000 F3600.00000
G1 X91.883 Y104.358 F7800.000
G1 E0.00000 F3600.00000
G1 F600
G1 X91.138 Y103.613 E0.00459
G1 X90.846 Y103.418 E0.00612
G1 X90.521 Y103.283 E0.00765
G1 X90.111 Y103.215 E0.00946
