; generated by SuperSlicer 2.2.53 on 2021-03-11 at 01:57:25 UTC

; 

; external perimeters extrusion width = 0.45mm
; perimeters extrusion width = 0.45mm
; infill extrusion width = 0.45mm
; solid infill extrusion width = 0.45mm
; top infill extrusion width = 0.40mm
; first layer extrusion width = 0.42mm

; object:{"name":"test lidless box 0","id":"test lidless box 0.4mm walls 0.6mm base 30mm sides.stl id:0 copy 0","object_center":[90.000000,105.000000,0.000000],"boundingbox_center":[90.000000,105.000000,15.000000],"boundingbox_size":[30.000000,30.000000,30.000000]}

M73 P0 R20
M73 Q0 S20
M107
M190 S60 ; set bed temperature and wait for it to be reached
M104 S190 ; set temperature
G28 ; home all axes
G1 Z5 F5000 ; lift nozzle
M109 S190 ; set temperature and wait for it to be reached
G21 ; set units to millimeters
G90 ; use absolute coordinates
M82 ; use absolute distances for extrusion
G92 E0
; Filament gcode
G1 Z0.200000 F7800.000
G1 E-4.00000 F3600.00000
M73 Q0 S20
M73 P0 R20
G1 X72.816 Y87.140 F7800.000
G1 E0.00000 F3600.00000
G1 F1800.000
G1 X73.364 Y86.817 E0.01864
G1 X73.966 Y86.609 E0.03728
G1 X74.593 Y86.526 E0.05579
G1 X105.311 Y86.524 E0.95502
G1 X105.905 Y86.581 E0.97250
G1 X106.474 Y86.747 E0.98986
G1 X107.003 Y87.017 E1.00722
G1 X107.475 Y87.382 E1.02470
G1 X107.867 Y87.827 E1.04206
G1 X108.172 Y88.340 E1.05955
G1 X108.375 Y88.902 E1.07703
G1 X108.469 Y89.488 E1.09439
G1 X108.475 Y120.385 E1.99889
G1 X108.249 Y121.482 E2.03168
G1 X107.656 Y122.433 E2.06447
G1 X107.166 Y122.872 E2.08375
G1 X106.600 Y123.200 E2.10290
G1 X105.978 Y123.404 E2.12205
G1 X105.328 Y123.476 E2.14120
G1 X74.615 Y123.475 E3.04031
G1 X73.518 Y123.249 E3.07310
G1 X72.567 Y122.656 E3.10588
G1 X72.128 Y122.166 E3.12516
G1 X71.800 Y121.600 E3.14431
G1 X71.596 Y120.978 E3.16347
G1 X71.524 Y120.328 E3.18262
G1 X71.525 Y89.615 E4.08172
G1 X71.751 Y88.518 E4.11451
G1 X72.344 Y87.567 E4.14730
G1 X72.772 Y87.181 E4.16418
G1 X72.994 Y87.429 F7800.000
G1 F1800.000
G1 X73.514 Y87.116 E4.18194
G1 X74.048 Y86.933 E4.19848
G1 X74.612 Y86.860 E4.21514
G1 X105.310 Y86.858 E5.11380
G1 X105.844 Y86.910 E5.12948
G1 X106.358 Y87.061 E5.14517
G1 X106.831 Y87.303 E5.16073
G1 X107.253 Y87.633 E5.17642
G1 X107.606 Y88.036 E5.19211
G1 X107.875 Y88.495 E5.20767
G1 X108.055 Y89.000 E5.22336
G1 X108.136 Y89.525 E5.23892
G1 X108.141 Y120.369 E6.14184
G1 X107.938 Y121.362 E6.17152
G1 X107.398 Y122.220 E6.20119
G1 X106.960 Y122.609 E6.21833
G1 X106.456 Y122.898 E6.23535
G1 X105.903 Y123.078 E6.25237
G1 X105.321 Y123.141 E6.26951
G1 X74.627 Y123.141 E7.16805
G1 X73.638 Y122.938 E7.19761
G1 X72.780 Y122.398 E7.22728
G1 X72.391 Y121.960 E7.24442
G1 X72.102 Y121.456 E7.26144
G1 X71.922 Y120.903 E7.27846
G1 X71.859 Y120.321 E7.29560
G1 X71.859 Y89.627 E8.19414
G1 X72.062 Y88.638 E8.22370
G1 X72.602 Y87.780 E8.25337
G1 X72.949 Y87.469 E8.26702
G1 X73.167 Y87.772 F7800.000
G1 F1800.000
G1 X73.664 Y87.414 E8.28495
G1 X74.633 Y87.193 E8.31404
G1 X105.310 Y87.193 E9.21208
G1 X106.237 Y87.372 E9.23971
G1 X107.028 Y87.879 E9.26722
G1 X107.578 Y88.647 E9.29485
G1 X107.804 Y89.563 E9.32248
G1 X107.807 Y120.357 E10.22395
G1 X107.626 Y121.240 E10.25034
G1 X107.142 Y122.005 E10.27684
G1 X106.758 Y122.343 E10.29180
G1 X106.311 Y122.597 E10.30687
G1 X105.824 Y122.753 E10.32183
G1 X105.316 Y122.807 E10.33679
G1 X74.643 Y122.807 E11.23472
G1 X73.760 Y122.626 E11.26111
G1 X72.995 Y122.142 E11.28761
G1 X72.657 Y121.758 E11.30257
G1 X72.403 Y121.311 E11.31764
G1 X72.247 Y120.824 E11.33260
G1 X72.193 Y120.316 E11.34756
G1 X72.193 Y89.643 E12.24548
G1 X72.374 Y88.760 E12.27188
G1 X72.858 Y87.995 E12.29838
G1 X73.119 Y87.807 E12.30778
G1 X73.308 Y88.073 F7800.000
G1 F1800.000
G1 X73.808 Y87.716 E12.32575
G1 X74.647 Y87.527 E12.35092
G1 X105.310 Y87.527 E13.24856
G1 X106.115 Y87.684 E13.27258
G1 X106.805 Y88.128 E13.29660
G1 X107.279 Y88.798 E13.32062
G1 X107.471 Y89.596 E13.34464
G1 X107.473 Y120.346 E14.24483
G1 X107.315 Y121.119 E14.26792
G1 X106.889 Y121.786 E14.29110
G1 X106.172 Y122.293 E14.31679
G1 X105.313 Y122.473 E14.34249
G1 X74.654 Y122.473 E15.24002
G1 X73.881 Y122.315 E15.26310
G1 X73.214 Y121.889 E15.28628
G1 X72.707 Y121.172 E15.31197
G1 X72.527 Y120.313 E15.33767
G1 X72.527 Y89.654 E16.23520
G1 X72.685 Y88.881 E16.25828
G1 X73.111 Y88.214 E16.28146
G1 X73.260 Y88.108 E16.28681
G1 X72.998 Y87.846 F7800.000
G1 F1800.000
G1 X73.300 Y87.544 E16.30247
G1 X74.159 Y87.188 E16.33660
G1 X105.841 Y87.188 E17.49857
G1 X106.700 Y87.544 E17.53270
G1 X107.456 Y88.300 E17.57190
G1 X107.812 Y89.159 E17.60603
G1 X107.812 Y120.841 E18.76800
G1 X107.456 Y121.700 E18.80213
G1 X106.700 Y122.456 E18.84134
G1 X105.841 Y122.812 E18.87547
G1 X74.159 Y122.812 E20.03743
G1 X73.300 Y122.456 E20.07156
G1 X72.544 Y121.700 E20.11077
G1 X72.188 Y120.841 E20.14490
G1 X72.188 Y89.159 E21.30686
G1 X72.544 Y88.300 E21.34099
G1 X72.955 Y87.888 E21.36233
G1 X73.192 Y88.125 F7800.000
G1 F1800.000
G1 X73.489 Y87.827 E21.37776
G1 X74.226 Y87.522 E21.40702
G1 X105.774 Y87.522 E22.56411
G1 X106.511 Y87.827 E22.59336
G1 X107.173 Y88.489 E22.62769
G1 X107.478 Y89.226 E22.65695
G1 X107.478 Y120.774 E23.81404
G1 X107.173 Y121.511 E23.84329
G1 X106.511 Y122.173 E23.87762
G1 X105.774 Y122.478 E23.90688
G1 X74.226 Y122.478 E25.06397
G1 X73.489 Y122.173 E25.09322
G1 X72.827 Y121.511 E25.12755
G1 X72.522 Y120.774 E25.15681
G1 X72.522 Y89.226 E26.31390
G1 X72.827 Y88.489 E26.34315
G1 X73.149 Y88.167 E26.35985
G1 X73.385 Y88.403 F7800.000
G1 F1800.000
G1 X73.678 Y88.110 E26.37504
G1 X74.292 Y87.856 E26.39942
G1 X105.708 Y87.856 E27.55164
G1 X106.322 Y88.110 E27.57602
G1 X106.890 Y88.678 E27.60547
G1 X107.144 Y89.292 E27.62985
G1 X107.144 Y120.708 E28.78206
G1 X106.890 Y121.322 E28.80644
G1 X106.322 Y121.890 E28.83590
G1 X105.708 Y122.144 E28.86028
G1 X74.292 Y122.144 E30.01249
G1 X73.678 Y121.890 E30.03687
G1 X73.110 Y121.322 E30.06632
G1 X72.856 Y120.708 E30.09070
G1 X72.856 Y89.292 E31.24292
G1 X73.110 Y88.678 E31.26730
G1 X73.343 Y88.446 E31.27936
G1 X73.579 Y88.682 F7800.000
G1 F1800.000
G1 X73.868 Y88.394 E31.29431
G1 X74.359 Y88.190 E31.31382
G1 X105.641 Y88.190 E32.46116
G1 X106.132 Y88.394 E32.48066
G1 X106.606 Y88.868 E32.50524
G1 X106.810 Y89.359 E32.52474
G1 X106.810 Y120.641 E33.67208
G1 X106.606 Y121.132 E33.69158
G1 X106.132 Y121.606 E33.71616
G1 X105.641 Y121.810 E33.73566
G1 X74.359 Y121.810 E34.88300
G1 X73.868 Y121.606 E34.90251
G1 X73.394 Y121.132 E34.92709
G1 X73.190 Y120.641 E34.94659
G1 X73.190 Y89.359 E36.09393
G1 X73.394 Y88.868 E36.11343
G1 X73.537 Y88.724 E36.12086
G1 X73.773 Y88.961 F7800.000
G1 F1800.000
G1 X74.057 Y88.677 E36.13557
G1 X74.425 Y88.524 E36.15020
G1 X105.575 Y88.524 E37.29266
G1 X105.943 Y88.677 E37.30729
G1 X106.323 Y89.057 E37.32699
G1 X106.476 Y89.425 E37.34162
G1 X106.476 Y120.575 E38.48408
G1 X106.323 Y120.943 E38.49871
G1 X105.943 Y121.323 E38.51841
G1 X105.575 Y121.476 E38.53304
G1 X74.425 Y121.476 E39.67550
G1 X74.057 Y121.323 E39.69013
G1 X73.677 Y120.943 E39.70984
G1 X73.524 Y120.575 E39.72446
G1 X73.524 Y89.425 E40.86693
G1 X73.677 Y89.057 E40.88155
G1 X73.731 Y89.003 E40.88434
G1 X73.960 Y89.246 F7800.000
G1 F1800.000
G1 X74.246 Y88.960 E40.89917
G1 X74.492 Y88.858 E40.90892
G1 X105.508 Y88.858 E42.04651
G1 X105.754 Y88.960 E42.05626
G1 X106.040 Y89.246 E42.07109
G1 X106.142 Y89.492 E42.08084
G1 X106.142 Y120.508 E43.21843
G1 X106.040 Y120.754 E43.22818
G1 X105.754 Y121.040 E43.24300
G1 X105.508 Y121.142 E43.25276
G1 X74.492 Y121.142 E44.39034
G1 X74.246 Y121.040 E44.40010
G1 X73.960 Y120.754 E44.41492
G1 X73.858 Y120.508 E44.42467
G1 X73.858 Y89.492 E45.56226
G1 X73.937 Y89.302 E45.56981
G1 X74.244 Y89.435 F7800.000
G1 F1800.000
G1 X74.435 Y89.244 E45.57977
G1 X74.558 Y89.193 E45.58464
G1 X105.442 Y89.193 E46.71735
G1 X105.565 Y89.244 E46.72223
G1 X105.756 Y89.435 E46.73218
G1 X105.807 Y89.558 E46.73706
G1 X105.807 Y120.442 E47.86977
G1 X105.756 Y120.565 E47.87464
G1 X105.565 Y120.756 E47.88460
G1 X105.442 Y120.807 E47.88947
G1 X74.558 Y120.807 E49.02218
G1 X74.435 Y120.756 E49.02706
G1 X74.244 Y120.565 E49.03701
G1 X74.193 Y120.442 E49.04189
G1 X74.193 Y89.558 E50.17460
G1 X74.221 Y89.491 E50.17728
G1 X74.527 Y89.625 F7800.000
G1 F1800.000
G1 X74.625 Y89.527 E50.18235
G1 X105.375 Y89.527 E51.31019
G1 X105.473 Y89.625 E51.31527
G1 X105.473 Y120.375 E52.44310
G1 X105.375 Y120.473 E52.44818
G1 X74.625 Y120.473 E53.57601
G1 X74.527 Y120.375 E53.58109
G1 X74.527 Y89.685 E54.70673
; printing object test lidless box 0.4mm walls 0.6mm base 30mm sides.stl id:0 copy 0
G1 X74.904 Y89.904 F7800.000
G1 F1800.000
G1 X74.904 Y120.096 E55.59058
G1 X105.096 Y120.096 E56.47443
G1 X105.096 Y89.904 E57.35829
G1 X74.964 Y89.904 E58.24038
G1 X75.104 Y90.250 F7800.000
G1 X75.259 Y90.259
G1 F1800.000
G1 X75.259 Y119.741 E59.10342
M73 Q5 S19
G1 X104.741 Y119.741 E59.96645
M73 P5 R19
G1 X104.741 Y90.259 E60.82948
G1 X75.319 Y90.259 E61.69076
G1 X75.615 Y90.615 F7800.000
G1 F1800.000
G1 X75.615 Y119.385 E62.53297
G1 X104.385 Y119.385 E63.37518
G1 X104.385 Y90.615 E64.21739
G1 X75.675 Y90.615 E65.05784
G92 E0
G1 E-4.00000 F3600.00000
G1 X76.292 Y119.278 F7800.000
G1 E0.00000 F3600.00000
G1 F1200.000
G1 X75.882 Y118.869 E0.01676
G1 X75.882 Y118.366 E0.03130
G1 X76.634 Y119.118 E0.06208
G1 X77.137 Y119.118 E0.07662
G1 X75.882 Y117.863 E0.12797
G1 X75.882 Y117.360 E0.14251
G1 X77.640 Y119.118 E0.21443
G1 X78.143 Y119.118 E0.22897
G1 X75.882 Y116.857 E0.32145
G1 X75.882 Y116.354 E0.33599
G1 X78.646 Y119.118 E0.44904
G1 X79.149 Y119.118 E0.46359
G1 X75.882 Y115.851 E0.59720
G1 X75.882 Y115.348 E0.61175
G1 X79.652 Y119.118 E0.76593
G1 X80.155 Y119.118 E0.78048
G1 X75.882 Y114.845 E0.95523
G1 X75.882 Y114.342 E0.96977
G1 X80.658 Y119.118 E1.16509
G1 X81.161 Y119.118 E1.17964
G1 X75.882 Y113.839 E1.39553
G1 X75.882 Y113.336 E1.41007
G1 X81.664 Y119.118 E1.64652
G1 X82.167 Y119.118 E1.66107
G1 X75.882 Y112.833 E1.91809
G1 X75.882 Y112.331 E1.93264
G1 X82.669 Y119.118 E2.21023
G1 X83.172 Y119.118 E2.22477
G1 X75.882 Y111.828 E2.52293
G1 X75.882 Y111.325 E2.53747
G1 X83.675 Y119.118 E2.85620
G1 X84.178 Y119.118 E2.87074
G1 X75.882 Y110.822 E3.21004
G1 X75.882 Y110.319 E3.22458
G1 X84.681 Y119.118 E3.58444
G1 X85.184 Y119.118 E3.59899
G1 X75.882 Y109.816 E3.97942
G1 X75.882 Y109.313 E3.99396
G1 X85.687 Y119.118 E4.39496
G1 X86.190 Y119.118 E4.40950
G1 X75.882 Y108.810 E4.83107
G1 X75.882 Y108.307 E4.84561
G1 X86.693 Y119.118 E5.28775
G1 X87.196 Y119.118 E5.30229
G1 X75.882 Y107.804 E5.76499
G1 X75.882 Y107.301 E5.77953
G1 X87.699 Y119.118 E6.26280
G1 X88.202 Y119.118 E6.27735
G1 X75.882 Y106.798 E6.78118
G1 X75.882 Y106.295 E6.79573
G1 X88.705 Y119.118 E7.32013
G1 X89.207 Y119.118 E7.33467
G1 X75.882 Y105.793 E7.87965
G1 X75.882 Y105.290 E7.89419
G1 X89.710 Y119.118 E8.45973
G1 X90.213 Y119.118 E8.47427
G1 X75.882 Y104.787 E9.06038
G1 X75.882 Y104.284 E9.07492
G1 X90.716 Y119.118 E9.68160
G1 X91.219 Y119.118 E9.69614
G1 X75.882 Y103.781 E10.32339
G1 X75.882 Y103.278 E10.33793
G1 X91.722 Y119.118 E10.98574
G1 X92.225 Y119.118 E11.00028
G1 X75.882 Y102.775 E11.66866
G1 X75.882 Y102.272 E11.68320
G1 X92.728 Y119.118 E12.37215
G1 X93.231 Y119.118 E12.38669
G1 X75.882 Y101.769 E13.09621
G1 X75.882 Y101.266 E13.11075
G1 X93.734 Y119.118 E13.84083
G1 X94.237 Y119.118 E13.85538
G1 X75.882 Y100.763 E14.60603
G1 X75.882 Y100.260 E14.62057
G1 X94.740 Y119.118 E15.39179
G1 X95.242 Y119.118 E15.40633
G1 X75.882 Y99.758 E16.19812
G1 X75.882 Y99.255 E16.21266
G1 X95.745 Y119.118 E17.02501
G1 X96.248 Y119.118 E17.03956
G1 X75.882 Y98.752 E17.87248
G1 X75.882 Y98.249 E17.88702
G1 X96.751 Y119.118 E18.74051
G1 X97.254 Y119.118 E18.75505
G1 X75.882 Y97.746 E19.62911
G1 X75.882 Y97.243 E19.64365
G1 X97.757 Y119.118 E20.53827
G1 X98.260 Y119.118 E20.55282
G1 X75.882 Y96.740 E21.46801
G1 X75.882 Y96.237 E21.48255
G1 X98.763 Y119.118 E22.41831
G1 X99.266 Y119.118 E22.43285
G1 X75.882 Y95.734 E23.38918
G1 X75.882 Y95.231 E23.40372
G1 X99.769 Y119.118 E24.38062
G1 X100.272 Y119.118 E24.39516
G1 X75.882 Y94.728 E25.39262
G1 X75.882 Y94.225 E25.40717
G1 X100.775 Y119.118 E26.42520
G1 X101.278 Y119.118 E26.43974
G1 X75.882 Y93.722 E27.47834
G1 X75.882 Y93.220 E27.49288
G1 X101.780 Y119.118 E28.55205
G1 X102.283 Y119.118 E28.56659
G1 X75.882 Y92.717 E29.64632
G1 X75.882 Y92.214 E29.66087
G1 X102.786 Y119.118 E30.76117
M73 Q10 S18
G1 X103.289 Y119.118 E30.77571
G1 X75.882 Y91.711 E31.89658
M73 P10 R18
G1 X75.882 Y91.208 E31.91112
G1 X103.792 Y119.118 E33.05256
G1 X104.118 Y119.118 E33.06199
G1 X104.118 Y118.941 E33.06710
G1 X76.059 Y90.882 E34.21464
G1 X76.562 Y90.882 E34.22918
G1 X104.118 Y118.438 E35.35615
G1 X104.118 Y117.935 E35.37070
G1 X77.065 Y90.882 E36.47710
G1 X77.567 Y90.882 E36.49164
G1 X104.118 Y117.433 E37.57747
G1 X104.118 Y116.930 E37.59202
G1 X78.070 Y90.882 E38.65728
G1 X78.573 Y90.882 E38.67183
G1 X104.118 Y116.427 E39.71652
G1 X104.118 Y115.924 E39.73107
G1 X79.076 Y90.882 E40.75520
G1 X79.579 Y90.882 E40.76974
G1 X104.118 Y115.421 E41.77330
G1 X104.118 Y114.918 E41.78785
G1 X80.082 Y90.882 E42.77084
G1 X80.585 Y90.882 E42.78538
G1 X104.118 Y114.415 E43.74781
G1 X104.118 Y113.912 E43.76236
G1 X81.088 Y90.882 E44.70421
G1 X81.591 Y90.882 E44.71876
G1 X104.118 Y113.409 E45.64005
G1 X104.118 Y112.906 E45.65459
G1 X82.094 Y90.882 E46.55532
G1 X82.597 Y90.882 E46.56986
G1 X104.118 Y112.403 E47.45002
G1 X104.118 Y111.900 E47.46456
G1 X83.100 Y90.882 E48.32415
G1 X83.603 Y90.882 E48.33869
G1 X104.118 Y111.397 E49.17771
G1 X104.118 Y110.895 E49.19225
G1 X84.105 Y90.882 E50.01071
G1 X84.608 Y90.882 E50.02525
G1 X104.118 Y110.392 E50.82314
G1 X104.118 Y109.889 E50.83768
G1 X85.111 Y90.882 E51.61500
G1 X85.614 Y90.882 E51.62954
G1 X104.118 Y109.386 E52.38629
G1 X104.118 Y108.883 E52.40083
G1 X86.117 Y90.882 E53.13701
G1 X86.620 Y90.882 E53.15156
G1 X104.118 Y108.380 E53.86717
G1 X104.118 Y107.877 E53.88172
G1 X87.123 Y90.882 E54.57676
G1 X87.626 Y90.882 E54.59131
G1 X104.118 Y107.374 E55.26578
G1 X104.118 Y106.871 E55.28033
G1 X88.129 Y90.882 E55.93424
G1 X88.632 Y90.882 E55.94878
G1 X104.118 Y106.368 E56.58212
G1 X104.118 Y105.865 E56.59667
G1 X89.135 Y90.882 E57.20944
G1 X89.638 Y90.882 E57.22399
G1 X104.118 Y105.362 E57.81619
G1 X104.118 Y104.860 E57.83074
G1 X90.140 Y90.882 E58.40238
G1 X90.643 Y90.882 E58.41692
G1 X104.118 Y104.357 E58.96799
G1 X104.118 Y103.854 E58.98254
G1 X91.146 Y90.882 E59.51304
G1 X91.649 Y90.882 E59.52758
G1 X104.118 Y103.351 E60.03752
G1 X104.118 Y102.848 E60.05206
G1 X92.152 Y90.882 E60.54143
G1 X92.655 Y90.882 E60.55598
G1 X104.118 Y102.345 E61.02478
G1 X104.118 Y101.842 E61.03932
G1 X93.158 Y90.882 E61.48756
G1 X93.661 Y90.882 E61.50210
G1 X104.118 Y101.339 E61.92976
G1 X104.118 Y100.836 E61.94431
G1 X94.164 Y90.882 E62.35141
G1 X94.667 Y90.882 E62.36595
G1 X104.118 Y100.333 E62.75248
G1 X104.118 Y99.830 E62.76702
G1 X95.170 Y90.882 E63.13299
G1 X95.673 Y90.882 E63.14753
G1 X104.118 Y99.327 E63.49292
G1 X104.118 Y98.824 E63.50747
G1 X96.176 Y90.882 E63.83229
G1 X96.678 Y90.882 E63.84684
G1 X104.118 Y98.322 E64.15110
G1 X104.118 Y97.819 E64.16564
G1 X97.181 Y90.882 E64.44933
G1 X97.684 Y90.882 E64.46388
G1 X104.118 Y97.316 E64.72700
G1 X104.118 Y96.813 E64.74154
G1 X98.187 Y90.882 E64.98410
G1 X98.690 Y90.882 E64.99864
G1 X104.118 Y96.310 E65.22063
G1 X104.118 Y95.807 E65.23517
G1 X99.193 Y90.882 E65.43660
M73 Q15 S17
G1 X99.696 Y90.882 E65.45114
G1 X104.118 Y95.304 E65.63199
G1 X104.118 Y94.801 E65.64654
G1 X100.199 Y90.882 E65.80682
G1 X100.702 Y90.882 E65.82136
G1 X104.118 Y94.298 E65.96108
G1 X104.118 Y93.795 E65.97562
G1 X101.205 Y90.882 E66.09477
G1 X101.708 Y90.882 E66.10932
G1 X104.118 Y93.292 E66.20790
G1 X104.118 Y92.789 E66.22244
G1 X102.211 Y90.882 E66.30046
G1 X102.714 Y90.882 E66.31500
G1 X104.118 Y92.286 E66.37245
G1 X104.118 Y91.784 E66.38699
G1 X103.216 Y90.882 E66.42387
G1 X103.719 Y90.882 E66.43841
G1 X104.278 Y91.441 E66.46127
M73 P15 R17
; stop printing object test lidless box 0.4mm walls 0.6mm base 30mm sides.stl id:0 copy 0
G1 Z0.400000 F7800.000
M104 S205 ; set temperature
M140 S65 ; set bed temperature
