; generated by Slic3r 1.2.9 on 2021-03-06 at 01:03:13

; external perimeters extrusion width = 0.40mm
; perimeters extrusion width = 0.67mm
; infill extrusion width = 0.67mm
; solid infill extrusion width = 0.67mm
; top infill extrusion width = 0.67mm

M107
M190 S55 ; set bed temperature
M104 S205 ; set temperature
G28 ; home all axes
G29
G1 Z5 F5000 ; lift nozzle

M109 S205 ; wait for temperature to be reached
G21 ; set units to millimeters
G90 ; use absolute coordinates
M82 ; use absolute distances for extrusion
G92 E0
G1 Z0.350 F24000.000
G1 E-4.50000 F2400.00000
G92 E0
G1 X84.915 Y85.753 F24000.000
G1 E4.50000 F2400.00000
G1 X86.668 Y84.274 E4.70854 F1800.000
G1 X88.820 Y83.481 E4.91708
G1 X90.000 Y83.375 E5.02479
G1 X110.000 Y83.375 E6.84339
G1 X112.259 Y83.772 E7.05193
G1 X114.247 Y84.915 E7.26047 F1800.000
G1 X115.726 Y86.668 E7.46901
G1 X116.519 Y88.820 E7.67755
G1 X116.625 Y90.000 E7.78526
G1 X116.625 Y110.000 E9.60386
G1 X116.228 Y112.259 E9.81240
G1 X115.085 Y114.247 E10.02094
G1 X113.332 Y115.726 E10.22948
G1 X111.180 Y116.519 E10.43803
G1 X110.000 Y116.625 E10.54573
G1 X90.000 Y116.625 E12.36433
G1 X87.741 Y116.228 E12.57287
G1 X85.753 Y115.085 E12.78141
G1 X84.274 Y113.332 E12.98995
G1 X83.481 Y111.180 E13.19850
G1 X83.375 Y110.000 E13.30620
G1 X83.375 Y90.000 E15.12480
G1 X83.772 Y87.741 E15.33334
G1 X84.886 Y85.805 E15.53642
G1 E11.03642 F2400.00000
G92 E0
G1 X89.688 Y89.871 F24000.000
G1 E4.50000 F2400.00000
G1 X89.871 Y89.688 E4.52354 F1800.000
G1 X110.129 Y89.688 E6.36566
G1 X110.312 Y89.871 E6.38920
G1 X110.312 Y110.129 E8.23133 F1800.000
G1 X110.129 Y110.312 E8.25486
G1 X89.871 Y110.312 E10.09699
G1 X89.688 Y110.129 E10.12053
G1 X89.688 Y89.931 E11.95720
G1 X90.350 Y90.350 F24000.000
G1 X109.650 Y90.350 E13.71214 F1800.000
G1 X109.650 Y109.650 E15.46708
G1 X90.350 Y109.650 E17.22202 F1800.000
G1 X90.350 Y90.410 E18.97151
G1 X90.696 Y90.550 F24000.000
G1 X90.975 Y90.975 F24000.000
G1 X109.025 Y90.975 E20.61281 F1800.000
G1 X109.025 Y109.025 E22.25410
G1 X90.975 Y109.025 E23.89540 F1800.000
G1 X90.975 Y91.035 E25.53125
G1 E21.03125 F2400.00000
G92 E0
G1 X108.400 Y100.618 F24000.000
G1 E4.50000 F2400.00000
G1 X108.400 Y108.400 E5.20764 F1800.000
G1 X91.600 Y108.400 E6.73530 F1800.000
G1 X91.600 Y91.600 E8.26295
G1 X108.400 Y91.600 E9.79061
G1 X108.400 Y100.558 E10.60517
G1 E6.10517 F2400.00000
G92 E0
G1 X108.022 Y92.283 F24000.000
G1 E4.50000 F2400.00000
G1 X107.717 Y91.978 E4.53993 F1800.000
G1 X106.817 Y91.978 E4.62315
G1 X108.022 Y93.183 E4.78077
G1 X108.022 Y94.082 E4.86398
G1 X105.918 Y91.978 E5.13929
G1 X105.019 Y91.978 E5.22251
G1 X108.022 Y94.981 E5.61550
G1 X108.022 Y95.881 E5.69872
G1 X104.119 Y91.978 E6.20941
G1 X103.220 Y91.978 E6.29262
G1 X108.022 Y96.780 E6.92100
G1 X108.022 Y97.679 E7.00422
G1 X102.321 Y91.978 E7.75028
G1 X101.421 Y91.978 E7.83350
G1 X108.022 Y98.579 E8.69725
G1 X108.022 Y99.478 E8.78047
G1 X100.522 Y91.978 E9.76190
G1 X99.623 Y91.978 E9.84512
G1 X108.022 Y100.377 E10.94425
G1 X108.022 Y101.277 E11.02747
G1 X98.723 Y91.978 E12.24429
G1 X97.824 Y91.978 E12.32750
G1 X108.022 Y102.176 E13.66201
G1 X108.022 Y103.075 E13.74523
G1 X96.925 Y91.978 E15.19742
G1 X96.025 Y91.978 E15.28064
G1 X108.022 Y103.975 E16.85052
G1 X108.022 Y104.874 E16.93374
G1 X95.126 Y91.978 E18.62131
G1 X94.227 Y91.978 E18.70453
G1 X108.022 Y105.773 E20.50979
G1 X108.022 Y106.673 E20.59301
G1 X93.327 Y91.978 E22.51596
G1 X92.428 Y91.978 E22.59918
G1 X108.022 Y107.572 E24.63982
G1 X107.572 Y108.022 E24.69866
G1 X91.978 Y92.428 E26.73930
G1 X91.978 Y93.327 E26.82252
G1 X106.673 Y108.022 E28.74546
G1 X105.773 Y108.022 E28.82868
G1 X91.978 Y94.227 E30.63394
G1 X91.978 Y95.126 E30.71716
G1 X104.874 Y108.022 E32.40473
G1 X103.975 Y108.022 E32.48795
G1 X91.978 Y96.025 E34.05783
G1 X91.978 Y96.925 E34.14105
G1 X103.075 Y108.022 E35.59324
G1 X102.176 Y108.022 E35.67646
G1 X91.978 Y97.824 E37.01096
G1 X91.978 Y98.723 E37.09418
G1 X101.277 Y108.022 E38.31099
G1 X100.377 Y108.022 E38.39421
G1 X91.978 Y99.623 E39.49334
G1 X91.978 Y100.522 E39.57655
G1 X99.478 Y108.022 E40.55799
G1 X98.579 Y108.022 E40.64121
G1 X91.978 Y101.421 E41.50496
G1 X91.978 Y102.321 E41.58818
G1 X97.679 Y108.022 E42.33424
G1 X96.780 Y108.022 E42.41745
G1 X91.978 Y103.220 E43.04582
G1 X91.978 Y104.119 E43.12904
G1 X95.881 Y108.022 E43.63972
G1 X94.981 Y108.022 E43.72294
G1 X91.978 Y105.019 E44.11594
G1 X91.978 Y105.918 E44.19915
G1 X94.082 Y108.022 E44.47446
G1 X93.183 Y108.022 E44.55768
G1 X91.978 Y106.817 E44.71529
G1 X91.978 Y107.717 E44.79851
G1 X92.283 Y108.022 E44.83844
G1 E40.33844 F2400.00000
G92 E0
M104 S0 ; turn off temperature
G28 X0  ; home X axis
M84     ; disable motors

; filament used = 78.5mm (0.2cm3)

; avoid_crossing_perimeters = 0
; bed_shape = 0x0,200x0,200x200,0x200
; bed_temperature = 55
; before_layer_gcode = 
; bridge_acceleration = 0
; bridge_fan_speed = 100
; brim_width = 1
; complete_objects = 0
; cooling = 1
; default_acceleration = 0
; disable_fan_first_layers = 3
; duplicate_distance = 6
; end_gcode = M104 S0 ; turn off temperature\nG28 X0  ; home X axis\nM84     ; disable motors\n
; extruder_clearance_height = 20
; extruder_clearance_radius = 20
; extruder_offset = 0x0
; extrusion_axis = E
; extrusion_multiplier = 1
; fan_always_on = 0
; fan_below_layer_time = 60
; filament_colour = #004080
; filament_diameter = 1.75
; first_layer_acceleration = 0
; first_layer_bed_temperature = 55
; first_layer_extrusion_width = 200%
; first_layer_speed = 30
; first_layer_temperature = 205
; gcode_arcs = 0
; gcode_comments = 0
; gcode_flavor = reprap
; infill_acceleration = 0
; infill_first = 0
; layer_gcode = 
; max_fan_speed = 100
; max_print_speed = 80
; max_volumetric_speed = 0
; min_fan_speed = 35
; min_print_speed = 10
; min_skirt_length = 0
; notes = 
; nozzle_diameter = 0.4
; only_retract_when_crossing_perimeters = 1
; ooze_prevention = 0
; output_filename_format = [input_filename_base].gcode
; perimeter_acceleration = 0
; post_process = 
; pressure_advance = 0
; resolution = 0
; retract_before_travel = 2
; retract_layer_change = 0
; retract_length = 4.5
; retract_length_toolchange = 10
; retract_lift = 0
; retract_restart_extra = 0
; retract_restart_extra_toolchange = 0
; retract_speed = 40
; skirt_distance = 6
; skirt_height = 1
; skirts = 1
; slowdown_below_layer_time = 5
; spiral_vase = 0
; standby_temperature_delta = -5
; start_gcode = G28 ; home all axes\nG29\nG1 Z5 F5000 ; lift nozzle\n
; temperature = 195
; threads = 2
; toolchange_gcode = 
; travel_speed = 400
; use_firmware_retraction = 0
; use_relative_e_distances = 0
; use_volumetric_e = 0
; vibration_limit = 0
; wipe = 0
; z_offset = 0
; dont_support_bridges = 1
; extrusion_width = 0
; first_layer_height = 0.35
; infill_only_where_needed = 0
; interface_shells = 0
; layer_height = 0.2
; raft_layers = 0
; seam_position = random
; support_material = 0
; support_material_angle = 0
; support_material_contact_distance = 0.2
; support_material_enforce_layers = 0
; support_material_extruder = 1
; support_material_extrusion_width = 0
; support_material_interface_extruder = 1
; support_material_interface_layers = 3
; support_material_interface_spacing = 0
; support_material_interface_speed = 100%
; support_material_pattern = pillars
; support_material_spacing = 2.5
; support_material_speed = 60
; support_material_threshold = 0
; xy_size_compensation = 0
; bottom_solid_layers = 3
; bridge_flow_ratio = 1
; bridge_speed = 60
; external_fill_pattern = rectilinear
; external_perimeter_extrusion_width = 0
; external_perimeter_speed = 50%
; external_perimeters_first = 0
; extra_perimeters = 1
; fill_angle = 45
; fill_density = 25%
; fill_pattern = archimedeanchords
; gap_fill_speed = 20
; infill_every_layers = 1
; infill_extruder = 1
; infill_extrusion_width = 0
; infill_overlap = 15%
; infill_speed = 100
; overhangs = 1
; perimeter_extruder = 1
; perimeter_extrusion_width = 0
; perimeter_speed = 100
; perimeters = 3
; small_perimeter_speed = 15
; solid_infill_below_area = 70
; solid_infill_every_layers = 0
; solid_infill_extruder = 1
; solid_infill_extrusion_width = 0
; solid_infill_speed = 20
; thin_walls = 1
; top_infill_extrusion_width = 0
; top_solid_infill_speed = 15
; top_solid_layers = 3
