;Sliced by ideaMaker 4.0.1.4802, 2021-03-01 00:02:48 UTC+0000
;Dimension: 180.000 210.000 160.000 0.400
;Plate Shape: 0
;Origin Center: 0
;Extruder Offset #1: 25.000 0.000
;Filament Diameter #1: 1.750
;Filament Diameter #2: 1.750
;Filament Compensation #1: 96.00
;Filament Compensation #2: 96.00
;Filament Density #1: 1240.00
;Filament Density #2: 1240.00
;Bounding Box: 75.975 126.564 89.283 120.716 0.000 10.100
;Model Gap: 0.000
M221 T0 S96.00
M140 S55.00
M104 T0 S205.00
M109 T0 S205.00
T0
M190 S55.00
M572 D0 S0.09
M572 D1 S0.09
G21
G90
M82
M107
G28
G1 Z0 F500
G92 E0
G1 Z0.2 F400
G1 X60 Y-2 F800
G1 X140 Y-2 E12 F200
G1 Z5 E15 F200
G92 E0
G1 F24000.0
M117 Printing...
;end of Start GCode
;TOTAL_NUM: 2
;PRINTING_TIME: 0
;REMAINING_TIME: 1764
;LAYER:0
;Z:0.300
;HEIGHT:0.300
M106 S0
M140 S55
;PRINTING: NON-OBJECT
;PRINTING_ID: -1
G1 F2400 E-0.5000
G0 F24000 X77.762 Y93.289
G0 F900 Z0.300
;TYPE:SKIRT
;WIDTH:0.700
G1 F1500 E0.0000
G1 F3600 X79.256 Y92.102 E0.1666
G1 X79.806 Y91.737 E0.2242
G1 X81.483 Y90.803 E0.3918
G1 X82.107 Y90.520 E0.4516
G1 X83.885 Y89.887 E0.6164
G1 X84.593 Y89.698 E0.6804
G1 X86.504 Y89.361 E0.8498
G1 X87.115 Y89.302 E0.9034
G1 X89.121 Y89.283 E1.0786
G1 X89.849 Y89.341 E1.1423
G1 X91.708 Y89.639 E1.3067
G1 X92.306 Y89.783 E1.3604
G1 X94.207 Y90.421 E1.5355
G1 X94.827 Y90.689 E1.5944
G1 X96.505 Y91.585 E1.7605
G1 X97.109 Y91.978 E1.8234
G1 X98.687 Y93.196 E1.9975
G1 X99.147 Y93.618 E2.0520
G1 X99.559 Y94.060 E2.1047
G1 X99.716 Y93.863 E2.1267
G1 X100.311 Y93.289 E2.1989
G1 X101.757 Y92.137 E2.3603
G1 X102.356 Y91.737 E2.4232
G1 X104.033 Y90.803 E2.5908
G1 X104.658 Y90.519 E2.6507
G1 X106.551 Y89.851 E2.8260
G1 X107.201 Y89.686 E2.8845
G1 X109.056 Y89.361 E3.0490
G1 X109.785 Y89.296 E3.1129
G1 X111.733 Y89.285 E3.2829
G1 X112.400 Y89.341 E3.3414
G1 X114.322 Y89.652 E3.5114
G1 X114.972 Y89.818 E3.5699
G1 X116.814 Y90.443 E3.7398
G1 X117.428 Y90.713 E3.7983
G1 X119.056 Y91.585 E3.9596
G1 X119.658 Y91.978 E4.0223
G1 X121.189 Y93.156 E4.1910
G1 X121.738 Y93.658 E4.2559
G1 X122.972 Y94.991 E4.4145
G1 X123.424 Y95.566 E4.4784
G1 X124.489 Y97.187 E4.6477
G1 X124.807 Y97.773 E4.7059
G1 X125.569 Y99.494 E4.8703
G1 X125.811 Y100.188 E4.9344
G1 X126.276 Y102.012 E5.0988
G1 X126.399 Y102.728 E5.1622
G1 X126.559 Y104.605 E5.3267
G1 X126.564 Y105.273 E5.3850
G1 X126.409 Y107.210 E5.5547
G1 X126.289 Y107.931 E5.6185
G1 X125.811 Y109.813 E5.7880
G1 X125.565 Y110.515 E5.8530
G1 X124.759 Y112.317 E6.0253
G1 X124.438 Y112.896 E6.0831
G1 X123.387 Y114.484 E6.2494
G1 X122.972 Y115.008 E6.3077
G1 X121.652 Y116.426 E6.4769
G1 X121.155 Y116.873 E6.5352
G1 X119.702 Y117.995 E6.6955
G1 X119.038 Y118.425 E6.7646
G1 X117.322 Y119.337 E6.9342
G1 X116.704 Y119.598 E6.9928
G1 X114.972 Y120.181 E7.1524
G1 X114.263 Y120.359 E7.2162
G1 X112.401 Y120.658 E7.3808
G1 X111.737 Y120.714 E7.4390
G1 X109.791 Y120.705 E7.6089
G1 X109.001 Y120.632 E7.6782
G1 X107.202 Y120.315 E7.8377
G1 X106.552 Y120.150 E7.8962
G1 X104.660 Y119.482 E8.0714
G1 X103.996 Y119.180 E8.1351
G1 X102.398 Y118.293 E8.2947
G1 X101.839 Y117.924 E8.3531
G1 X100.272 Y116.678 E8.5279
G1 X99.828 Y116.264 E8.5809
G1 X99.555 Y115.944 E8.6177
G1 X99.147 Y116.382 E8.6699
G1 X98.650 Y116.836 E8.7287
G1 X97.153 Y117.995 E8.8940
G1 X96.489 Y118.424 E8.9630
G1 X94.829 Y119.309 E9.1272
G1 X94.210 Y119.577 E9.1861
G1 X92.366 Y120.198 E9.3560
G1 X91.655 Y120.370 E9.4199
G1 X89.796 Y120.665 E9.5842
G1 X89.126 Y120.716 E9.6429
G1 X87.119 Y120.699 E9.8181
G1 X86.451 Y120.632 E9.8767
G1 X84.652 Y120.315 E10.0362
G1 X84.002 Y120.150 E10.0948
G1 X82.165 Y119.504 E10.2648
G1 X81.553 Y119.233 E10.3232
G1 X79.849 Y118.293 E10.4931
G1 X79.191 Y117.853 E10.5622
G1 X77.684 Y116.645 E10.7309
G1 X77.215 Y116.198 E10.7874
G1 X76.920 Y115.841 E10.8279
G1 X76.473 Y115.110 E10.9027
G1 X76.221 Y114.500 E10.9603
G1 X76.053 Y113.827 E11.0208
G1 X75.975 Y113.000 E11.0934
G1 X75.975 Y111.302 E11.2416
G1 X76.030 Y110.610 E11.3022
G1 X75.975 Y110.012 E11.3547
G1 X75.975 Y99.988 E12.2298
G1 X76.030 Y99.296 E12.2904
G1 X75.975 Y98.698 E12.3429
G1 X75.975 Y97.001 E12.4910
G1 X76.022 Y96.356 E12.5475
G1 X76.130 Y95.808 E12.5963
G1 X76.338 Y95.185 E12.6536
G1 X76.630 Y94.598 E12.7108
G1 X77.001 Y94.056 E12.7682
G1 X77.762 Y93.289 E12.8625
G1 F2400 E12.3625
G0 F24000 X78.198 Y93.836
G1 F1500 E12.8625
G1 F3600 X79.644 Y92.684 E13.0239
G1 X80.148 Y92.348 E13.0768
G1 X81.774 Y91.439 E13.2395
G1 X82.342 Y91.179 E13.2940
G1 X84.120 Y90.546 E13.4588
G1 X84.715 Y90.387 E13.5125
G1 X86.571 Y90.058 E13.6771
G1 X87.182 Y89.999 E13.7307
G1 X89.068 Y89.981 E13.8954
G1 X89.739 Y90.032 E13.9541
G1 X91.544 Y90.320 E14.1137
G1 X92.142 Y90.464 E14.1674
G1 X93.984 Y91.084 E14.3371
G1 X94.547 Y91.330 E14.3907
G1 X96.125 Y92.173 E14.5469
G1 X96.682 Y92.533 E14.6049
G1 X98.214 Y93.712 E14.7736
G1 X98.674 Y94.134 E14.8281
G1 X99.657 Y95.196 E14.9545
G1 X99.855 Y94.833 E14.9906
G1 X100.204 Y94.365 E15.0415
G1 X100.748 Y93.836 E15.1078
G1 X102.148 Y92.718 E15.2642
G1 X102.698 Y92.348 E15.3221
G1 X104.324 Y91.439 E15.4847
G1 X104.892 Y91.179 E15.5393
G1 X106.726 Y90.529 E15.7092
G1 X107.322 Y90.375 E15.7629
G1 X109.121 Y90.058 E15.9224
G1 X109.790 Y89.996 E15.9810
G1 X111.677 Y89.983 E16.1458
G1 X112.289 Y90.032 E16.1994
G1 X114.151 Y90.331 E16.3641
G1 X114.748 Y90.481 E16.4178
G1 X116.534 Y91.084 E16.5824
G1 X117.097 Y91.330 E16.6360
G1 X118.725 Y92.202 E16.7973
G1 X119.232 Y92.533 E16.8501
G1 X120.718 Y93.674 E17.0137
G1 X121.224 Y94.134 E17.0734
G1 X122.458 Y95.467 E17.2320
G1 X122.872 Y95.997 E17.2907
G1 X123.903 Y97.571 E17.4550
G1 X124.167 Y98.056 E17.5032
G1 X124.929 Y99.777 E17.6675
G1 X125.149 Y100.416 E17.7265
G1 X125.598 Y102.184 E17.8858
G1 X125.709 Y102.844 E17.9442
G1 X125.861 Y104.663 E18.1036
G1 X125.864 Y105.276 E18.1571
G1 X125.711 Y107.153 E18.3215
G1 X125.611 Y107.759 E18.3752
G1 X125.133 Y109.641 E18.5447
G1 X124.926 Y110.230 E18.5992
G1 X124.145 Y111.980 E18.7665
G1 X123.854 Y112.510 E18.8193
G1 X122.837 Y114.051 E18.9805
G1 X122.459 Y114.532 E19.0339
G1 X121.182 Y115.907 E19.1977
G1 X120.727 Y116.319 E19.2513
G1 X119.274 Y117.441 E19.4116
G1 X118.709 Y117.807 E19.4704
G1 X117.047 Y118.693 E19.6348
G1 X116.481 Y118.935 E19.6886
G1 X114.749 Y119.518 E19.8481
G1 X114.152 Y119.668 E19.9019
G1 X112.290 Y119.967 E20.0665
G1 X111.681 Y120.016 E20.1199
G1 X109.795 Y120.005 E20.2845
G1 X109.122 Y119.943 E20.3435
G1 X107.323 Y119.626 E20.5030
G1 X106.727 Y119.472 E20.5568
G1 X104.948 Y118.844 E20.7215
G1 X104.336 Y118.568 E20.7801
G1 X102.738 Y117.681 E20.9397
G1 X102.226 Y117.341 E20.9933
G1 X100.749 Y116.166 E21.1581
G1 X100.305 Y115.752 E21.2111
G1 X100.010 Y115.395 E21.2515
G1 X99.654 Y114.807 E21.3115
G1 X98.674 Y115.866 E21.4375
G1 X98.221 Y116.282 E21.4912
G1 X96.724 Y117.441 E21.6565
G1 X96.159 Y117.807 E21.7153
G1 X94.549 Y118.668 E21.8747
G1 X93.986 Y118.914 E21.9283
G1 X92.199 Y119.518 E22.0930
G1 X91.545 Y119.679 E22.1518
G1 X89.740 Y119.967 E22.3114
G1 X89.131 Y120.016 E22.3648
G1 X87.186 Y120.002 E22.5346
G1 X86.572 Y119.943 E22.5884
G1 X84.773 Y119.626 E22.7479
G1 X84.177 Y119.472 E22.8017
G1 X82.398 Y118.844 E22.9664
G1 X81.838 Y118.594 E23.0199
G1 X80.188 Y117.681 E23.1846
G1 X79.628 Y117.306 E23.2434
G1 X78.163 Y116.135 E23.4071
G1 X77.755 Y115.752 E23.4560
G1 X77.460 Y115.395 E23.4964
G1 X77.117 Y114.836 E23.5537
G1 X76.898 Y114.322 E23.6025
G1 X76.750 Y113.758 E23.6534
G1 X76.675 Y113.000 E23.7199
G1 X76.675 Y111.302 E23.8681
G1 X76.709 Y110.792 E23.9128
G1 X76.736 Y110.631 E23.9270
G1 X76.675 Y110.012 E23.9813
G1 X76.675 Y99.988 E24.8565
G1 X76.709 Y99.478 E24.9011
G1 X76.736 Y99.317 E24.9154
G1 X76.675 Y98.698 E24.9697
G1 X76.675 Y97.001 E25.1178
G1 X76.709 Y96.491 E25.1625
G1 X76.817 Y95.943 E25.2112
G1 X77.000 Y95.414 E25.2601
G1 X77.254 Y94.916 E25.3089
G1 X77.575 Y94.457 E25.3578
G1 X78.198 Y93.836 E25.4346
G1 F2400 E24.9346
G0 F24000 X78.635 Y94.383
G1 F1500 E25.4346
G1 F3600 X80.035 Y93.265 E25.5910
G1 X80.490 Y92.959 E25.6389
G1 X82.116 Y92.050 E25.8015
G1 X82.631 Y91.817 E25.8509
G1 X84.354 Y91.206 E26.0105
G1 X84.893 Y91.064 E26.0592
G1 X86.692 Y90.747 E26.2187
G1 X87.246 Y90.696 E26.2672
G1 X89.074 Y90.681 E26.4268
G1 X89.629 Y90.723 E26.4754
G1 X91.434 Y91.011 E26.6350
G1 X91.975 Y91.144 E26.6837
G1 X93.707 Y91.727 E26.8432
G1 X94.217 Y91.947 E26.8917
G1 X95.795 Y92.790 E27.0479
G1 X96.256 Y93.088 E27.0958
G1 X97.742 Y94.229 E27.2594
G1 X98.160 Y94.610 E27.3088
G1 X99.394 Y95.943 E27.4674
G1 X99.737 Y96.381 E27.5159
G1 X99.946 Y96.699 E27.5492
G1 X99.957 Y96.539 E27.5632
G1 X100.052 Y96.087 E27.6035
G1 X100.209 Y95.651 E27.6440
G1 X100.424 Y95.241 E27.6844
G1 X100.694 Y94.865 E27.7248
G1 X101.185 Y94.383 E27.7849
G1 X102.585 Y93.265 E27.9413
G1 X103.040 Y92.959 E27.9892
G1 X104.666 Y92.050 E28.1518
G1 X105.181 Y91.817 E28.2011
G1 X106.904 Y91.206 E28.3608
G1 X107.443 Y91.064 E28.4094
G1 X109.242 Y90.747 E28.5689
G1 X109.796 Y90.696 E28.6175
G1 X111.624 Y90.681 E28.7771
G1 X112.179 Y90.723 E28.8257
G1 X113.984 Y91.011 E28.9853
G1 X114.525 Y91.144 E29.0339
G1 X116.257 Y91.727 E29.1935
G1 X116.767 Y91.947 E29.2420
G1 X118.345 Y92.790 E29.3982
G1 X118.806 Y93.088 E29.4461
G1 X120.292 Y94.229 E29.6096
G1 X120.710 Y94.610 E29.6590
G1 X121.944 Y95.943 E29.8176
G1 X122.287 Y96.381 E29.8662
G1 X123.288 Y97.906 E30.0255
G1 X123.552 Y98.391 E30.0737
G1 X124.289 Y100.060 E30.2330
G1 X124.471 Y100.588 E30.2817
G1 X124.920 Y102.356 E30.4410
G1 X125.011 Y102.902 E30.4893
G1 X125.163 Y104.721 E30.6487
G1 X125.164 Y105.277 E30.6972
G1 X125.013 Y107.095 E30.8565
G1 X124.921 Y107.643 E30.9050
G1 X124.472 Y109.411 E31.0643
G1 X124.286 Y109.946 E31.1137
G1 X123.531 Y111.645 E31.2760
G1 X123.269 Y112.125 E31.3238
G1 X122.286 Y113.620 E31.4800
G1 X121.945 Y114.056 E31.5283
G1 X120.710 Y115.390 E31.6870
G1 X120.299 Y115.765 E31.7356
G1 X118.846 Y116.887 E31.8959
G1 X118.379 Y117.190 E31.9445
G1 X116.769 Y118.051 E32.1039
G1 X116.258 Y118.272 E32.1525
G1 X114.526 Y118.855 E32.3121
G1 X113.985 Y118.988 E32.3607
G1 X112.180 Y119.276 E32.5203
G1 X111.628 Y119.318 E32.5686
G1 X109.800 Y119.305 E32.7282
G1 X109.243 Y119.254 E32.7771
G1 X107.444 Y118.937 E32.9365
G1 X106.905 Y118.795 E32.9852
G1 X105.182 Y118.184 E33.1448
G1 X104.676 Y117.956 E33.1933
G1 X103.078 Y117.069 E33.3528
G1 X102.615 Y116.759 E33.4015
G1 X101.186 Y115.619 E33.5611
G1 X100.845 Y115.306 E33.6015
G1 X100.550 Y114.949 E33.6419
G1 X100.308 Y114.555 E33.6823
G1 X100.122 Y114.131 E33.7227
G1 X99.996 Y113.686 E33.7631
G1 X99.955 Y113.287 E33.7981
G1 X99.736 Y113.620 E33.8329
G1 X99.395 Y114.056 E33.8813
G1 X98.160 Y115.390 E34.0400
G1 X97.749 Y115.765 E34.0885
G1 X96.296 Y116.887 E34.2488
G1 X95.829 Y117.190 E34.2974
G1 X94.219 Y118.051 E34.4568
G1 X93.708 Y118.272 E34.5054
G1 X91.976 Y118.855 E34.6650
G1 X91.435 Y118.988 E34.7136
G1 X89.630 Y119.276 E34.8732
G1 X89.078 Y119.318 E34.9216
G1 X87.250 Y119.305 E35.0812
G1 X86.693 Y119.254 E35.1300
G1 X84.894 Y118.937 E35.2895
G1 X84.355 Y118.795 E35.3381
G1 X82.632 Y118.184 E35.4977
G1 X82.126 Y117.956 E35.5462
G1 X80.528 Y117.069 E35.7058
G1 X80.065 Y116.759 E35.7544
G1 X78.636 Y115.619 E35.9140
G1 X78.295 Y115.306 E35.9544
G1 X78.000 Y114.949 E35.9949
G1 X77.758 Y114.555 E36.0352
G1 X77.572 Y114.131 E36.0757
G1 X77.446 Y113.686 E36.1160
G1 X77.375 Y113.000 E36.1763
G1 X77.375 Y111.302 E36.3245
G1 X77.407 Y110.840 E36.3649
G1 X77.443 Y110.669 E36.3802
G1 X77.375 Y110.012 E36.4379
G1 X77.375 Y99.988 E37.3130
G1 X77.407 Y99.526 E37.3535
G1 X77.443 Y99.355 E37.3687
G1 X77.375 Y98.698 E37.4264
G1 X77.375 Y97.001 E37.5746
G1 X77.407 Y96.539 E37.6150
G1 X77.502 Y96.087 E37.6553
G1 X77.659 Y95.651 E37.6958
G1 X77.874 Y95.241 E37.7362
G1 X78.144 Y94.865 E37.7766
G1 X78.635 Y94.383 E37.8367
;PRINTING: ZAntiWobbler2.stl
;PRINTING_ID: 0
G1 F2400 E37.3367
G0 F24000 X86.203 Y96.722
;TYPE:WALL-INNER
;WIDTH:0.700
G1 F1500 E37.8367
G1 F3600 X87.497 Y96.493 E37.9514
G1 X88.916 Y96.481 E38.0753
G1 X90.359 Y96.713 E38.2029
G1 X89.976 Y97.267 E38.2617
G1 X89.796 Y97.740 E38.3059
G1 X89.172 Y97.586 E38.3620
G1 X87.350 Y97.591 E38.5211
G1 X86.755 Y97.738 E38.5746
G1 X86.613 Y97.348 E38.6108
G1 X86.203 Y96.722 E38.6762
G1 F2400 E38.1762
G0 F24000 X85.921 Y96.061
G1 F1500 E38.6762
G1 F3600 X87.433 Y95.794 E38.8102
G1 X88.969 Y95.781 E38.9443
G1 X90.486 Y96.024 E39.0785
G1 X91.294 Y96.296 E39.1529
G1 X91.361 Y96.632 E39.1828
G1 X91.120 Y96.842 E39.2107
G1 X90.600 Y97.595 E39.2906
G1 X90.231 Y98.568 E39.3815
G1 X89.088 Y98.286 E39.4843
G1 X87.436 Y98.291 E39.6285
G1 X86.313 Y98.569 E39.7295
G1 X85.983 Y97.664 E39.8136
G1 X85.492 Y96.913 E39.8919
G1 X84.946 Y96.407 E39.9569
G1 X85.921 Y96.061 E40.0473
G1 F2400 E39.5473
G0 F24000 X85.742 Y95.382
G1 F1500 E40.0473
G1 F3600 X87.369 Y95.095 E40.1915
G1 X89.022 Y95.081 E40.3358
G1 X90.654 Y95.342 E40.4801
G1 X92.221 Y95.869 E40.6245
G1 X92.776 Y96.166 E40.6794
G1 X92.775 Y96.522 E40.7105
G1 X92.213 Y96.818 E40.7660
G1 X91.646 Y97.312 E40.8316
G1 X91.224 Y97.923 E40.8964
G1 X90.963 Y98.612 E40.9608
G1 X90.847 Y99.559 E41.0441
G1 X90.421 Y99.336 E41.0860
G1 X89.004 Y98.986 E41.2135
G1 X87.522 Y98.991 E41.3429
G1 X86.130 Y99.335 E41.4681
G1 X85.700 Y99.560 E41.5104
G1 X85.592 Y98.634 E41.5918
G1 X85.353 Y97.980 E41.6526
G1 X84.953 Y97.368 E41.7165
G1 X84.426 Y96.879 E41.7792
G1 X83.775 Y96.508 E41.8446
G1 X83.776 Y96.163 E41.8748
G1 X84.186 Y95.934 E41.9158
G1 X85.742 Y95.382 E42.0599
G1 F2400 E41.5599
G0 F24000 X85.589 Y94.800
G0 X85.563 Y94.703
;TYPE:WALL-OUTER
;WIDTH:0.700
G1 F1500 E42.0599
G1 F3600 X87.305 Y94.396 E42.2143
G1 X89.075 Y94.381 E42.3689
G1 X90.822 Y94.660 E42.5233
G1 X92.499 Y95.224 E42.6778
G1 X94.026 Y96.040 E42.8290
G1 X94.862 Y96.683 E42.9211
G1 X94.654 Y97.116 E42.9630
G1 X94.215 Y97.008 E43.0025
G1 X93.649 Y97.008 E43.0519
G1 X93.098 Y97.143 E43.1014
G1 X92.611 Y97.399 E43.1495
G1 X92.172 Y97.782 E43.2003
G1 X91.849 Y98.250 E43.2500
G1 X91.648 Y98.781 E43.2995
G1 X91.579 Y99.343 E43.3490
G1 X91.648 Y99.906 E43.3985
G1 X91.866 Y100.482 E43.4523
G1 X91.485 Y100.745 E43.4927
G1 X91.312 Y100.593 E43.5128
G1 X90.171 Y99.995 E43.6253
G1 X88.920 Y99.686 E43.7378
G1 X87.608 Y99.691 E43.8523
G1 X86.380 Y99.994 E43.9627
G1 X85.239 Y100.592 E44.0752
G1 X85.069 Y100.742 E44.0950
G1 X84.689 Y100.482 E44.1352
G1 X84.906 Y99.890 E44.1903
G1 X84.970 Y99.343 E44.2383
G1 X84.906 Y98.797 E44.2863
G1 X84.723 Y98.296 E44.3329
G1 X84.414 Y97.823 E44.3822
G1 X84.009 Y97.447 E44.4305
G1 X83.531 Y97.175 E44.4785
G1 X83.003 Y97.022 E44.5265
G1 X82.453 Y96.996 E44.5746
G1 X81.874 Y97.106 E44.6260
G1 X81.681 Y96.685 E44.6665
G1 X82.321 Y96.174 E44.7380
G1 X83.896 Y95.294 E44.8955
G1 X85.563 Y94.703 E45.0499
G0 F3600 X85.760 Y94.669
G1 F2400 E44.5499
G0 F24000 X87.718 Y96.511
G0 X95.562 Y103.498
;TYPE:WALL-INNER
;WIDTH:0.700
G1 F1500 E45.0499
G1 F3600 X96.544 Y102.980 E45.1468
G1 X96.698 Y103.587 E45.2015
G1 X96.818 Y105.000 E45.3253
G1 X96.699 Y106.412 E45.4490
G1 X96.545 Y107.020 E45.5038
G1 X95.561 Y106.502 E45.6009
G1 X95.743 Y105.000 E45.7330
G1 X95.562 Y103.498 E45.8651
G1 F2400 E45.3651
G0 F24000 X95.268 Y102.861
G1 F1500 E45.8651
G1 F3600 X96.069 Y102.439 E45.9441
G1 X96.935 Y101.674 E46.0450
G1 X97.391 Y103.471 E46.2069
G1 X97.520 Y105.000 E46.3408
G1 X97.392 Y106.528 E46.4747
G1 X96.935 Y108.326 E46.6367
G1 X96.069 Y107.561 E46.7375
G1 X95.268 Y107.139 E46.8166
G1 X94.696 Y106.998 E46.8680
G1 X94.842 Y106.615 E46.9038
G1 X95.038 Y105.000 E47.0459
G1 X94.843 Y103.386 E47.1878
G1 X94.697 Y103.002 E47.2237
G1 X95.268 Y102.861 E47.2750
G1 F2400 E46.7750
G0 F24000 X95.017 Y102.202
G1 F1500 E47.2750
G1 F3600 X95.669 Y101.859 E47.3393
G1 X96.221 Y101.371 E47.4037
G1 X96.639 Y100.765 E47.4679
G1 X96.731 Y100.522 E47.4906
G1 X97.128 Y100.511 E47.5253
G1 X97.678 Y101.757 E47.6442
G1 X98.084 Y103.355 E47.7882
G1 X98.222 Y105.000 E47.9323
G1 X98.085 Y106.644 E48.0763
G1 X97.679 Y108.241 E48.2202
G1 X97.127 Y109.485 E48.3390
G1 X96.730 Y109.474 E48.3737
G1 X96.639 Y109.235 E48.3960
G1 X96.221 Y108.629 E48.4603
G1 X95.669 Y108.141 E48.5246
G1 X95.017 Y107.798 E48.5889
G1 X94.301 Y107.621 E48.6533
G1 X93.711 Y107.621 E48.7048
G1 X94.157 Y106.446 E48.8146
